FrankJIE09/Dynamics_identification_Frank/src/config/dynamics_identification_data_real.csv
time,q0,q1,q2,q3,q4,q5,q6,dq0,dq1,dq2,dq3,dq4,dq5,dq6,ddq0,ddq1,ddq2,ddq3,ddq4,ddq5,ddq6,tau0,tau1,tau2,tau3,tau4,tau5,tau6
0.000000,0.000000,0.000000,0.000000,0.000000,-0.000000,-0.000000,0.000000,0.000000,0.000000,0.000000,0.000000,0.000000,-0.001047,0.000000,-0.000000,-0.000000,-0.750021,0.016710,-0.000000,-0.796404,-0.107009,0.736099,-26.569978,0.206080,-6.363182,0.096288,-0.142250,-0.009697
0.020000,0.000003,0.000026,0.000026,0.000017,0.000012,0.000008,0.000009,0.000873,0.005236,0.005236,0.003142,0.002094,0.002094,0.002094,0.752846,0.781503,1.932857,0.126380,-0.669704,1.010463,0.920446,0.614624,-26.323955,0.326770,-6.152854,0.129621,-0.163913,-0.020079
0.040000,0.000094,0.000302,0.000373,0.000244,0.000403,0.000256,0.000298,0.009599,0.022689,0.030369,0.020944,0.039794,0.026180,0.029322,0.769029,2.274983,1.066333,1.967289,3.760195,2.168751,1.071207,0.817083,-24.519785,0.447460,-5.792293,0.185177,-0.033935,0.000684
0.060000,0.000459,0.001021,0.001370,0.000928,0.001670,0.001150,0.001292,0.027053,0.053233,0.071209,0.048171,0.096342,0.068068,0.071209,0.888742,1.314605,2.338446,0.974571,5.888872,3.761128,3.903463,1.060035,-23.535692,0.387115,-5.251451,0.185177,-0.001440,0.083733
0.080000,0.001230,0.002439,0.003265,0.002268,0.004213,0.002996,0.003347,0.049742,0.091630,0.120428,0.086917,0.152891,0.122522,0.129852,3.546592,6.170875,4.705054,0.120407,2.376697,1.642728,6.439342,0.857575,-22.182565,0.296597,-4.890889,0.174066,0.009391,0.042208
0.100000,0.002480,0.004681,0.006295,0.004429,0.008257,0.005931,0.006663,0.076794,0.139626,0.186401,0.127758,0.233525,0.190590,0.219911,3.518538,2.224315,8.155983,2.693597,2.723651,11.345100,20.455924,0.938559,-22.182565,0.296597,-4.920936,0.118510,0.009391,0.073352
0.120000,0.004390,0.007942,0.010727,0.007640,0.014225,0.010270,0.011545,0.116937,0.191986,0.263894,0.182212,0.334056,0.239808,0.297404,5.129963,0.469095,4.906127,0.970826,-11.159036,-24.049971,26.145915,0.898067,-22.264572,0.115563,-5.041123,0.174066,-0.012272,0.083733
0.140000,0.007039,0.012344,0.016717,0.011972,0.022340,0.016189,0.018236,0.155334,0.246091,0.341386,0.248186,0.473333,0.330914,0.360236,0.832092,-0.242931,4.108743,7.336086,24.975405,-17.678905,-13.606340,0.898067,-21.649514,0.387115,-4.470234,0.174066,0.041886,0.125258
0.160000,0.010512,0.017956,0.024440,0.017598,0.032809,0.023857,0.026919,0.198095,0.309796,0.437729,0.309970,0.565487,0.454484,0.463909,3.070715,1.088467,8.462074,3.917312,-21.720540,41.706128,-29.951053,0.776591,-19.968356,0.115563,-4.139720,0.218510,0.020223,0.073352
0.180000,0.014852,0.024852,0.033973,0.024548,0.045784,0.033344,0.037706,0.238237,0.374373,0.524646,0.376991,0.705811,0.516268,0.580147,-0.550935,1.739997,4.397944,-2.523083,-13.190750,-1.734920,-8.271787,0.614624,-19.681329,0.145735,-4.350047,0.174066,0.009391,0.094114
0.200000,0.020120,0.033100,0.045393,0.032879,0.061392,0.044763,0.050655,0.286234,0.444186,0.614705,0.447153,0.827286,0.605280,0.677537,5.575335,4.920444,4.482958,5.678444,0.505107,-7.778907,-24.408936,0.817083,-20.788433,0.296597,-4.199813,0.229621,-0.023103,0.073352
0.220000,0.026297,0.042746,0.058690,0.042627,0.079591,0.058119,0.065803,0.328995,0.520108,0.708953,0.515221,0.990649,0.733038,0.830428,1.860086,4.155082,2.948262,-2.413961,13.745572,18.546832,16.808866,1.141018,-22.715615,0.719012,-4.800749,0.251844,0.009391,0.094114
0.240000,0.033380,0.053652,0.073816,0.053689,0.100310,0.073302,0.083023,0.378736,0.572468,0.800059,0.584336,1.101652,0.791681,0.886976,2.767345,1.665265,2.958754,9.331036,-3.859153,5.745045,-1.233475,0.695608,-19.804341,0.085390,-4.169767,0.096288,-0.012272,0.031827
0.260000,0.041320,0.065714,0.090666,0.066028,0.123426,0.090242,0.102268,0.414516,0.632682,0.888024,0.654498,1.209513,0.874410,1.023112,1.654902,1.013498,5.838506,8.494393,11.782995,-7.185012,-1.939483,0.898067,-23.166657,0.145735,-5.191357,0.162955,-0.131419,0.011065
0.280000,0.050055,0.078940,0.109065,0.079516,0.148704,0.108769,0.123315,0.452913,0.685042,0.955044,0.714189,1.291195,0.945619,1.079661,0.131182,0.859159,0.942085,17.713480,-22.565908,3.590199,5.275687,1.100527,-20.378395,0.779357,-4.500281,0.407399,0.020223,0.042208
0.300000,0.059472,0.093041,0.128819,0.093988,0.175855,0.128706,0.145896,0.486074,0.731293,1.012640,0.749793,1.410575,1.033584,1.141445,2.188005,5.539532,1.210528,3.042509,19.586854,9.777129,-5.467531,1.829381,-23.453684,0.598322,-5.341591,0.318510,0.031054,0.000684
0.320000,0.069461,0.108018,0.149674,0.109303,0.204545,0.149726,0.169746,0.513999,0.766200,1.062906,0.773879,1.455605,1.075472,1.225221,4.541486,3.401871,1.253574,-3.136638,-9.350257,-15.290912,28.521668,2.031840,-25.052835,0.507805,-5.822340,0.174066,0.052717,-0.030460
0.340000,0.079885,0.123513,0.171317,0.125200,0.234322,0.171544,0.194531,0.527962,0.781908,1.089085,0.802153,1.498540,1.091180,1.272345,3.221797,-2.143597,-4.035410,-7.561249,-15.204997,-1.429942,12.391949,2.193808,-24.396773,0.688839,-5.281498,0.296288,0.063549,-0.030460
0.360000,0.090584,0.139271,0.193430,0.141404,0.264779,0.193874,0.219778,0.535816,0.794997,1.110029,0.801106,1.524720,1.128879,1.270251,-2.959198,4.052043,-3.242377,-12.378730,-10.046163,-8.325348,15.507954,1.505446,-26.405963,0.688839,-5.972574,0.107399,0.096043,-0.061603
0.380000,0.101378,0.155147,0.215642,0.157733,0.295352,0.216260,0.245152,0.540179,0.788016,1.103746,0.812625,1.534144,1.140398,1.248259,-0.528299,0.179850,-0.033682,0.052296,12.889542,13.503278,-9.509264,2.355775,-25.667893,1.050909,-5.822340,0.240733,-0.109756,-0.051222
0.400000,0.112096,0.170747,0.237581,0.173831,0.325550,0.238341,0.270168,0.531453,0.774926,1.083849,0.805295,1.474454,1.071283,1.243023,-2.033019,1.529246,-5.538968,7.232850,-20.791760,-7.904226,-4.593374,2.558235,-30.055306,0.719012,-7.024211,0.174066,-0.044766,-0.082365
0.420000,0.122512,0.185938,0.258828,0.189450,0.354794,0.259763,0.294340,0.507891,0.741765,1.034631,0.765501,1.411622,1.033584,1.179144,-4.758219,4.975043,-5.820443,-3.314124,-28.990829,-13.889644,13.169122,2.801186,-27.554071,0.960391,-6.122808,0.207399,-0.066429,-0.061603
0.440000,0.132475,0.200284,0.279009,0.204256,0.382563,0.280050,0.317281,0.484329,0.696386,0.975988,0.706858,1.332035,1.006357,1.117360,0.141740,-2.976033,3.437647,-6.609702,-11.456678,-3.294326,-9.590316,2.598727,-31.408434,1.262116,-7.535007,0.162955,0.020223,-0.051222
0.460000,0.141749,0.213596,0.297708,0.217986,0.408277,0.298807,0.338418,0.441568,0.630064,0.893260,0.642979,1.237788,0.910015,0.992743,-2.789852,-3.211526,0.860121,-15.952609,19.074590,3.542033,-1.891188,2.274792,-28.989206,0.900046,-6.573509,0.107399,0.096043,0.000684
0.480000,0.150172,0.225538,0.314551,0.230349,0.431393,0.315685,0.357409,0.391826,0.562869,0.784351,0.578053,1.066047,0.783304,0.905826,-5.836473,-4.216576,-7.862783,-3.437588,-22.041912,2.429520,-9.320461,3.206105,-33.089592,1.654358,-7.174445,0.262955,0.052717,-0.196558
0.500000,0.157537,0.235944,0.329172,0.241074,0.451461,0.330268,0.373809,0.337721,0.470366,0.664970,0.483805,0.929911,0.678584,0.737227,-4.422499,-8.487457,-11.723437,-9.438443,-12.517593,19.297918,-31.340236,1.991348,-30.629361,1.171598,-6.964118,0.162955,0.226021,-0.082365
0.520000,0.163945,0.244863,0.341775,0.250300,0.468700,0.342778,0.387799,0.320268,0.440696,0.628319,0.459720,0.834616,0.633555,0.711047,4.391722,-4.877362,4.104261,4.914174,-0.436652,15.096851,20.722519,3.206105,-29.768279,1.624185,-6.453322,0.185177,0.020223,-0.040841
0.540000,0.169988,0.253292,0.353669,0.258958,0.485001,0.354558,0.400943,0.322013,0.438078,0.624130,0.454484,0.878599,0.638791,0.677537,0.498965,-1.268557,-1.946471,-3.999617,9.718849,25.181911,-0.030477,2.922662,-22.510596,1.292288,-4.109673,0.207399,0.193527,-0.071984
0.560000,0.176370,0.262026,0.366176,0.268039,0.502135,0.366924,0.414724,0.318523,0.438950,0.620988,0.455531,0.831475,0.596903,0.675442,1.910135,-1.272172,-4.805104,-1.131465,-12.190422,-30.028510,-0.226153,3.408565,-21.198472,1.443150,-3.148176,0.251844,0.182695,0.000684
0.580000,0.182714,0.270845,0.378625,0.277146,0.519146,0.379210,0.428392,0.317650,0.444186,0.622035,0.456578,0.862891,0.635649,0.676490,-0.008346,-0.565888,4.240234,-0.589606,0.621595,31.931876,6.787021,3.975451,-24.724804,1.654358,-4.650515,0.240733,0.161032,-0.030460
0.600000,0.189045,0.279784,0.391040,0.286259,0.536032,0.391366,0.441927,0.315905,0.445932,0.617847,0.449248,0.854513,0.588525,0.686962,1.809814,1.480361,2.257137,-6.166397,5.703529,-15.248328,25.710269,4.380370,-24.683800,1.654358,-4.229860,0.218510,0.269347,-0.040841
0.620000,0.195394,0.288695,0.403436,0.295318,0.552809,0.403460,0.455307,0.318523,0.440696,0.618894,0.457625,0.850324,0.594808,0.661829,0.895608,-1.955869,3.196421,8.124110,8.276254,-19.799030,-16.234839,4.501846,-25.462874,2.046599,-4.380094,0.351844,0.150201,-0.051222
0.640000,0.201759,0.297567,0.415807,0.304367,0.569500,0.415463,0.468596,0.322886,0.440696,0.617847,0.442965,0.842994,0.618894,0.662876,4.983819,0.985509,-1.716612,-2.842201,7.315079,29.722529,16.348323,3.975451,-25.421870,1.714702,-4.560375,0.196288,0.106875,0.011065
0.660000,0.208141,0.306370,0.428164,0.313349,0.586101,0.427380,0.481743,0.322886,0.434587,0.617847,0.447153,0.848230,0.613658,0.634602,3.603802,1.322097,-0.347755,-1.125851,13.857144,27.971634,-31.344365,3.246597,-20.870441,1.473323,-3.328457,0.185177,0.204358,0.062971
0.680000,0.214505,0.315100,0.440487,0.322284,0.602592,0.439219,0.494798,0.316777,0.434587,0.612611,0.446106,0.830428,0.604233,0.657640,-2.229219,-3.870695,-0.519482,-1.623652,-4.563151,29.430084,10.491334,4.177911,-23.084650,1.684530,-3.508737,0.151844,0.258516,-0.009697
0.700000,0.220827,0.323926,0.452769,0.331229,0.619015,0.450950,0.507705,0.315032,0.441568,0.609469,0.445059,0.803201,0.607375,0.656593,1.915123,2.580182,-1.038826,-7.047772,-10.455625,37.015879,28.971908,4.947257,-26.651986,2.227634,-4.440188,0.285177,0.301842,-0.123890
0.720000,0.227144,0.332776,0.465028,0.340114,0.635353,0.462608,0.520476,0.315905,0.438078,0.609469,0.446106,0.823097,0.603186,0.650310,-0.800865,-0.196388,-5.895093,6.655773,16.882977,27.429124,27.504125,4.825781,-23.207661,1.835392,-3.027989,0.296288,0.106875,-0.061603
0.740000,0.233471,0.341497,0.477262,0.348950,0.651602,0.474160,0.533117,0.316777,0.431096,0.614705,0.435634,0.811578,0.574911,0.648215,1.399848,-0.710238,1.230598,-3.994382,-11.674197,-9.862775,26.089972,5.190208,-21.895538,2.137117,-3.118129,0.096288,0.226021,-0.061603
0.760000,0.239799,0.350224,0.489466,0.357762,0.667747,0.485629,0.545620,0.315905,0.438078,0.611563,0.442965,0.811578,0.553968,0.612611,1.248339,-0.008455,-0.529898,6.959225,12.535486,-24.873779,-17.390144,5.311684,-23.781715,2.499186,-3.839252,0.296288,0.291010,-0.030460
0.780000,0.246130,0.358983,0.501633,0.366554,0.683816,0.497036,0.558011,0.318523,0.436332,0.610516,0.434587,0.796917,0.587478,0.608422,1.915635,-0.090019,6.350862,-4.985079,-1.520163,30.570867,1.897458,5.392668,-21.690518,2.287979,-2.336913,0.162955,0.475146,0.042208
0.800000,0.252456,0.367697,0.513776,0.375288,0.699784,0.508299,0.570232,0.315032,0.435460,0.604233,0.437729,0.802153,0.538260,0.614705,-0.789321,2.115601,-4.146380,-2.944357,-8.536113,-31.400255,0.869061,5.838079,-22.551599,2.559531,-2.787614,0.162955,0.193527,-0.009697
0.820000,0.258779,0.376449,0.525874,0.384021,0.715665,0.519485,0.582311,0.318523,0.438078,0.609469,0.438776,0.818908,0.574911,0.616799,1.016706,1.342520,5.822895,-6.309182,20.894067,25.186692,29.714367,5.473652,-25.790905,2.650048,-3.448644,0.251844,0.355999,-0.030460
0.840000,0.265095,0.385204,0.537948,0.392686,0.731410,0.530579,0.594243,0.315032,0.428478,0.606327,0.433540,0.799012,0.560251,0.596903,1.245710,-3.428841,5.056729,10.444057,12.871387,17.678023,14.444482,5.757095,-21.321484,2.559531,-2.306866,0.185177,0.258516,0.031827
0.860000,0.271405,0.393819,0.549994,0.401300,0.747089,0.541544,0.606024,0.313287,0.422370,0.597950,0.426209,0.803201,0.529882,0.590619,-2.772428,-4.739900,0.542869,-1.364125,16.903789,-20.307138,17.775433,6.040538,-20.050364,2.408669,-1.645837,0.151844,0.280179,0.052590
0.880000,0.277704,0.402473,0.561993,0.409894,0.762632,0.552416,0.617667,0.315905,0.433714,0.605280,0.426209,0.783304,0.518363,0.593761,-0.512989,2.317355,3.777136,0.413151,-5.362686,-31.834362,24.734453,6.607425,-24.191754,3.132808,-2.937848,0.229621,0.312673,-0.051222
0.900000,0.284002,0.411209,0.573950,0.418463,0.778079,0.563195,0.629131,0.316777,0.432842,0.593761,0.430398,0.758171,0.516268,0.580147,3.325755,-0.239187,-1.613234,0.785839,-13.945383,-30.229757,7.475862,6.121522,-21.731522,2.529359,-2.036445,0.062955,0.355999,-0.009697
0.920000,0.290305,0.419829,0.585885,0.426944,0.793408,0.573845,0.640429,0.319395,0.424115,0.590619,0.411549,0.769690,0.524646,0.553968,2.859375,-4.729298,-1.643392,-7.018056,20.529203,-0.384339,-3.556831,6.931360,-20.214379,2.831083,-1.435509,0.162955,0.442651,0.011065
0.940000,0.296588,0.428442,0.597779,0.435423,0.808627,0.584391,0.651566,0.311541,0.431096,0.591667,0.428304,0.750841,0.550826,0.539307,0.456273,1.306919,-1.962137,5.148964,-14.212281,34.918532,-25.188680,7.214803,-23.289669,3.072463,-1.976351,0.229621,0.323505,-0.040841
0.960000,0.302875,0.437102,0.609635,0.443857,0.823734,0.594806,0.662549,0.311541,0.428478,0.591667,0.415737,0.768643,0.500560,0.560251,-2.794544,-2.374353,2.920631,-3.421567,19.406253,-30.081454,16.299339,6.364473,-20.501406,2.770738,-1.345369,0.274066,0.377662,0.062971
0.980000,0.309168,0.445662,0.621459,0.452198,0.838722,0.605123,0.673363,0.315032,0.428478,0.595855,0.411549,0.738274,0.520457,0.547684,4.063609,-1.387565,3.230390,-0.728086,4.813395,16.006361,10.324283,7.498246,-19.599321,3.102635,-1.074948,0.174066,0.388494,-0.030460
1.000000,0.315431,0.454248,0.633219,0.460558,0.853569,0.615312,0.684002,0.314159,0.431096,0.583289,0.414690,0.717330,0.489041,0.515221,2.254958,-1.407482,-6.331536,-11.856166,-18.654788,-30.978458,-17.715720,7.579230,-23.494688,3.344015,-1.856164,0.174066,0.442651,-0.020079
1.020000,0.321705,0.462868,0.644954,0.468843,0.868312,0.625397,0.694460,0.314159,0.426733,0.589572,0.405265,0.722566,0.511032,0.506844,-2.029902,-0.999219,6.260714,-4.990269,-7.551247,13.329341,-16.519700,7.538738,-19.640325,2.951773,-0.804527,0.096288,0.377662,-0.009697
1.040000,0.327982,0.471374,0.656658,0.477067,0.882931,0.635347,0.704734,0.315905,0.427606,0.589572,0.410501,0.718378,0.513127,0.521504,3.269271,0.348220,9.060458,3.225876,1.448557,28.020794,11.705083,7.741198,-19.230286,3.132808,-0.654293,0.162955,0.312673,0.000684
1.060000,0.334243,0.479900,0.668303,0.485279,0.897428,0.645167,0.714844,0.311541,0.428478,0.585383,0.408407,0.736180,0.508938,0.515221,-0.063678,-1.012874,2.931990,-4.953179,24.867443,32.380153,26.719989,7.943657,-22.182565,3.313842,-1.074948,0.162955,0.453483,0.031827
1.080000,0.340496,0.488471,0.679901,0.493420,0.911781,0.654869,0.724762,0.308051,0.427606,0.573864,0.405265,0.718378,0.490088,0.496372,-4.235510,-1.606312,-2.207023,0.721524,-10.160120,13.691213,9.739174,8.146117,-19.886348,3.132808,-0.714386,0.140733,0.345168,0.052590
1.100000,0.346742,0.496932,0.691478,0.501493,0.926001,0.664432,0.734502,0.313287,0.421497,0.571770,0.404218,0.705811,0.452389,0.495324,2.478376,1.162412,-1.091187,0.652068,2.036322,-31.442790,22.275989,8.874971,-18.287198,3.344015,0.006737,0.218510,0.464314,0.042208
1.120000,0.352986,0.505404,0.702997,0.509550,0.940099,0.673881,0.744054,0.315032,0.429351,0.571770,0.403171,0.681726,0.471239,0.487994,0.681455,1.740771,1.457863,-2.979513,-25.097445,7.348455,19.907735,8.551036,-21.936541,3.645739,-0.834573,0.274066,0.323505,-0.020079
1.140000,0.359230,0.513920,0.714466,0.517548,0.954057,0.683192,0.753406,0.314159,0.422370,0.577006,0.395841,0.702670,0.452389,0.448201,2.705245,-2.078557,5.027548,-1.585786,-2.174663,-10.042934,-28.254721,9.198906,-18.820248,3.464704,0.096877,0.251844,0.399325,0.000684
1.160000,0.365465,0.522322,0.725905,0.525471,0.967888,0.692376,0.762547,0.310669,0.418006,0.570723,0.397935,0.700575,0.471239,0.445059,-3.336924,1.435419,-2.531579,1.091816,7.936296,26.817538,-4.763461,8.874971,-17.795151,3.464704,0.487485,0.162955,0.312673,0.011065
1.180000,0.371698,0.530730,0.737289,0.533362,0.981552,0.701408,0.771528,0.310669,0.422370,0.562345,0.391652,0.694292,0.452389,0.461814,-0.729991,2.215785,-6.816586,-0.923607,1.465515,4.148391,26.953387,9.401366,-20.296387,3.887119,0.006737,0.196288,0.312673,0.011065
1.200000,0.377906,0.539191,0.748613,0.541220,0.995090,0.710313,0.780289,0.311541,0.424115,0.559203,0.389557,0.657640,0.440870,0.439823,3.613350,0.718980,1.083363,-3.893603,-27.026697,-2.689968,11.711811,9.239398,-20.050364,4.068153,0.066830,0.207399,0.410157,0.031827
1.220000,0.384130,0.547564,0.759916,0.548981,1.008497,0.719078,0.788860,0.311541,0.414516,0.568628,0.387463,0.668112,0.442965,0.398982,0.154376,-2.810298,3.951317,7.426653,13.898414,3.739046,-35.502116,9.482349,-17.016078,3.706084,0.757906,0.151844,0.345168,0.000684
1.240000,0.390349,0.555906,0.771153,0.556703,1.021744,0.727690,0.797241,0.309796,0.419752,0.558156,0.380133,0.664970,0.449248,0.432493,1.586595,-0.746318,-7.958248,-6.865784,-0.572124,33.355884,29.132131,9.806285,-20.009360,3.917291,0.397345,0.162955,0.377662,-0.020079
1.260000,0.396539,0.564297,0.782335,0.564389,1.034860,0.736157,0.805412,0.305433,0.418879,0.564439,0.383274,0.661829,0.410501,0.392699,-1.982501,0.815191,6.281155,3.009986,24.545176,-11.050364,-22.785244,10.332679,-19.312294,3.826774,0.637719,0.251844,0.388494,0.062971
1.280000,0.402738,0.572609,0.793482,0.571986,1.047798,0.744517,0.813360,0.311541,0.410152,0.548732,0.380133,0.640885,0.423068,0.370708,-0.740927,-1.138197,-7.134741,-3.755535,1.477605,6.789649,-30.552069,10.008744,-16.401020,3.585394,1.178561,0.229621,0.475146,0.021446
1.300000,0.408933,0.580883,0.804577,0.579551,1.060614,0.752687,0.821112,0.310669,0.420624,0.550826,0.375944,0.629366,0.380133,0.362330,2.749353,2.111212,-1.923734,-4.657589,-4.975508,-37.579827,-32.925634,10.413663,-18.902256,3.766429,0.908140,0.151844,0.355999,0.052590
1.320000,0.415110,0.589218,0.815600,0.587058,1.073263,0.760720,0.828648,0.310669,0.414516,0.549779,0.366519,0.623083,0.390605,0.387463,3.589419,0.059533,5.707705,-1.333260,4.607191,-7.371442,21.968763,11.385469,-19.435306,4.128498,1.058374,0.218510,0.345168,0.011065
1.340000,0.421293,0.597476,0.826598,0.594480,1.085765,0.768602,0.835962,0.310669,0.408407,0.551873,0.368614,0.638791,0.378038,0.340339,-0.647593,-0.107201,0.984134,3.237043,21.520047,-5.821771,-26.811468,10.575631,-15.170904,3.585394,2.049918,0.174066,0.366831,-0.020079
1.360000,0.427474,0.605669,0.837534,0.601855,1.098102,0.776359,0.843073,0.303687,0.407534,0.543496,0.359189,0.593761,0.364425,0.352906,-2.186138,-2.282428,2.134135,-5.431101,-26.320257,-25.902376,12.904117,11.021042,-17.836155,3.887119,1.298748,0.218510,0.442651,0.021446
1.380000,0.433619,0.613943,0.848399,0.609187,1.110274,0.783948,0.849975,0.307178,0.411025,0.539307,0.368614,0.623083,0.359189,0.345575,2.194753,-1.156247,-4.582314,6.920755,17.455208,-28.741743,18.387804,11.466452,-19.722333,4.128498,1.388889,0.196288,0.431820,-0.009697
1.400000,0.439778,0.622158,0.859233,0.616442,1.122309,0.791377,0.856653,0.307178,0.407534,0.540354,0.370708,0.598997,0.385369,0.306829,-0.686517,-1.313680,1.992398,10.094020,10.236206,30.517108,-17.950360,11.102025,-15.252912,3.675912,2.170105,0.196288,0.410157,0.021446
1.420000,0.445943,0.630286,0.870013,0.623641,1.134173,0.798664,0.863139,0.308923,0.405789,0.537212,0.361283,0.588525,0.342434,0.323584,4.958358,0.489108,-2.030838,2.271949,5.858700,-28.351213,-1.949708,11.142517,-16.565035,3.856946,2.079965,0.174066,0.399325,0.052590
1.440000,0.452075,0.638456,0.880711,0.630779,1.145872,0.805786,0.869366,0.307178,0.409280,0.534071,0.356047,0.580147,0.338245,0.286932,1.468489,3.681259,2.088342,-0.363301,4.765328,-12.974067,-16.849052,12.357274,-18.861252,4.822465,1.839591,0.251844,0.399325,-0.020079
1.460000,0.458209,0.646627,0.891373,0.637856,1.157411,0.812746,0.875377,0.308923,0.401426,0.535118,0.360236,0.591667,0.339292,0.287979,-0.795343,0.065248,0.085324,5.066292,29.024997,5.098491,4.594648,11.587928,-15.334919,3.947464,2.320339,0.207399,0.464314,0.000684
1.480000,0.464349,0.654692,0.901981,0.644855,1.168750,0.819551,0.881162,0.307178,0.405789,0.526740,0.351858,0.550826,0.322537,0.270177,1.293129,0.762783,3.463533,-0.210761,-20.133837,-12.874602,-5.841204,12.316782,-15.662950,4.007809,2.320339,0.151844,0.453483,0.021446
1.500000,0.470463,0.662789,0.912511,0.651808,1.179957,0.826201,0.886744,0.304560,0.406662,0.527788,0.346622,0.573864,0.313112,0.262847,-0.298861,0.301378,6.747241,0.144338,19.272166,-28.613815,-28.873346,12.924161,-18.164186,4.671602,2.110012,0.196288,0.431820,0.042208
1.520000,0.476568,0.670885,0.923001,0.658679,1.190996,0.832692,0.892063,0.302815,0.405789,0.520457,0.343481,0.555015,0.345575,0.263894,-4.147089,-1.207569,-2.474403,4.468100,13.241433,30.911409,15.709137,12.519242,-14.596850,3.766429,2.710947,0.185177,0.410157,0.021446
1.540000,0.482684,0.678865,0.933439,0.665480,1.201849,0.839017,0.897196,0.303687,0.397062,0.516268,0.339292,0.536165,0.291121,0.269130,0.644855,-0.065870,-3.741034,-2.149767,2.514015,-31.803957,21.996913,12.316782,-14.678858,4.249188,3.011415,0.207399,0.366831,0.042208
1.560000,0.488778,0.686893,0.943790,0.672235,1.212537,0.845162,0.902072,0.304560,0.397935,0.512080,0.343481,0.540354,0.299498,0.259705,1.086754,-5.175920,-4.018549,9.626647,17.908010,8.980235,21.908416,13.288588,-17.467120,4.792292,2.740994,0.251844,0.442651,0.052590
1.580000,0.494862,0.694929,0.954092,0.678919,1.223040,0.851150,0.906714,0.306305,0.397935,0.517316,0.331962,0.529882,0.311018,0.224100,1.435540,-1.684381,5.610576,-0.668316,12.649452,27.227708,8.900358,12.559734,-15.375923,4.158671,2.891228,0.129621,0.366831,0.021446
1.600000,0.500960,0.702854,0.964357,0.685519,1.233364,0.856966,0.911147,0.304560,0.396190,0.506844,0.331962,0.500560,0.290074,0.219911,2.221390,0.742731,-5.241302,3.052164,-16.049117,16.621235,-7.297750,12.519242,-13.243722,3.917291,3.281836,0.140733,0.345168,-0.040841
1.620000,0.507027,0.710764,0.974533,0.692064,1.243524,0.862629,0.915337,0.299324,0.395317,0.500560,0.326726,0.493230,0.262847,0.186401,-3.901374,0.202769,-4.174447,1.665402,-15.039049,-13.737307,-13.548009,13.976950,-16.278008,4.671602,2.951322,0.240733,0.431820,-0.009697
1.640000,0.513078,0.718736,0.984641,0.698558,1.253508,0.868136,0.919284,0.304560,0.398808,0.508938,0.317301,0.506844,0.279602,0.178024,2.723156,-0.398195,1.653063,-4.394027,15.780261,1.680736,-5.569098,13.733999,-16.237004,4.520740,3.251790,0.240733,0.399325,0.021446
1.660000,0.519142,0.726605,0.994707,0.704952,1.263295,0.873440,0.923006,0.304560,0.389208,0.501608,0.312065,0.498466,0.246091,0.173835,1.979663,-1.413417,-1.294454,-10.073391,15.245635,-11.161790,-12.049279,13.369572,-12.341637,4.007809,4.002959,0.229621,0.366831,-0.009697
1.680000,0.525211,0.734428,1.004711,0.711288,1.272904,0.878579,0.926479,0.303687,0.390081,0.503702,0.317301,0.466003,0.260752,0.173835,-0.821510,0.221184,2.568303,-3.961174,-12.092075,18.275961,7.997385,13.814982,-14.719862,4.400050,3.552257,0.207399,0.410157,0.021446
1.700000,0.531246,0.742289,1.014623,0.717545,1.282353,0.883556,0.929733,0.306305,0.390081,0.494277,0.316254,0.466003,0.254469,0.159174,3.062123,-0.102778,1.009607,3.858325,-2.772804,20.107444,-7.180786,14.665312,-15.375923,4.490568,3.612351,0.240733,0.334336,0.021446
1.720000,0.537263,0.750117,1.024487,0.723728,1.291578,0.888343,0.932737,0.298451,0.384845,0.487994,0.308923,0.446106,0.240855,0.143466,-4.981070,-5.105789,-5.931006,2.443415,-15.839294,18.165712,-6.474779,14.300885,-12.915692,3.977636,4.183240,0.151844,0.355999,0.052590
1.740000,0.543303,0.757861,1.034301,0.729855,1.300638,0.892984,0.935490,0.300197,0.383972,0.485900,0.301593,0.459720,0.206298,0.139277,0.390443,0.707706,1.461894,0.962242,19.947277,-19.475370,0.719824,13.976950,-13.817777,4.701775,4.002959,0.318510,0.355999,-0.020079
1.760000,0.549317,0.765633,1.044023,0.735908,1.309532,0.897443,0.938013,0.300197,0.383972,0.486947,0.309970,0.455531,0.235619,0.118333,1.532002,-0.532246,1.208098,0.446380,27.308887,11.286893,0.980130,14.705804,-14.719862,4.731947,3.912819,0.240733,0.323505,0.000684
1.780000,0.555321,0.773372,1.053687,0.741869,1.318197,0.901721,0.940306,0.296706,0.384845,0.482758,0.302640,0.430398,0.193732,0.112050,-4.311998,0.755950,1.329835,7.827717,6.669344,-19.395426,0.528375,14.503345,-12.956695,4.068153,4.123146,0.151844,0.323505,0.011065
1.800000,0.561316,0.781038,1.063296,0.747748,1.326695,0.905804,0.942355,0.297579,0.383100,0.480664,0.290074,0.407360,0.187448,0.103673,1.832275,-0.294289,0.744736,2.197447,-22.844377,-1.557804,2.532628,15.029739,-13.079707,3.947464,4.513755,0.196288,0.355999,0.042208
1.820000,0.567292,0.788724,1.072817,0.753581,1.335000,0.909720,0.944145,0.299324,0.383972,0.467050,0.286932,0.427257,0.179071,0.087965,1.009828,0.162793,-1.763850,-0.925269,30.775123,-2.859998,0.377386,15.718102,-14.268819,4.852637,4.303427,0.262955,0.453483,0.011065
1.840000,0.573276,0.796382,1.082275,0.759329,1.343122,0.913469,0.945728,0.296706,0.383972,0.475428,0.285885,0.405265,0.170693,0.071209,-4.221520,-0.058124,2.152313,1.419367,3.271737,-13.483716,-0.003724,14.827280,-13.325730,4.279361,4.123146,0.229621,0.399325,0.021446
1.860000,0.579267,0.803970,1.091685,0.765007,1.351036,0.917035,0.947016,0.298451,0.377864,0.468097,0.278555,0.392699,0.186401,0.062832,3.152551,1.445496,0.176470,1.233138,-9.985376,5.108387,2.924340,14.989247,-10.906502,3.856946,4.784176,0.140733,0.323505,0.042208
1.880000,0.585227,0.811537,1.101002,0.770607,1.358750,0.920414,0.948116,0.297579,0.381354,0.459720,0.281696,0.394793,0.154985,0.050265,2.938527,-1.479816,-0.945146,-2.046308,18.688789,-4.996063,0.531807,15.434658,-13.325730,4.339705,4.573848,0.218510,0.355999,0.042208
1.900000,0.591158,0.819122,1.110247,0.776108,1.366267,0.923620,0.948975,0.294961,0.380482,0.466003,0.270177,0.366519,0.159174,0.034558,1.728026,1.942400,3.647647,-2.432702,4.139171,6.525562,-1.166605,16.446956,-13.448742,4.430223,5.024550,0.185177,0.334336,0.011065
1.920000,0.597096,0.826660,1.119417,0.781559,1.373618,0.926639,0.949540,0.297579,0.371755,0.449248,0.267035,0.361283,0.154985,0.019897,1.998133,-2.594564,0.420133,-4.376561,-4.796315,6.508066,-1.231462,15.637118,-11.357545,3.977636,5.174784,0.140733,0.323505,0.052590
1.940000,0.603048,0.834124,1.128552,0.786912,1.380738,0.929479,0.949873,0.298451,0.374373,0.451342,0.263894,0.328820,0.139277,0.011519,4.220810,3.044138,-8.302349,-4.797290,-24.559386,7.305044,-0.122351,15.637118,-11.644572,4.128498,4.754129,0.240733,0.366831,0.000684
1.960000,0.608975,0.841586,1.137582,0.792211,1.387664,0.932140,0.949992,0.298451,0.368264,0.445059,0.264941,0.325678,0.122522,0.001047,3.212984,-2.804417,-3.127134,-4.237993,-12.664284,-1.114413,-0.019333,16.284988,-12.013607,4.188843,5.114690,0.251844,0.355999,-0.020079
1.980000,0.614872,0.849040,1.146537,0.797393,1.394402,0.934615,0.949939,0.298451,0.370882,0.447153,0.265988,0.313112,0.126711,-0.007330,4.257241,-0.752878,-3.498885,6.423310,-25.329127,1.471983,-0.935786,16.892367,-12.710672,4.400050,4.694035,0.162955,0.323505,-0.071984
2.000000,0.620777,0.856448,1.155438,0.802538,1.400961,0.936908,0.949595,0.294961,0.364774,0.446106,0.252375,0.330914,0.103673,-0.025133,-2.653655,1.369660,1.710399,-3.486174,7.522719,-2.464104,-1.028421,16.284988,-10.824495,3.796601,5.294971,0.196288,0.366831,-0.092747
2.020000,0.626681,0.863805,1.164253,0.807562,1.407284,0.939018,0.948969,0.290597,0.366519,0.441917,0.250280,0.295310,0.097389,-0.037699,-2.219985,0.512828,1.965821,2.139154,-13.885304,0.583868,-2.740234,16.284988,-11.316541,3.947464,4.934410,0.229621,0.345168,-0.134271
2.040000,0.632576,0.871144,1.173000,0.812544,1.413397,0.940933,0.948066,0.290597,0.363901,0.433540,0.249233,0.312065,0.086917,-0.051313,-4.661135,3.475148,-0.793723,-2.144867,19.479251,-2.936942,0.440311,16.770891,-11.480556,4.037981,5.565392,0.229621,0.399325,-0.113509
2.060000,0.638431,0.878470,1.181654,0.817409,1.419307,0.942693,0.946909,0.295833,0.365646,0.424115,0.238761,0.297404,0.081681,-0.059690,2.492517,2.228281,1.248695,-3.380413,21.570961,-2.769012,0.888395,17.702205,-10.701483,3.887119,5.805766,0.262955,0.334336,-0.134271
2.080000,0.644280,0.885744,1.190257,0.822198,1.425034,0.944223,0.945563,0.290597,0.362156,0.431445,0.239808,0.267035,0.075398,-0.072257,-3.453487,-1.664818,-1.810713,1.491743,-4.922584,-0.747619,-1.066234,16.973350,-10.742487,4.279361,5.505298,0.251844,0.431820,-0.196558
2.100000,0.650146,0.892995,1.198771,0.826946,1.430578,0.945622,0.943961,0.291470,0.362156,0.422021,0.232478,0.269130,0.059690,-0.082729,-1.331629,0.807913,-2.872982,-3.581063,-15.992081,-3.672088,-0.862308,16.770891,-10.455460,3.796601,5.535345,0.174066,0.410157,-0.175796
2.120000,0.656011,0.900198,1.207206,0.831571,1.435879,0.946772,0.942126,0.296706,0.359538,0.414690,0.223053,0.258658,0.053407,-0.091106,5.108852,1.570455,2.428220,-3.767492,10.370286,2.572769,3.600609,16.770891,-11.070518,4.068153,4.874316,0.207399,0.323505,-0.196558
2.140000,0.661834,0.907395,1.215574,0.836111,1.440976,0.947795,0.940031,0.290597,0.356047,0.416785,0.228289,0.264941,0.041888,-0.105767,0.224292,-1.056880,-0.313086,-0.282724,20.971238,-2.043484,-1.009864,17.904664,-9.758394,3.947464,6.286515,0.218510,0.355999,-0.186177
2.160000,0.667635,0.914535,1.223851,0.840586,1.445883,0.948628,0.937734,0.291470,0.351684,0.411549,0.222006,0.252375,0.035605,-0.124617,-0.797488,-1.296862,5.380558,-2.233220,14.102068,-1.047121,-5.150290,17.904664,-10.947506,3.736257,5.775720,0.218510,0.366831,-0.186177
2.180000,0.673449,0.921665,1.232059,0.844968,1.450539,0.949209,0.935171,0.290597,0.358665,0.416785,0.216770,0.219911,0.023038,-0.125664,-0.615710,1.641481,6.580626,0.712067,3.085704,-0.124135,1.253835,17.985648,-9.922410,3.585394,5.715626,0.218510,0.420988,-0.165415
2.200000,0.679260,0.928740,1.240187,0.849267,1.455037,0.949666,0.932368,0.289725,0.353429,0.403171,0.208392,0.218864,0.018850,-0.141372,-1.838235,1.325269,-2.793160,-2.762304,-10.411556,0.516875,6.531099,17.418761,-9.676386,3.464704,5.775720,0.218510,0.345168,-0.206939
2.220000,0.685064,0.935775,1.248246,0.853474,1.459321,0.949926,0.929334,0.291470,0.350811,0.404218,0.207345,0.202109,0.008378,-0.149749,2.271027,2.746703,2.345152,2.937997,1.756817,0.776758,8.683238,17.418761,-9.143336,3.645739,6.286515,0.151844,0.377662,-0.134271
2.240000,0.690826,0.942806,1.256203,0.857613,1.463373,0.950001,0.926080,0.292343,0.352557,0.393746,0.200015,0.200015,-0.000000,-0.166504,4.116421,-2.205310,-4.776334,-7.155982,11.509033,-0.002388,-9.373638,18.512043,-10.373452,3.736257,6.406702,0.229621,0.334336,-0.186177
2.260000,0.696580,0.949802,1.264085,0.861674,1.467214,0.949956,0.922549,0.289725,0.349066,0.394793,0.209440,0.185354,-0.006283,-0.180118,0.378591,1.140294,6.511255,5.561993,7.660336,-2.466888,9.353205,18.350075,-9.799398,3.887119,6.076187,0.229621,0.204358,-0.155034
2.280000,0.702345,0.956760,1.271890,0.865630,1.470855,0.949717,0.918793,0.287107,0.344703,0.390605,0.194779,0.162316,-0.017802,-0.208392,0.177538,-3.809843,4.824009,4.387462,-8.725005,-0.937445,-6.216296,18.471551,-9.020325,3.525049,5.655532,0.296288,-0.261397,-0.196558
2.300000,0.708106,0.963641,1.279629,0.869491,1.474278,0.949226,0.914803,0.287107,0.339467,0.382227,0.191637,0.172788,-0.029322,-0.215723,-0.687571,-3.113336,-2.214301,5.060250,7.987685,-0.782317,0.641416,18.026140,-8.364263,3.404360,5.986047,0.162955,-0.543016,-0.165415
2.320000,0.713833,0.970520,1.287268,0.873263,1.477505,0.948572,0.910600,0.286234,0.342957,0.378038,0.182212,0.149749,-0.036652,-0.201062,0.730649,2.749503,-3.969562,-1.095718,-11.402877,-1.241842,19.962544,18.674010,-9.758394,3.434532,6.526889,0.185177,-0.662162,-0.134271
2.340000,0.719526,0.977383,1.294820,0.876953,1.480500,0.947695,0.906157,0.284489,0.340339,0.378038,0.182212,0.139277,-0.050265,-0.240855,-1.105529,-2.614138,3.718134,4.290088,-7.908507,-0.128725,-20.468905,19.402864,-9.307352,3.736257,6.526889,0.207399,-0.662162,-0.196558
2.360000,0.725238,0.984201,1.302294,0.880566,1.483286,0.946620,0.901479,0.286234,0.339467,0.373850,0.175929,0.140324,-0.060737,-0.231431,-1.193281,2.145522,-2.864675,-2.153235,-2.495987,-0.146125,-6.872627,18.714502,-8.282255,3.404360,6.436749,0.207399,-0.672994,-0.123890
2.380000,0.730970,0.990952,1.309709,0.884094,1.485825,0.945375,0.896565,0.282743,0.337721,0.373850,0.167552,0.124617,-0.062832,-0.240855,-3.608113,4.623887,4.427860,-2.375040,2.024470,0.388547,-3.697910,17.783188,-8.159243,3.344015,5.775720,0.229621,-0.683825,-0.103128
2.400000,0.736673,0.997689,1.317017,0.887534,1.488199,0.943958,0.891430,0.280998,0.338594,0.362330,0.162316,0.111003,-0.073304,-0.274366,-1.632596,1.401624,1.034516,-2.339622,-3.228146,0.871736,-23.885419,18.916962,-8.528278,3.313842,6.166328,0.151844,-0.705488,-0.123890
2.420000,0.742315,1.004404,1.324231,0.890861,1.490390,0.942325,0.886038,0.281871,0.335976,0.361283,0.158127,0.096342,-0.079587,-0.259705,3.661099,1.730265,5.060354,-1.620614,-4.388011,-0.846809,29.385211,20.050735,-9.594379,3.555222,6.797310,0.207399,-0.672994,-0.144652
2.440000,0.747954,1.011094,1.331369,0.894119,1.492279,0.940530,0.880449,0.280998,0.331613,0.351858,0.159174,0.089012,-0.092153,-0.307876,-2.307205,-2.943834,-0.827311,6.917445,-1.676337,5.525195,-22.540970,19.686308,-7.667197,3.193152,6.677123,0.129621,-0.672994,-0.165415
2.460000,0.753633,1.017698,1.338433,0.897288,1.494036,0.938542,0.874641,0.281871,0.328995,0.341386,0.147655,0.079587,-0.102625,-0.317301,-2.537116,-2.526619,-6.655910,-3.041548,-1.825359,3.427609,-28.908319,18.431059,-7.749205,2.891428,6.166328,0.107399,-0.748815,-0.134271
2.480000,0.759304,1.024279,1.345407,0.900387,1.495483,0.936365,0.868596,0.280125,0.326377,0.344528,0.144513,0.069115,-0.107861,-0.322537,0.364801,-1.626573,0.669108,-2.238973,1.025055,0.698471,-12.198945,18.997945,-7.790209,3.132808,6.316562,0.185177,-0.759646,-0.155034
2.500000,0.764908,1.030844,1.352280,0.903364,1.496819,0.934047,0.862342,0.274889,0.328122,0.338245,0.147655,0.060737,-0.124617,-0.297404,0.297204,2.410768,2.407110,3.767221,-1.006440,-7.400492,26.630683,20.860573,-8.569282,3.585394,6.947544,0.196288,-0.813804,-0.123890
2.520000,0.770485,1.037389,1.359074,0.906241,1.497867,0.931495,0.855837,0.278380,0.329867,0.338245,0.141372,0.048171,-0.126711,-0.351858,-0.185475,2.584735,-0.509246,0.485653,0.012678,5.123003,-18.725352,20.293686,-7.134147,2.831083,7.037684,0.162955,-0.792141,-0.144652
2.540000,0.776102,1.043850,1.365796,0.909043,1.498683,0.928786,0.849132,0.279253,0.318523,0.330914,0.139277,0.037699,-0.143466,-0.358142,-1.483763,-5.349098,-4.583493,-0.491279,-0.104999,2.057994,-30.647930,19.038437,-7.175151,2.770738,6.526889,0.096288,-0.835467,-0.103128
2.560000,0.781731,1.050286,1.372430,0.911772,1.499362,0.925901,0.842201,0.280125,0.322013,0.336150,0.138230,0.026180,-0.159174,-0.374897,-2.194827,2.588036,3.875901,5.548997,-1.154408,-4.956407,-32.768067,19.321881,-6.847120,2.921600,6.617030,0.229621,-0.770478,-0.144652
2.580000,0.787311,1.056690,1.378959,0.914406,1.499785,0.922821,0.835054,0.279253,0.317650,0.323584,0.123569,0.014661,-0.158127,-0.367566,0.653673,-1.156489,0.404438,-2.266545,-0.248089,4.795470,1.624462,20.698605,-8.200247,3.072463,6.707170,0.207399,-0.737983,-0.186177
2.600000,0.792844,1.063083,1.385401,0.916915,1.499988,0.919575,0.827717,0.280125,0.318523,0.320442,0.130900,0.004189,-0.157080,-0.366519,0.786825,-2.032539,-4.449069,3.662991,-2.477498,6.211485,-1.984846,21.063032,-6.888124,2.921600,7.217965,0.185177,-0.781309,-0.113509
2.620000,0.798388,1.069406,1.391758,0.919337,1.500005,0.916140,0.820141,0.285361,0.315032,0.314159,0.121475,-0.001047,-0.188496,-0.365472,6.807118,1.144527,-0.592760,3.085112,-0.109343,-12.774954,28.975468,19.767291,-7.134147,2.951773,6.857404,0.140733,-0.694657,-0.134271
2.640000,0.803957,1.075694,1.398032,0.921718,1.499867,0.912540,0.812373,0.275762,0.311541,0.313112,0.106814,-0.014661,-0.172788,-0.383274,-4.287263,-1.563127,0.768495,-6.091115,0.496303,3.420609,20.046462,19.402864,-6.437081,2.438841,6.586983,0.029621,-0.792141,-0.144652
2.660000,0.809498,1.081937,1.404218,0.923988,1.499420,0.908748,0.804399,0.274017,0.312414,0.302640,0.117286,-0.029322,-0.181165,-0.384322,-0.850571,-0.263780,-1.770087,3.511552,-0.387143,5.503989,30.111924,20.455654,-7.257158,2.559531,6.767263,-0.037045,-0.802972,-0.155034
2.680000,0.814989,1.088165,1.410304,0.926102,1.498711,0.904777,0.796213,0.270526,0.310669,0.300546,0.099484,-0.037699,-0.192684,-0.418879,-2.124214,0.929506,-2.270329,-6.531135,1.682731,2.457645,-16.217005,21.022540,-6.642100,2.740566,7.187918,0.029621,-0.727152,-0.103128
2.700000,0.820469,1.094335,1.416304,0.928200,1.497813,0.900653,0.787806,0.274017,0.306305,0.300546,0.096342,-0.046077,-0.209440,-0.405265,3.794262,-1.906933,1.876642,1.487933,-0.890467,-8.678545,29.801803,20.779589,-6.232062,2.740566,6.947544,-0.070379,-0.716320,-0.175796
2.720000,0.825970,1.100474,1.422209,0.930169,1.496761,0.896324,0.779200,0.274017,0.300197,0.299498,0.099484,-0.056549,-0.226195,-0.456578,1.846951,-5.142472,2.844717,-2.127364,-0.109306,6.054906,-27.916227,20.212702,-6.396077,1.986254,6.917497,-0.114823,-0.748815,-0.155034
2.740000,0.831461,1.106559,1.428032,0.932052,1.495450,0.891831,0.770400,0.271399,0.304560,0.291121,0.089012,-0.075398,-0.225147,-0.471239,-0.394964,4.471767,5.829903,3.687238,-3.757342,-8.951280,-33.977426,20.496146,-6.683104,2.287979,6.857404,-0.114823,-0.748815,-0.134271
2.760000,0.836920,1.112623,1.433748,0.933856,1.493890,0.887146,0.761413,0.270526,0.303687,0.287979,0.091106,-0.078540,-0.222006,-0.463909,-1.775039,2.848969,3.026089,-1.143094,2.570855,14.767079,-8.998945,20.941556,-6.355073,2.619876,6.887451,-0.237045,-0.813804,-0.134271
2.780000,0.842360,1.118637,1.439393,0.935527,1.492187,0.882294,0.752239,0.272271,0.296706,0.278555,0.079587,-0.098437,-0.230383,-0.444012,-1.292830,-2.162597,-1.168582,-0.012648,-2.096132,21.903826,27.161540,20.739097,-5.945035,2.287979,7.157872,-0.192601,-0.813804,-0.113509
2.800000,0.847793,1.124609,1.444941,0.937157,1.490200,0.877293,0.742857,0.271399,0.298451,0.274366,0.077493,-0.103673,-0.239808,-0.490088,-0.335984,1.823973,-2.122788,-1.996650,-0.362468,14.649049,-25.285354,20.941556,-5.822023,2.167289,7.037684,-0.225934,-0.781309,-0.155034
2.820000,0.853210,1.130545,1.450388,0.938658,1.488035,0.872118,0.733299,0.275762,0.295833,0.269130,0.070162,-0.119381,-0.260752,-0.497419,5.520806,-4.401355,-1.723154,2.999335,0.295914,-12.716571,-22.427557,21.265492,-6.191058,2.438841,7.127825,-0.248156,-0.857130,-0.113509
2.840000,0.858616,1.136452,1.455744,0.940065,1.485676,0.866746,0.723541,0.268781,0.298451,0.265988,0.065973,-0.121475,-0.277507,-0.495324,-0.175873,0.580368,-1.844150,-1.259443,-0.667562,6.440267,-7.116735,21.589427,-5.904031,2.378496,7.248012,-0.214823,-0.813804,-0.123890
2.860000,0.864019,1.142305,1.461010,0.941405,1.483048,0.861231,0.713584,0.268781,0.292343,0.257611,0.065973,-0.127758,-0.289027,-0.521504,1.396683,2.056026,-5.331842,1.069283,4.725134,-19.947324,-28.176243,20.496146,-4.755923,1.654358,6.827357,-0.170379,-0.813804,-0.186177
2.880000,0.869412,1.148102,1.466189,0.942628,1.480219,0.855522,0.703452,0.262672,0.289725,0.260752,0.059690,-0.146608,-0.276460,-0.513127,-5.276782,-0.389627,1.510564,0.992081,1.515355,8.125440,-9.401361,21.346475,-5.699012,2.469014,7.037684,-0.181490,-0.759646,-0.155034
2.900000,0.874760,1.153880,1.471251,0.943755,1.477194,0.849654,0.693161,0.261799,0.285361,0.250280,0.051313,-0.158127,-0.281696,-0.513127,-6.545234,-3.305725,0.740813,-0.493278,5.544924,8.585247,7.427299,21.872870,-5.493992,1.744875,7.248012,-0.214823,-0.824635,-0.144652
2.920000,0.880092,1.159614,1.476243,0.944814,1.473978,0.843624,0.682685,0.265290,0.284489,0.242950,0.052360,-0.159174,-0.304734,-0.511032,-2.305319,-0.867848,-5.215312,0.089543,3.543854,-11.877835,20.462139,21.872870,-5.781019,2.499186,7.157872,-0.181490,-0.683825,-0.134271
2.940000,0.885441,1.165308,1.481128,0.945745,1.470534,0.837419,0.672026,0.267035,0.282743,0.238761,0.042935,-0.190590,-0.331962,-0.531976,1.936230,-2.583916,-1.714079,1.541193,-8.562157,-19.751968,1.063117,20.982048,-5.042950,1.805220,6.977591,-0.214823,-0.781309,-0.082365
2.960000,0.890795,1.170938,1.485929,0.946586,1.466886,0.831072,0.661193,0.267908,0.279253,0.232478,0.039794,-0.187448,-0.302640,-0.540354,3.661248,1.685212,-4.565619,-0.002024,-8.319662,19.929638,-0.226522,20.577129,-4.960942,1.775047,7.037684,-0.225934,-0.770478,-0.134271
2.980000,0.896099,1.176539,1.490620,0.947338,1.463014,0.824523,0.650192,0.262672,0.277507,0.233525,0.035605,-0.194779,-0.339292,-0.530929,2.646818,-0.605097,-0.444339,-0.106739,-1.310168,-1.825704,37.225289,22.196805,-5.452988,2.137117,7.368199,-0.225934,-0.770478,-0.103128
3.000000,0.901359,1.182102,1.495228,0.948025,1.458933,0.817835,0.639019,0.259181,0.273144,0.220959,0.032463,-0.212581,-0.358142,-0.575959,-2.094424,-2.117235,-0.577641,-0.687062,-11.535627,-25.499181,-15.123442,22.399265,-5.083954,1.775047,7.518433,-0.192601,-0.813804,-0.155034
3.020000,0.906634,1.187632,1.499732,0.948601,1.454642,0.810997,0.627694,0.262672,0.273144,0.223053,0.024086,-0.225147,-0.368614,-0.549779,-2.456187,1.103640,-2.291197,-0.141116,-2.622203,-32.733550,20.243320,21.751394,-5.001946,1.714702,7.067731,-0.214823,-0.716320,-0.155034
3.040000,0.911927,1.193108,1.504155,0.949058,1.450159,0.803993,0.616209,0.264417,0.267908,0.223053,0.019897,-0.229336,-0.373850,-0.593761,-1.736789,-4.241414,1.639924,-0.691414,-10.994314,-20.990444,-28.092487,21.144016,-4.222873,1.714702,6.827357,-0.237045,-0.716320,-0.144652
3.060000,0.917203,1.198529,1.508466,0.949430,1.445430,0.796837,0.604564,0.264417,0.270526,0.208392,0.015708,-0.229336,-0.352906,-0.608422,3.197204,0.091488,-1.564730,-1.012721,7.588045,16.880080,-33.028286,21.508443,-4.673915,1.352633,6.887451,-0.214823,-0.802972,-0.123890
3.080000,0.922415,1.203931,1.512682,0.949696,1.440524,0.789512,0.592755,0.256563,0.270526,0.208392,0.010472,-0.232478,-0.379086,-0.613658,-0.895995,-0.558813,-0.542490,-0.674182,9.599452,-19.650229,-30.520564,23.006643,-4.755923,1.533668,7.278059,-0.237045,-0.759646,-0.092747
3.100000,0.927608,1.209281,1.516802,0.949874,1.435406,0.782032,0.580797,0.260054,0.266163,0.206298,0.006283,-0.262847,-0.358142,-0.612611,4.202818,-2.763220,2.008436,-0.124043,-10.944719,29.985493,-25.720695,22.844676,-4.632911,1.865565,7.518433,-0.281490,-0.770478,-0.092747
3.120000,0.932826,1.214584,1.520817,0.949975,1.430073,0.774406,0.568700,0.260054,0.266163,0.197920,0.003142,-0.276460,-0.387463,-0.587478,-4.731579,-0.323700,0.201223,0.764637,-1.443517,0.206261,23.442419,21.791886,-4.222873,1.412978,7.248012,-0.214823,-0.727152,-0.092747
3.140000,0.938049,1.219836,1.524760,0.949991,1.424548,0.766631,0.556452,0.260054,0.264417,0.198968,0.000000,-0.287979,-0.406313,-0.638791,0.812719,2.413338,4.655142,0.004035,-14.439737,-13.100050,-31.358317,21.913362,-3.689822,1.563840,7.007638,-0.281490,-0.748815,-0.155034
3.160000,0.943230,1.225046,1.528590,0.949930,1.418802,0.758690,0.544077,0.258309,0.256563,0.192684,-0.005236,-0.280649,-0.403171,-0.601091,2.241903,-5.033940,0.974754,-0.015096,4.384618,3.276687,39.135685,22.196805,-4.181869,1.412978,6.767263,-0.237045,-0.737983,-0.123890
3.180000,0.948369,1.230229,1.532327,0.949744,1.412852,0.750620,0.531536,0.252200,0.258309,0.185354,-0.011519,-0.287979,-0.391652,-0.620988,-2.824484,1.175286,-2.038231,-0.015019,0.979000,26.960937,1.539400,22.682708,-3.812834,1.412978,6.887451,-0.237045,-0.781309,-0.113509
3.200000,0.953503,1.235350,1.535965,0.949455,1.406697,0.742412,0.518863,0.253073,0.259181,0.175929,-0.017802,-0.326726,-0.414690,-0.636696,-1.343589,1.849786,-3.843459,-2.481494,-25.017459,-6.490000,-14.606303,23.249595,-4.427892,1.171598,6.677123,-0.237045,-0.759646,-0.082365
3.220000,0.958640,1.240434,1.539492,0.949062,1.400355,0.734039,0.506064,0.255691,0.254818,0.170693,-0.021991,-0.314159,-0.415737,-0.638791,-0.413014,4.592820,-6.231491,-0.126891,23.366235,11.472430,-5.867801,22.601724,-4.058857,1.262116,6.677123,-0.270379,-0.792141,-0.113509
3.240000,0.963776,1.245475,1.542933,0.948586,1.393811,0.725505,0.493150,0.256563,0.246964,0.168599,-0.025133,-0.351858,-0.450295,-0.626224,3.176018,-5.760264,-2.079923,-0.096711,-25.732096,-32.635004,26.285718,22.358773,-3.607815,1.141426,6.677123,-0.270379,-0.727152,-0.103128
3.260000,0.968885,1.250461,1.546266,0.947998,1.387057,0.716854,0.480093,0.250455,0.249582,0.164410,-0.033510,-0.357094,-0.447153,-0.655546,-2.575478,0.982142,-1.242438,-1.687781,-23.292907,-18.109853,15.330476,22.115821,-3.935845,1.231943,6.617030,-0.259267,-0.683825,-0.082365
3.280000,0.973964,1.255414,1.549505,0.947293,1.380092,0.708070,0.466904,0.247837,0.251327,0.161268,-0.036652,-0.372802,-0.442965,-0.673348,-4.310078,4.727815,3.810772,-0.155714,-27.282473,-9.319454,-25.482933,23.492546,-3.771830,1.201771,6.647076,-0.214823,-0.748815,-0.123890
3.300000,0.979009,1.260313,1.552640,0.946521,1.372942,0.699122,0.453615,0.253073,0.241728,0.158127,-0.037699,-0.361283,-0.471239,-0.657640,-1.174320,2.019257,0.811714,1.785682,5.832447,-28.327043,28.541979,23.614022,-3.525807,0.930219,6.857404,-0.225934,-0.759646,-0.155034
3.320000,0.984060,1.265179,1.555680,0.945693,1.365612,0.690029,0.440198,0.255691,0.239110,0.148702,-0.042935,-0.373850,-0.467050,-0.659734,4.541230,-2.335639,-0.840518,-0.872056,-8.046074,-17.866522,5.809727,22.520740,-3.648818,1.171598,6.346608,-0.181490,-0.770478,-0.092747
3.340000,0.989124,1.269988,1.558616,0.944760,1.358052,0.680845,0.426681,0.250455,0.239983,0.143466,-0.047124,-0.366519,-0.445059,-0.690103,1.754621,-1.751591,-1.296587,2.579515,31.153797,27.870322,-24.620720,22.844676,-3.115768,0.900046,6.556936,-0.203712,-0.781309,-0.113509
3.360000,0.994162,1.274749,1.561477,0.943681,1.350296,0.671508,0.413039,0.249582,0.234747,0.136136,-0.056549,-0.379086,-0.486947,-0.704764,-3.340452,2.935902,-1.230416,-1.700405,19.323281,-29.115341,-25.413335,22.601724,-3.074764,0.930219,6.466796,-0.181490,-0.748815,-0.165415
3.380000,0.999158,1.279473,1.564223,0.942539,1.342370,0.662026,0.399294,0.246964,0.231256,0.134041,-0.054454,-0.385369,-0.458673,-0.713142,-1.349400,-2.973191,1.729375,4.695919,25.524875,22.869095,-28.463515,23.411562,-3.320788,0.960391,6.737217,-0.237045,-0.727152,-0.113509
3.400000,1.004124,1.284143,1.566873,0.941316,1.334261,0.652418,0.385448,0.250455,0.230383,0.130900,-0.062832,-0.401077,-0.463909,-0.712094,4.872755,1.175878,-3.372148,-0.075183,10.723866,33.679372,-33.050233,23.735497,-3.156772,0.719012,6.647076,-0.237045,-0.737983,-0.113509
3.420000,1.009094,1.288783,1.569395,0.939979,1.325923,0.642697,0.371517,0.247837,0.227765,0.126711,-0.069115,-0.429351,-0.479616,-0.684867,1.169580,-4.413273,0.388590,-3.227398,-12.243383,17.721682,1.036929,23.411562,-3.525807,0.839701,6.647076,-0.225934,-0.737983,-0.103128
3.440000,1.014077,1.293363,1.571826,0.938558,1.317415,0.632826,0.357493,0.247837,0.228638,0.112050,-0.070162,-0.437729,-0.478569,-0.686962,0.273552,-2.062045,-9.073108,1.438134,-18.086784,27.220889,29.330924,22.885168,-3.033760,0.930219,6.466796,-0.225934,-0.727152,-0.030460
3.460000,1.019032,1.297899,1.574187,0.937067,1.308716,0.622850,0.343348,0.246964,0.225147,0.114145,-0.075398,-0.431445,-0.483805,-0.739321,1.570353,0.275799,0.411657,2.020692,9.206529,26.536889,-38.037570,23.047135,-2.869745,0.869874,6.436749,-0.214823,-0.748815,-0.134271
3.480000,1.023958,1.302380,1.576420,0.935427,1.299843,0.612760,0.329139,0.241728,0.221657,0.108909,-0.082729,-0.445059,-0.513127,-0.689056,-2.905236,-1.048015,0.030555,-1.222070,2.498208,-6.070832,18.778316,23.654514,-3.074764,0.628494,6.556936,-0.248156,-0.813804,-0.071984
3.500000,1.028848,1.306823,1.578556,0.933754,1.290737,0.602517,0.314822,0.244346,0.216421,0.106814,-0.087965,-0.475428,-0.516268,-0.743510,-2.070395,-3.140007,1.695951,-2.150121,-25.926230,-6.472814,-31.676846,24.099924,-2.787737,0.507805,6.737217,-0.281490,-0.683825,-0.071984
3.520000,1.033722,1.311214,1.580602,0.931920,1.281482,0.592177,0.300469,0.247837,0.217293,0.096342,-0.092153,-0.448201,-0.528835,-0.714189,3.470904,-1.552904,-5.930353,-0.008012,27.059019,-11.817127,23.462024,23.614022,-2.295691,1.050909,6.586983,-0.281490,-0.683825,-0.092747
3.540000,1.038613,1.315560,1.582532,0.930080,1.272035,0.581734,0.286003,0.243473,0.215548,0.093201,-0.097389,-0.497419,-0.504749,-0.704764,0.963234,2.019022,-1.449280,-2.784642,-31.993103,30.784428,15.264212,23.330578,-2.787737,0.688839,6.106234,-0.248156,-0.813804,-0.113509
3.560000,1.043493,1.319872,1.584368,0.928044,1.262410,0.571140,0.271464,0.240855,0.217293,0.093201,-0.101578,-0.492183,-0.535118,-0.729897,-3.798360,-2.521848,4.229991,-1.054280,-14.150449,-8.329322,-18.917113,23.209103,-2.787737,0.839701,6.556936,-0.281490,-0.792141,-0.123890
3.580000,1.048331,1.324126,1.586099,0.925998,1.252590,0.560460,0.256851,0.244346,0.212930,0.082729,-0.109956,-0.498466,-0.552920,-0.755029,2.327940,1.336696,0.536247,-0.915017,-7.662096,-29.386815,-33.283361,23.614022,-2.336695,0.296597,6.346608,-0.270379,-0.651331,-0.030460
3.600000,1.053147,1.328321,1.587745,0.923834,1.242597,0.549682,0.242199,0.236492,0.208567,0.080634,-0.103673,-0.522552,-0.563392,-0.753982,0.042304,2.750925,0.561040,3.467556,-24.947524,-30.646091,-26.558035,23.978449,-2.377699,0.507805,6.526889,-0.237045,-0.770478,-0.061603
3.620000,1.057952,1.332480,1.589257,0.921522,1.232432,0.538770,0.227473,0.238237,0.205949,0.073304,-0.118333,-0.502655,-0.560251,-0.753982,-4.293991,0.482593,1.538463,-2.378032,18.073306,-23.389049,-23.352058,24.099924,-2.213683,0.477632,6.526889,-0.237045,-0.683825,-0.082365
3.640000,1.062738,1.336579,1.590695,0.919203,1.222073,0.527767,0.212679,0.240855,0.204204,0.070162,-0.123569,-0.536165,-0.533024,-0.758171,3.462422,0.865534,-0.918537,-1.400415,-22.704536,23.403814,-23.188588,23.897465,-2.254687,0.447460,6.466796,-0.281490,-0.878793,-0.113509
3.660000,1.067532,1.340656,1.592040,0.916769,1.211558,0.516674,0.197833,0.241728,0.203331,0.059690,-0.121475,-0.517316,-0.546637,-0.748746,3.968989,-2.103108,-2.503719,-3.118714,24.351091,19.134103,-19.964412,23.735497,-2.377699,0.598322,6.436749,-0.303712,-0.694657,-0.040841
3.680000,1.072303,1.344658,1.593237,0.914210,1.200863,0.505433,0.182958,0.237365,0.198095,0.059690,-0.130900,-0.522552,-0.581195,-0.726755,-3.356705,3.478741,-0.661901,-2.008516,28.935503,-27.754508,6.571846,24.018941,-2.254687,0.568149,6.707170,-0.281490,-0.748815,-0.061603
3.700000,1.077030,1.348639,1.594377,0.911583,1.189985,0.494147,0.168026,0.233874,0.198968,0.053407,-0.132994,-0.534071,-0.546637,-0.731991,0.491545,0.000502,1.508326,4.238928,25.920486,30.059100,23.459860,24.342876,-2.172679,0.719012,6.647076,-0.292601,-0.597173,-0.103128
3.720000,1.081743,1.352547,1.595400,0.908866,1.178946,0.482737,0.153033,0.229511,0.193732,0.046077,-0.142419,-0.560251,-0.577006,-0.766549,-2.104857,0.177341,-0.019691,-3.678279,-7.948330,-12.664916,1.085321,24.180908,-1.639629,0.145735,6.947544,-0.248156,-0.727152,-0.071984
3.740000,1.086448,1.356406,1.596294,0.906065,1.167734,0.471216,0.138001,0.234747,0.190241,0.040841,-0.138230,-0.561298,-0.601091,-0.767596,-2.461913,-2.998469,-0.941517,0.436017,-6.852758,-27.136060,-25.755780,24.464352,-2.049668,0.356942,6.466796,-0.270379,-0.608005,-0.040841
3.760000,1.091147,1.360218,1.597137,0.903153,1.156345,0.459635,0.122961,0.234747,0.191114,0.039794,-0.144513,-0.582242,-0.591667,-0.734085,-0.197553,1.624614,-0.779070,0.230539,-7.917231,-5.433409,13.604346,23.937957,-1.680633,0.236252,6.617030,-0.281490,-0.759646,-0.061603
3.780000,1.095830,1.363992,1.597870,0.900160,1.144806,0.447952,0.107874,0.233001,0.189368,0.031416,-0.151844,-0.566534,-0.581195,-0.769690,-2.880288,0.066509,-1.790213,2.793113,26.642453,14.402293,-3.313629,23.937957,-2.500710,0.568149,6.376655,-0.270379,-0.683825,-0.061603
3.800000,1.100481,1.367725,1.598463,0.897079,1.133092,0.436172,0.092755,0.233874,0.181514,0.026180,-0.158127,-0.573864,-0.574911,-0.756077,1.814244,-2.541539,-0.888679,2.120042,24.764855,24.856222,-13.965737,23.735497,-2.008664,0.447460,6.376655,-0.281490,-0.705488,-0.134271
3.820000,1.105108,1.371391,1.598954,0.893909,1.121213,0.424331,0.077618,0.226893,0.185005,0.020944,-0.163363,-0.588525,-0.591667,-0.742463,0.654910,-0.957044,-0.019652,3.110154,17.846333,13.264541,22.636825,24.747795,-2.254687,0.507805,6.406702,-0.281490,-0.651331,-0.082365
3.840000,1.109717,1.375023,1.599361,0.890645,1.109176,0.412371,0.062449,0.232129,0.181514,0.017802,-0.169646,-0.615752,-0.614705,-0.772832,0.717142,-1.881223,-0.903659,-2.489705,-9.977426,-17.646673,-25.406189,24.464352,-1.352602,0.115563,6.436749,-0.325934,-0.672994,-0.030460
3.860000,1.114325,1.378578,1.599685,0.887299,1.096968,0.400343,0.047296,0.229511,0.178896,0.011519,-0.172788,-0.607375,-0.613658,-0.742463,1.058834,6.665341,-1.013047,-1.105617,0.814907,-25.748345,21.461470,24.059433,-1.270594,0.115563,6.436749,-0.225934,-0.683825,-0.061603
3.880000,1.118929,1.382095,1.599893,0.883860,1.084613,0.388266,0.032094,0.228638,0.171915,0.006283,-0.174882,-0.630413,-0.588525,-0.781209,-1.983912,-1.554746,-1.807112,2.875308,-10.056173,25.247081,-25.770480,24.342876,-1.680633,0.055218,6.707170,-0.237045,-0.640499,-0.030460
3.900000,1.123497,1.385568,1.599997,0.880340,1.072111,0.376063,0.016904,0.225147,0.171915,0.002094,-0.180118,-0.619941,-0.627271,-0.739321,1.405977,2.645867,-0.000284,0.323968,21.553051,-15.704131,12.400163,24.180908,-1.475614,0.266425,6.737217,-0.359267,-0.683825,-0.040841
3.920000,1.128045,1.388994,1.600000,0.876723,1.059440,0.363833,0.001693,0.227765,0.169297,-0.002094,-0.185354,-0.618894,-0.605280,-0.781209,0.664585,-0.149471,-0.918151,-2.872658,24.072025,3.324759,-23.550373,24.666811,-1.721637,0.266425,6.496842,-0.337045,-0.553847,-0.071984
3.940000,1.132549,1.392382,1.599915,0.873024,1.046629,0.351502,-0.013483,0.227765,0.171042,-0.006283,-0.188496,-0.630413,-0.633555,-0.739321,2.390237,-0.161410,0.791406,-2.203463,28.563511,-13.697957,16.565733,25.112222,-1.639629,-0.005127,6.496842,-0.259267,-0.705488,-0.040841
3.960000,1.137045,1.395702,1.599705,0.869230,1.033644,0.339118,-0.028697,0.225147,0.166679,-0.013614,-0.190590,-0.657640,-0.596903,-0.786445,2.245454,1.249639,-1.010469,4.905304,2.913698,33.304265,-18.123689,25.314681,-1.516618,-0.306852,6.586983,-0.381490,-0.608005,-0.030460
3.980000,1.141550,1.398975,1.599389,0.865347,1.020529,0.326663,-0.043880,0.226020,0.161443,-0.017802,-0.196873,-0.668112,-0.626224,-0.743510,-2.461088,1.941132,0.759726,4.556715,-20.835252,-11.623587,4.954090,24.018941,-1.393606,0.025045,6.466796,-0.237045,-0.651331,-0.103128
4.000000,1.146054,1.402185,1.598973,0.861394,1.007271,0.314127,-0.059066,0.226893,0.156207,-0.023038,-0.194779,-0.660782,-0.650310,-0.777021,3.102522,-1.920481,-0.798825,6.092807,13.418506,-26.878085,-6.677980,24.302384,-0.778548,-0.367196,6.647076,-0.281490,-0.575510,-0.020079
4.020000,1.150518,1.405352,1.598471,0.857356,0.993855,0.301570,-0.074210,0.222529,0.155334,-0.026180,-0.195826,-0.662876,-0.629366,-0.744557,0.784207,-1.151553,-0.016683,2.862094,3.745075,8.636561,-4.667674,24.504843,-1.311598,-0.065472,6.977591,-0.414823,-0.586342,-0.082365
4.040000,1.154949,1.408487,1.597857,0.853215,0.980304,0.288920,-0.089360,0.214675,0.154462,-0.034558,-0.214675,-0.688009,-0.622035,-0.752935,-4.010417,-0.136602,-1.049441,-7.230313,-18.060363,26.093700,19.613441,25.193206,-1.065575,-0.276679,6.617030,-0.325934,-0.705488,-0.030460
4.060000,1.159351,1.411546,1.597118,0.848984,0.966598,0.276221,-0.104490,0.222529,0.147480,-0.037699,-0.211534,-0.712094,-0.618894,-0.772832,0.133784,-3.112908,2.472272,0.630952,-33.383365,31.529744,-28.433747,26.084027,-0.983567,-0.337024,6.256468,-0.392601,-0.683825,-0.009697
4.080000,1.163737,1.414567,1.596280,0.844675,0.952776,0.263479,-0.119581,0.220784,0.146608,-0.043982,-0.219911,-0.701622,-0.618894,-0.731991,3.387121,1.893737,-1.695790,1.027839,-18.927448,34.493171,26.023443,25.071730,-1.147583,-0.276679,6.617030,-0.292601,-0.608005,-0.061603
4.100000,1.168133,1.417528,1.595358,0.840288,0.938805,0.250660,-0.134638,0.220784,0.145735,-0.045029,-0.216770,-0.690103,-0.626224,-0.769690,3.467130,0.316059,2.669538,4.807313,7.202052,29.474842,-9.363157,24.950254,-0.983567,-0.246507,6.707170,-0.403712,-0.575510,-0.020079
4.120000,1.172500,1.420446,1.594371,0.835839,0.924701,0.237823,-0.149671,0.216421,0.143990,-0.053407,-0.216770,-0.715236,-0.630413,-0.756077,-2.724059,1.145769,1.535108,4.927836,5.311599,24.406903,-21.622883,24.828779,-1.270594,-0.306852,6.977591,-0.237045,-0.586342,-0.040841
4.140000,1.176859,1.423322,1.593211,0.831273,0.910454,0.224908,-0.164653,0.217293,0.143990,-0.060737,-0.232478,-0.708953,-0.658687,-0.726755,0.116033,0.472113,0.776941,-3.609749,-5.275152,-5.122088,11.483591,25.193206,-1.393606,-0.005127,6.136281,-0.270379,-0.564679,-0.040841
4.160000,1.181184,1.426140,1.591983,0.826619,0.896082,0.211960,-0.179610,0.212058,0.138754,-0.061785,-0.224100,-0.734085,-0.666018,-0.733038,1.336149,-0.473044,0.433189,5.713528,-6.772706,-30.600970,26.654705,25.112222,-1.188587,-0.155989,6.466796,-0.259267,-0.640499,-0.051222
4.180000,1.185489,1.428906,1.590677,0.821910,0.881593,0.198984,-0.194508,0.216421,0.137881,-0.070162,-0.238761,-0.719425,-0.646121,-0.757124,0.921669,2.792137,0.710047,-2.662063,16.976320,-7.581354,-4.128468,25.071730,-0.532525,-0.035300,7.067731,-0.314823,-0.737983,-0.009697
4.200000,1.189753,1.431604,1.589208,0.817088,0.866961,0.185957,-0.209368,0.210312,0.130027,-0.073304,-0.240855,-0.714189,-0.631460,-0.765501,-1.271924,-1.842393,3.369726,4.144009,23.961890,24.953841,-25.053843,25.557633,-0.819552,-0.427541,6.526889,-0.281490,-0.629668,-0.071984
4.220000,1.194037,1.434269,1.587713,0.812203,0.852214,0.172908,-0.224167,0.211185,0.130900,-0.076445,-0.243997,-0.731991,-0.664970,-0.760265,-3.632769,-1.232592,1.757204,0.722745,15.930269,-0.099683,-33.592019,24.990746,-0.491521,-0.186162,6.586983,-0.259267,-0.608005,-0.040841
4.240000,1.198296,1.436876,1.586056,0.807251,0.837327,0.159793,-0.238919,0.209440,0.126536,-0.084823,-0.251327,-0.747699,-0.663923,-0.753982,-0.039660,-0.538202,-0.073520,-2.490009,13.759122,-19.704137,-22.867513,25.557633,-0.778548,-0.397369,6.887451,-0.214823,-0.543016,-0.009697
4.260000,1.202530,1.439445,1.584328,0.802183,0.822339,0.146685,-0.253591,0.213803,0.129154,-0.090059,-0.255516,-0.769690,-0.631460,-0.752935,2.281076,2.818029,0.284846,4.246839,-15.060742,31.291715,-26.924810,25.233698,-0.614533,-0.306852,6.917497,-0.237045,-0.651331,-0.061603
4.280000,1.206744,1.441952,1.582471,0.797076,0.807224,0.133522,-0.268200,0.207694,0.127409,-0.093201,-0.261799,-0.742463,-0.676490,-0.752935,-0.707449,3.329733,0.832215,-0.912052,8.602516,-19.110401,-17.467959,25.476649,-0.696540,-0.095644,6.977591,-0.192601,-0.759646,-0.040841
4.300000,1.210922,1.444405,1.580551,0.791844,0.791992,0.120339,-0.282738,0.212058,0.126536,-0.100531,-0.264941,-0.785398,-0.647168,-0.719425,0.863069,4.822030,-1.229813,-3.207587,-11.270896,6.304027,23.379289,25.274189,-0.614533,-0.216334,6.406702,-0.292601,-0.586342,-0.051222
4.320000,1.215098,1.446792,1.578502,0.786567,0.776650,0.107151,-0.297221,0.204204,0.120428,-0.107861,-0.272271,-0.746652,-0.668112,-0.701622,-0.985979,2.420847,-1.962402,-6.989587,21.161990,3.929903,15.348641,25.800584,-1.147583,-0.186162,6.617030,-0.159267,-0.651331,-0.092747
4.340000,1.219249,1.449149,1.576358,0.781192,0.761204,0.093903,-0.311629,0.207694,0.114319,-0.104720,-0.269130,-0.770737,-0.659734,-0.725708,1.364470,-0.433465,1.471479,-1.753022,-9.871300,-6.722451,-18.897000,25.193206,-0.573529,-0.125817,6.466796,-0.237045,-0.543016,-0.103128
4.360000,1.223401,1.451452,1.574119,0.775762,0.745623,0.080675,-0.325928,0.208567,0.108210,-0.114145,-0.278555,-0.784351,-0.669159,-0.711047,1.424983,-3.913758,-0.877343,-8.286996,-9.329917,4.307576,18.746895,26.003044,-1.024571,-0.306852,6.857404,-0.137045,-0.499690,-0.061603
4.380000,1.227511,1.453703,1.571780,0.770230,0.729962,0.067402,-0.340172,0.208567,0.106465,-0.122522,-0.273319,-0.804248,-0.658687,-0.707906,2.559570,-3.091018,-3.889497,-0.043919,-21.998754,-6.358147,-15.293711,25.112222,-0.409513,-0.246507,6.556936,-0.181490,-0.488858,-0.061603
4.400000,1.231604,1.455891,1.569344,0.764629,0.714175,0.054144,-0.354312,0.207694,0.109956,-0.122522,-0.286932,-0.795870,-0.663923,-0.690103,1.383941,0.669885,-3.336425,1.288536,-13.357520,5.912559,31.062341,25.395665,-0.204494,-0.186162,6.556936,-0.125934,-0.456364,-0.071984
4.420000,1.235682,1.458012,1.566791,0.758964,0.698310,0.040860,-0.368390,0.199840,0.103847,-0.127758,-0.289027,-0.789587,-0.658687,-0.718378,-2.557673,-2.634094,-0.826396,-6.920901,-5.104329,-4.510505,-17.336317,25.436157,-0.040478,-0.276679,6.707170,-0.281490,-0.575510,-0.061603
4.440000,1.239718,1.460106,1.564134,0.753195,0.682324,0.027556,-0.382342,0.201586,0.104720,-0.129852,-0.291121,-0.787493,-0.681726,-0.696386,0.778216,0.512716,7.975223,-1.741838,21.215174,-10.857583,-13.986787,26.043536,-0.409513,-0.457714,6.857404,-0.059267,-0.510521,-0.071984
4.460000,1.243760,1.462150,1.561402,0.747378,0.666245,0.014277,-0.396204,0.198095,0.102974,-0.140324,-0.293215,-0.824144,-0.644026,-0.674395,-3.114509,1.162140,-0.165051,0.509813,-11.630976,19.046774,3.821015,25.800584,-0.696540,0.055218,6.707170,-0.214823,-0.532184,-0.092747
4.480000,1.247779,1.464130,1.558562,0.741489,0.650069,0.000956,-0.409963,0.200713,0.093375,-0.147655,-0.289027,-0.795870,-0.683820,-0.674395,-0.352349,-3.467900,-3.741872,3.810129,4.575450,-20.774145,-1.148396,25.395665,-0.491521,-0.186162,6.827357,-0.159267,-0.521353,-0.071984
4.500000,1.251781,1.466082,1.555620,0.735498,0.633804,-0.012320,-0.423639,0.200713,0.095993,-0.150796,-0.297404,-0.830428,-0.642979,-0.679631,0.821911,1.410481,-6.199954,-1.329155,-12.704817,25.415125,-10.832910,25.476649,-1.065575,-0.186162,6.466796,-0.137045,-0.629668,-0.123890
4.520000,1.255774,1.467956,1.552569,0.729446,0.617441,-0.025638,-0.437188,0.198968,0.093375,-0.150796,-0.303687,-0.819956,-0.682773,-0.693245,2.000960,-0.963036,0.837368,1.935855,14.451955,-24.344459,-26.088550,25.436157,-0.122486,-0.367196,6.797310,-0.137045,-0.608005,-0.030460
4.540000,1.259724,1.469751,1.549426,0.723332,0.601003,-0.038920,-0.450608,0.191986,0.090757,-0.157080,-0.304734,-0.812625,-0.639838,-0.666018,-1.096491,4.477713,0.699537,7.696223,2.683273,31.328617,14.893090,25.881568,-0.245498,-0.276679,7.007638,-0.170379,-0.521353,-0.092747
4.560000,1.263643,1.471547,1.546180,0.717132,0.584453,-0.052209,-0.463935,0.197222,0.086394,-0.166504,-0.307876,-0.817861,-0.676490,-0.652404,-2.531473,0.327446,-0.928086,-3.361405,-4.400685,-26.763541,-0.194409,26.367471,-0.204494,-0.095644,6.857404,-0.059267,-0.683825,-0.134271
4.580000,1.267541,1.473247,1.542839,0.710859,0.567841,-0.065482,-0.477135,0.192859,0.087266,-0.170693,-0.314159,-0.833569,-0.647168,-0.653451,-0.480120,0.554952,-5.430318,-3.505632,-11.295499,25.673332,14.431142,26.488946,-0.409513,-0.306852,6.857404,-0.192601,-0.564679,-0.082365
4.600000,1.271437,1.474905,1.539396,0.704518,0.551135,-0.078735,-0.490246,0.195477,0.079412,-0.178024,-0.324631,-0.828333,-0.674395,-0.672301,-0.372976,0.243011,-5.548657,-4.288509,-4.008866,-27.634707,-29.812271,25.395665,-0.327505,0.055218,6.496842,-0.148156,-0.694657,-0.134271
4.620000,1.275349,1.476548,1.535856,0.698118,0.534359,-0.091988,-0.503184,0.195477,0.081158,-0.180118,-0.327773,-0.832522,-0.647168,-0.637743,1.037715,-1.236310,-1.199298,-2.004415,-7.119186,28.212322,0.519129,25.274189,-0.122486,-0.427541,6.376655,-0.225934,-0.683825,-0.196558
4.640000,1.279214,1.478083,1.532214,0.691648,0.517502,-0.105219,-0.516005,0.192859,0.076794,-0.181165,-0.327773,-0.825192,-0.672301,-0.622035,-3.284772,0.509931,3.612353,0.918331,7.997172,-25.990590,11.142863,25.841076,-0.163490,-0.005127,6.526889,-0.081490,-0.532184,-0.061603
4.660000,1.283034,1.479612,1.528495,0.685105,0.500572,-0.118418,-0.528705,0.185878,0.074176,-0.184307,-0.327773,-0.852419,-0.640885,-0.625177,-1.827741,-1.337307,-0.728934,0.183478,9.341650,28.654748,-6.454577,26.124519,0.000525,-0.216334,6.947544,-0.092601,-0.315554,-0.061603
4.680000,1.286821,1.481052,1.524664,0.678487,0.483567,-0.131616,-0.541272,0.191986,0.070686,-0.189543,-0.334056,-0.862891,-0.679631,-0.649262,3.056188,-1.890281,-2.055446,-7.836505,-12.105116,-22.157179,-34.900978,26.731898,0.000525,-0.306852,7.398246,-0.003712,-0.532184,-0.051222
4.700000,1.290616,1.482463,1.520730,0.671804,0.466490,-0.144761,-0.553695,0.188496,0.069813,-0.202109,-0.333009,-0.834616,-0.644026,-0.609469,-2.296420,0.933492,-6.420299,-3.537458,8.020437,14.422800,16.417510,26.084027,-0.286502,0.085390,6.827357,-0.259267,-0.629668,-0.175796
4.720000,1.294391,1.483793,1.516699,0.665051,0.449349,-0.157907,-0.565973,0.189368,0.064577,-0.204204,-0.339292,-0.874410,-0.661829,-0.606327,0.365459,-0.290856,-3.586762,-5.764660,-1.216234,2.168059,-6.418399,25.071730,-0.040478,-0.155989,6.737217,-0.181490,-0.716320,-0.155034
4.740000,1.298160,1.485082,1.512577,0.658233,0.432146,-0.170998,-0.578095,0.187623,0.062832,-0.203156,-0.335103,-0.849277,-0.666018,-0.589572,2.046935,1.540701,4.081605,-0.599657,-0.964845,-26.088004,26.558830,25.800584,-0.163490,-0.186162,6.556936,-0.192601,-0.402206,-0.092747
4.760000,1.301897,1.486328,1.508348,0.651345,0.414879,-0.184063,-0.590087,0.185005,0.060214,-0.218864,-0.343481,-0.879646,-0.632507,-0.609469,-0.742373,0.134392,-3.226280,-0.804513,-5.976405,20.806855,-9.044834,26.488946,-0.327505,0.085390,6.917497,-0.014823,-0.510521,-0.082365
4.780000,1.305588,1.487512,1.504034,0.644395,0.397548,-0.197084,-0.601923,0.185005,0.058469,-0.212581,-0.342434,-0.857655,-0.637743,-0.604233,1.271604,2.127508,1.528951,2.226490,15.181662,24.713872,-20.536350,26.488946,0.246549,0.025045,6.887451,-0.203712,-0.543016,-0.227702
4.800000,1.309280,1.488647,1.499625,0.637392,0.380174,-0.210081,-0.613612,0.184132,0.051487,-0.219911,-0.342434,-0.856608,-0.668112,-0.577006,-0.925162,-3.190523,2.861131,5.759399,1.526181,-19.179788,7.824987,25.395665,-0.409513,0.025045,6.737217,-0.192601,-0.716320,-0.238083
4.820000,1.312962,1.489729,1.495106,0.630317,0.362721,-0.223043,-0.625133,0.184132,0.052360,-0.230383,-0.353953,-0.875457,-0.662876,-0.550826,0.234185,1.272973,-1.378224,-2.862353,-8.620337,-32.972207,32.346914,26.367471,-0.122486,0.085390,6.466796,-0.137045,-0.478027,-0.144652
4.840000,1.316613,1.490750,1.490501,0.623173,0.345227,-0.235933,-0.636499,0.185005,0.049742,-0.230383,-0.353953,-0.897448,-0.640885,-0.580147,0.496732,0.418717,-2.225301,-0.591355,-5.732990,-6.545815,-27.744318,26.731898,-0.040478,-0.005127,7.338152,-0.103712,-0.521353,-0.123890
4.860000,1.320195,1.491730,1.485803,0.615971,0.327690,-0.248806,-0.647697,0.179769,0.046251,-0.236667,-0.356047,-0.890118,-0.627271,-0.530929,3.635216,-0.087042,-3.353703,-4.413432,7.948031,14.426694,35.179846,26.893865,-0.327505,-0.065472,7.398246,-0.203712,-0.597173,-0.186177
4.880000,1.323804,1.492637,1.481005,0.608712,0.310110,-0.261600,-0.658726,0.180642,0.044506,-0.243997,-0.369661,-0.880693,-0.618894,-0.543496,-3.115241,1.032356,1.895657,-9.224940,13.039544,15.537675,9.757591,25.760092,-0.081482,0.025045,6.617030,-0.103712,-0.651331,-0.227702
4.900000,1.327430,1.493492,1.476110,0.601392,0.292480,-0.274361,-0.669602,0.178024,0.043633,-0.246091,-0.372802,-0.879646,-0.618894,-0.539307,-3.861455,-0.075502,2.636337,-7.442444,10.871802,14.997166,-3.592460,25.436157,0.451568,-0.005127,6.767263,-0.059267,-0.488858,-0.144652
4.920000,1.331002,1.494315,1.471139,0.594006,0.274793,-0.287075,-0.680305,0.180642,0.037525,-0.249233,-0.370708,-0.881740,-0.615752,-0.525693,2.373632,-0.753155,5.440096,-0.990020,9.768387,16.114710,8.065331,26.084027,-0.040478,-0.276679,6.707170,-0.114823,-0.532184,-0.279608
4.940000,1.334526,1.495069,1.466045,0.586560,0.257098,-0.299720,-0.690823,0.169297,0.035779,-0.257611,-0.376991,-0.884882,-0.630413,-0.501608,-1.964588,0.086927,1.467218,-1.848793,10.081380,-10.554581,30.798805,27.379768,0.123537,0.236252,7.097778,-0.148156,-0.575510,-0.206939
4.960000,1.338018,1.495753,1.460884,0.579045,0.239327,-0.312328,-0.701171,0.170170,0.033161,-0.258658,-0.376991,-0.904779,-0.646121,-0.535118,-1.100578,-0.008588,3.073944,5.546727,2.888068,-29.521714,-33.318067,26.853374,-0.245498,-0.005127,7.127825,-0.081490,-0.521353,-0.165415
4.980000,1.341515,1.496428,1.455605,0.571488,0.221543,-0.324836,-0.711334,0.175406,0.030543,-0.262847,-0.379086,-0.911062,-0.630413,-0.491136,0.563083,-0.872287,0.719430,-0.286280,-4.653536,-0.294797,15.110712,25.436157,0.082533,-0.035300,6.586983,-0.192601,-0.651331,-0.279608
5.000000,1.345015,1.497037,1.450244,0.563879,0.203728,-0.337302,-0.721305,0.174533,0.027925,-0.267035,-0.378038,-0.897448,-0.602139,-0.472286,-3.164043,-0.028643,1.549899,0.006975,-6.441747,28.546956,38.055127,26.084027,-0.081482,0.175908,6.677123,-0.037045,-0.553847,-0.196558
5.020000,1.348476,1.497562,1.444790,0.556209,0.185889,-0.349720,-0.731114,0.168424,0.025307,-0.276460,-0.384322,-0.884882,-0.625177,-0.463909,-2.662391,-0.101188,-3.403455,-3.468464,-3.480602,-21.176753,34.627993,27.258292,0.205545,-0.065472,7.097778,-0.070379,-0.456364,-0.206939
5.040000,1.351880,1.498025,1.439251,0.548474,0.168021,-0.362034,-0.740745,0.170170,0.020944,-0.283791,-0.392699,-0.873363,-0.614705,-0.472286,0.625875,-0.663933,-0.036283,-2.091481,5.093861,9.381415,2.840248,27.055833,-0.409513,0.175908,7.278059,-0.092601,-0.532184,-0.196558
5.060000,1.355311,1.498460,1.433615,0.540682,0.150111,-0.374317,-0.750152,0.170170,0.020071,-0.284838,-0.388510,-0.890118,-0.614705,-0.483805,-1.761591,-0.012548,-5.731517,7.458804,15.023335,-13.199414,-24.834160,25.395665,-0.163490,-0.005127,6.166328,-0.103712,-0.597173,-0.144652
5.080000,1.358741,1.498843,1.427884,0.532856,0.132196,-0.386477,-0.759380,0.170170,0.017453,-0.281696,-0.390605,-0.912109,-0.588525,-0.446106,0.193518,-0.016105,3.727745,1.427783,0.991381,30.421294,12.557266,25.395665,0.287552,0.447460,6.767263,-0.114823,-0.445532,-0.196558
5.100000,1.362089,1.499185,1.422060,0.524968,0.114250,-0.398598,-0.768414,0.167552,0.013963,-0.295310,-0.389557,-0.892212,-0.619941,-0.431445,3.761288,-0.208652,-0.505506,3.569315,-4.803385,-20.748460,27.454670,27.177309,0.041529,-0.035300,7.278059,-0.137045,-0.586342,-0.258845
5.120000,1.365389,1.499452,1.416149,0.517011,0.096305,-0.410642,-0.777241,0.167552,0.010472,-0.296357,-0.408407,-0.880693,-0.597950,-0.413643,2.449416,-0.767038,2.461564,-6.866537,4.626262,-15.856966,35.348626,27.825179,-0.368509,0.025045,7.187918,-0.125934,-0.510521,-0.238083
5.140000,1.368728,1.499680,1.410143,0.509010,0.078325,-0.422580,-0.785890,0.170170,0.009599,-0.302640,-0.395841,-0.906873,-0.574911,-0.415737,-0.020282,-0.663703,-0.397015,3.748800,6.486427,23.873612,14.244494,25.760092,0.328556,0.085390,6.586983,-0.103712,-0.575510,-0.300370
5.160000,1.372063,1.499842,1.404056,0.500976,0.060348,-0.434457,-0.794337,0.164061,0.006109,-0.304734,-0.398982,-0.905826,-0.565487,-0.435634,-4.020557,-0.001949,3.021332,3.674000,-11.539183,35.669191,-29.536248,25.800584,-0.081482,0.085390,6.767263,-0.170379,-0.553847,-0.238083
5.180000,1.375346,1.499949,1.397875,0.492887,0.042371,-0.446240,-0.802585,0.158825,0.003491,-0.315206,-0.403171,-0.879646,-0.566534,-0.401077,-0.670121,-0.740638,-3.642207,1.502758,1.252940,31.552957,14.382140,27.420260,0.000525,0.387115,7.308106,-0.048156,-0.553847,-0.217321
5.200000,1.378565,1.499996,1.391599,0.484719,0.024358,-0.457933,-0.810602,0.159698,0.000873,-0.311018,-0.409454,-0.907920,-0.574911,-0.372802,-2.484212,-0.012276,5.271080,6.962512,10.803034,12.559044,38.215495,27.420260,0.082533,0.206080,7.157872,-0.159267,-0.608005,-0.352276
5.220000,1.381816,1.500000,1.385237,0.476538,0.006371,-0.469555,-0.818416,0.162316,0.000000,-0.317301,-0.408407,-0.907920,-0.577006,-0.362330,-2.144384,-0.000000,3.699206,-3.865761,-6.641899,-11.212906,37.404098,25.112222,-0.122486,0.145735,6.586983,-0.081490,-0.543016,-0.258845
5.240000,1.385081,1.499966,1.378786,0.468305,-0.011632,-0.481065,-0.826044,0.157080,-0.003491,-0.324631,-0.411549,-0.883835,-0.598997,-0.382227,-3.710404,-0.754830,5.322457,-0.428510,2.067091,-33.818874,0.678890,25.557633,0.123537,0.055218,6.496842,-0.092601,-0.543016,-0.248464
5.260000,1.388250,1.499862,1.372247,0.460006,-0.029629,-0.492476,-0.833430,0.158825,-0.006981,-0.331962,-0.422021,-0.906873,-0.548732,-0.366519,3.825043,-0.752851,-5.148527,-1.809307,9.005855,31.143378,-15.665421,27.784687,-0.286502,0.115563,7.037684,-0.192601,-0.543016,-0.300370
5.280000,1.391365,1.499698,1.365622,0.451666,-0.047630,-0.503824,-0.840619,0.156207,-0.009599,-0.329867,-0.422021,-0.904779,-0.578053,-0.372802,1.430070,-0.015910,5.961668,-5.367049,-6.716056,-23.727775,-20.218583,27.541736,-0.614533,0.115563,7.428293,-0.148156,-0.553847,-0.269226
5.300000,1.394534,1.499463,1.358907,0.443281,-0.065603,-0.515021,-0.847598,0.160570,-0.013090,-0.334056,-0.420973,-0.883835,-0.540354,-0.356047,-2.583535,-0.103400,3.852539,0.906583,0.790213,28.091342,-4.971657,25.517141,-0.368509,0.326770,6.406702,-0.203712,-0.510521,-0.331513
5.320000,1.397702,1.499188,1.352112,0.434871,-0.083582,-0.526156,-0.854365,0.159698,-0.013963,-0.342434,-0.419926,-0.899543,-0.569675,-0.355000,2.765277,0.651122,-5.869162,5.250892,9.833243,-19.463098,-22.593650,25.598125,-0.081482,0.296597,6.677123,-0.148156,-0.564679,-0.279608
5.340000,1.400797,1.498860,1.345225,0.426410,-0.101566,-0.537190,-0.860895,0.148353,-0.018326,-0.344528,-0.426209,-0.915251,-0.565487,-0.316254,-2.875123,-0.752846,-1.666205,-4.969821,-10.230539,-28.907650,-7.234900,28.149114,-0.163490,-0.035300,7.458339,-0.203712,-0.618836,-0.300370
5.360000,1.403841,1.498478,1.338253,0.417875,-0.119493,-0.548098,-0.867225,0.154462,-0.019199,-0.348717,-0.424115,-0.884882,-0.534071,-0.316254,2.104145,-0.089438,2.042934,2.910916,-0.618677,4.678860,-1.512496,27.096325,-0.245498,0.356942,6.947544,-0.159267,-0.629668,-0.373038
5.380000,1.406934,1.498058,1.331192,0.409341,-0.137439,-0.558915,-0.873309,0.151844,-0.021817,-0.356047,-0.428304,-0.889071,-0.537212,-0.278555,-0.416855,-0.001948,2.167883,1.481365,9.236803,-1.239971,35.544689,25.476649,-0.163490,0.236252,6.406702,-0.148156,-0.662162,-0.227702
5.400000,1.410007,1.497591,1.324050,0.400751,-0.155355,-0.569612,-0.879178,0.149226,-0.024435,-0.357094,-0.431445,-0.910015,-0.543496,-0.271224,-2.651878,-0.194224,0.840631,3.177460,1.109613,-24.351171,31.005033,26.569930,-0.204494,0.326770,6.797310,-0.281490,-0.727152,-0.310751
5.420000,1.412981,1.497055,1.316818,0.392120,-0.173250,-0.580187,-0.884827,0.144862,-0.026180,-0.369661,-0.431445,-0.905826,-0.541401,-0.289027,-2.196537,0.676145,-5.004517,-5.583924,-6.236430,-17.785340,-3.787652,28.311082,-0.368509,0.175908,7.398246,-0.192601,-0.575510,-0.383419
5.440000,1.415945,1.496450,1.309504,0.383423,-0.191103,-0.590666,-0.890234,0.145735,-0.030543,-0.371755,-0.435634,-0.882788,-0.505796,-0.259705,-2.067978,0.867922,-3.214668,0.648106,-4.001264,28.279712,-6.284955,26.853374,-0.409513,0.417287,6.737217,-0.159267,-0.564679,-0.258845
5.460000,1.418935,1.495783,1.302107,0.374727,-0.208941,-0.601034,-0.895434,0.149226,-0.034034,-0.374897,-0.432493,-0.878599,-0.519410,-0.272271,2.443880,-0.722817,-3.651137,4.342954,-5.497602,-16.977080,-19.707808,25.557633,-0.368509,0.326770,6.526889,-0.192601,-0.597173,-0.362657
5.480000,1.421901,1.495085,1.294628,0.365983,-0.226763,-0.611257,-0.900391,0.138754,-0.035779,-0.375944,-0.433540,-0.877552,-0.492183,-0.262847,-3.790535,0.607204,-4.384592,10.528408,6.660514,26.614785,-15.564574,27.622720,0.123537,0.055218,7.368199,-0.270379,-0.608005,-0.352276
5.500000,1.424779,1.494347,1.287063,0.357193,-0.244523,-0.621392,-0.905115,0.139626,-0.038397,-0.378038,-0.446106,-0.885929,-0.522552,-0.237714,-2.522120,-0.621933,3.862048,-11.838069,8.207862,-26.978950,-15.982277,27.946655,-0.860556,0.326770,7.217965,-0.192601,-0.651331,-0.341895
5.520000,1.427689,1.493548,1.279424,0.348365,-0.262281,-0.631397,-0.909615,0.143117,-0.041888,-0.375944,-0.441917,-0.891165,-0.514174,-0.201062,-0.462086,0.188115,3.658857,-4.594883,19.195501,-25.181439,19.756292,26.286487,-0.040478,0.206080,6.556936,-0.181490,-0.608005,-0.238083
5.540000,1.430603,1.492657,1.271698,0.339526,-0.279981,-0.641261,-0.913894,0.143117,-0.044506,-0.392699,-0.444012,-0.897448,-0.505796,-0.214675,2.391403,-0.736772,2.287724,-4.623877,6.441093,-23.972702,-16.431902,26.205503,-0.368509,0.206080,6.617030,-0.181490,-0.543016,-0.321132
5.560000,1.433311,1.491812,1.264278,0.331073,-0.296770,-0.650516,-0.917730,0.137881,-0.047997,-0.394793,-0.451342,-0.899543,-0.467050,-0.195826,-1.607640,-1.685801,-4.426309,-1.299884,-0.713975,26.492396,-12.201235,27.703703,-0.286502,0.356942,7.097778,-0.214823,-0.597173,-0.341895
5.580000,1.436123,1.490858,1.256389,0.322153,-0.314386,-0.660162,-0.921547,0.143990,-0.048869,-0.400029,-0.453437,-0.900590,-0.456578,-0.176976,3.421170,-2.141732,-6.364113,-4.741705,-0.322767,32.103524,-1.138545,27.258292,-0.573529,0.477632,6.797310,-0.159267,-0.586342,-0.310751
5.600000,1.438947,1.489807,1.248427,0.313198,-0.331961,-0.669660,-0.925136,0.143117,-0.053233,-0.395841,-0.441917,-0.878599,-0.491136,-0.170693,1.479714,-1.936879,1.210003,6.675797,15.422030,-28.102654,11.570195,26.124519,0.041529,0.115563,6.226421,-0.248156,-0.694657,-0.321132
5.620000,1.441753,1.488743,1.240387,0.304227,-0.349497,-0.679013,-0.928451,0.137881,-0.055851,-0.402124,-0.447153,-0.859749,-0.447153,-0.157080,-1.609721,-2.330415,6.269429,4.606429,21.248475,21.733123,-3.118914,27.663211,-0.450517,0.447460,7.308106,-0.237045,-0.586342,-0.341895
5.640000,1.444469,1.487618,1.232256,0.295196,-0.366964,-0.688272,-0.931549,0.137008,-0.055851,-0.404218,-0.444012,-0.858702,-0.476475,-0.153938,0.264165,1.776980,2.414584,7.122536,4.421598,-28.549049,-5.308532,27.946655,-0.409513,0.568149,6.797310,-0.259267,-0.683825,-0.310751
5.660000,1.447214,1.486443,1.224048,0.286146,-0.384406,-0.697359,-0.934406,0.137881,-0.059341,-0.415737,-0.448201,-0.880693,-0.447153,-0.139277,-0.868443,1.937279,-4.206430,9.349915,-19.155918,10.933781,-4.378565,26.893865,-0.450517,0.145735,6.526889,-0.248156,-0.683825,-0.383419
5.680000,1.449958,1.485202,1.215776,0.277090,-0.401761,-0.706310,-0.937032,0.140499,-0.061959,-0.416785,-0.448201,-0.882788,-0.427257,-0.118333,0.833943,1.393582,1.843347,0.532599,3.084868,26.653204,3.624140,26.124519,0.000525,0.326770,6.466796,-0.181490,-0.618836,-0.310751
5.700000,1.452653,1.483908,1.207415,0.267979,-0.419084,-0.715144,-0.939414,0.137008,-0.063705,-0.418879,-0.460767,-0.847183,-0.422021,-0.113097,0.945896,1.124154,5.730459,-0.496269,6.675358,26.093258,-2.098252,27.987147,-0.368509,0.537977,7.127825,-0.159267,-0.662162,-0.300370
5.720000,1.455292,1.482571,1.198971,0.258851,-0.436332,-0.723839,-0.941573,0.138754,-0.068941,-0.429351,-0.462861,-0.877552,-0.422021,-0.111003,4.034636,-0.919693,-7.312111,-4.695677,-10.534552,16.614878,-2.751989,27.258292,-0.409513,0.387115,6.526889,-0.192601,-0.618836,-0.331513
5.740000,1.457975,1.481188,1.190461,0.249700,-0.453520,-0.732375,-0.943463,0.134390,-0.075049,-0.425162,-0.461814,-0.842994,-0.447153,-0.091106,-1.305920,-2.827799,5.960942,-4.040003,10.831853,-34.053471,0.896091,25.922060,-0.327505,0.115563,6.226421,-0.203712,-0.737983,-0.341895
5.760000,1.460609,1.479721,1.181875,0.240531,-0.470654,-0.740763,-0.945134,0.131772,-0.075922,-0.434587,-0.460767,-0.882788,-0.396888,-0.076445,1.099432,-1.561519,-4.072291,-1.150953,-18.987930,26.784105,-0.192835,27.298784,-0.163490,0.477632,7.037684,-0.259267,-0.672994,-0.289989
5.780000,1.463181,1.478226,1.173200,0.231322,-0.487699,-0.749040,-0.946543,0.125664,-0.076794,-0.432493,-0.468097,-0.828333,-0.430398,-0.068068,-3.684135,1.882785,1.305985,-3.941756,3.039963,-32.523367,-0.088005,27.663211,-0.696540,0.326770,6.526889,-0.203712,-0.651331,-0.289989
5.800000,1.465758,1.476683,1.164464,0.222093,-0.504686,-0.757142,-0.947730,0.130900,-0.077667,-0.432493,-0.457625,-0.846136,-0.406313,-0.052360,3.012033,-1.776379,-0.095944,5.611467,10.878758,-1.019664,1.845498,26.165011,-0.163490,-0.005127,6.406702,-0.225934,-0.672994,-0.321132
5.820000,1.468348,1.475060,1.155646,0.212851,-0.521597,-0.765088,-0.948645,0.124791,-0.084648,-0.439823,-0.467050,-0.853466,-0.391652,-0.038746,-2.031542,-2.737556,7.118975,-2.601730,1.742633,13.179445,-0.868980,27.055833,-0.204494,0.115563,6.466796,-0.292601,-0.694657,-0.279608
5.840000,1.470849,1.473414,1.146765,0.203583,-0.538456,-0.772904,-0.949338,0.128282,-0.083776,-0.446106,-0.461814,-0.852419,-0.386416,-0.029322,3.082223,-2.846483,-4.164906,-5.660889,-11.214404,10.118092,0.126707,28.311082,-0.204494,0.477632,7.248012,-0.159267,-0.683825,-0.331513
5.860000,1.473340,1.471686,1.137796,0.194279,-0.555201,-0.780571,-0.949789,0.129154,-0.083776,-0.449248,-0.462861,-0.842994,-0.395841,-0.014661,4.092911,2.751090,-1.214986,-3.969159,-13.717144,-19.635772,1.828251,27.258292,-0.696540,0.115563,6.166328,-0.270379,-0.716320,-0.321132
5.880000,1.475844,1.469941,1.128764,0.184982,-0.571893,-0.788057,-0.950000,0.126536,-0.091630,-0.454484,-0.466003,-0.839852,-0.372802,-0.003142,-2.003847,-2.635883,-7.626657,-3.074440,-14.712295,-9.133983,1.046832,25.962552,0.123537,0.266425,6.406702,-0.325934,-0.672994,-0.279608
5.900000,1.478313,1.468103,1.119655,0.175666,-0.588478,-0.795420,-0.949999,0.118682,-0.093375,-0.449248,-0.456578,-0.842994,-0.365472,0.001047,-3.653170,-2.119334,2.018644,5.398850,-17.791848,8.964985,-0.777871,27.865671,0.041529,0.175908,6.586983,-0.225934,-0.662162,-0.310751
5.920000,1.480708,1.466227,1.110466,0.166301,-0.605010,-0.802599,-0.949777,0.122173,-0.093375,-0.457625,-0.461814,-0.838805,-0.334056,0.020944,2.117582,-1.748371,2.386093,1.405200,0.644593,24.641629,0.393920,27.420260,-1.065575,0.055218,6.737217,-0.303712,-0.575510,-0.238083
5.940000,1.483147,1.464327,1.101223,0.156947,-0.621413,-0.809648,-0.949225,0.125664,-0.099484,-0.459720,-0.466003,-0.810531,-0.349764,0.032463,3.853390,-0.136695,-1.062354,-1.782059,15.396537,-11.453778,0.019220,26.003044,-0.040478,0.145735,5.865860,-0.214823,-0.618836,-0.144652
5.960000,1.485568,1.462330,1.091898,0.147580,-0.637769,-0.816525,-0.948403,0.120428,-0.101229,-0.464956,-0.469145,-0.806342,-0.342434,0.043982,3.506422,-1.350153,3.906317,-5.594763,-8.468480,-11.876148,-0.886697,26.691406,0.000525,0.145735,6.767263,-0.192601,-0.651331,-0.165415
5.980000,1.487903,1.460297,1.082511,0.138176,-0.654008,-0.823237,-0.947399,0.116064,-0.102974,-0.472286,-0.458673,-0.815767,-0.315206,0.055501,0.481898,-1.360886,-2.251658,9.021905,10.286983,20.335219,0.689728,28.473049,-0.860556,0.266425,6.256468,-0.170379,-0.694657,-0.082365
6.000000,1.490227,1.458226,1.073050,0.128763,-0.670171,-0.829801,-0.946126,0.116937,-0.105592,-0.474380,-0.471239,-0.799012,-0.321490,0.067021,-0.998196,-1.346540,-2.847801,5.329850,-7.325181,15.775288,0.248271,26.407963,-0.409513,0.206080,6.526889,-0.170379,-0.618836,-0.082365
6.020000,1.492575,1.456081,1.063520,0.119362,-0.686203,-0.836181,-0.944623,0.116937,-0.104720,-0.478569,-0.470192,-0.786445,-0.313112,0.081681,2.987680,2.851124,1.161752,0.254479,17.910489,-7.292467,1.832981,26.084027,0.574580,-0.065472,6.106234,-0.237045,-0.705488,-0.071984
6.040000,1.494864,1.453880,1.053925,0.109922,-0.702179,-0.842433,-0.942888,0.108210,-0.109956,-0.477522,-0.462861,-0.812625,-0.317301,0.094248,-1.048392,0.039702,7.535932,6.810164,-1.133895,-5.880897,2.977578,28.351574,-0.737544,-0.005127,6.707170,-0.170379,-0.694657,-0.092747
6.060000,1.496994,1.451764,1.044744,0.100941,-0.717232,-0.848196,-0.941023,0.115192,-0.115192,-0.480664,-0.472286,-0.793776,-0.320442,0.100531,1.573763,-0.900403,2.866603,-0.163128,-14.022888,-23.013837,1.180583,27.582228,-0.532525,-0.095644,5.775720,-0.225934,-0.705488,-0.092747
6.080000,1.499262,1.449491,1.035016,0.091501,-0.733004,-0.854100,-0.938778,0.116064,-0.116937,-0.485900,-0.476475,-0.778068,-0.315206,0.119381,-0.758389,-0.038720,3.061124,-3.657787,-9.998183,-23.930241,0.302677,26.003044,0.041529,0.266425,6.286515,-0.159267,-0.683825,-0.082365
6.100000,1.501487,1.447133,1.025226,0.082048,-0.748638,-0.859827,-0.936344,0.110828,-0.115192,-0.487994,-0.472286,-0.781209,-0.302640,0.124617,-0.671929,1.178118,1.698445,0.588443,-15.077112,-33.308065,0.105857,27.055833,0.123537,-0.125817,6.016094,-0.225934,-0.716320,-0.082365
6.120000,1.503657,1.444744,1.015363,0.072564,-0.764198,-0.865390,-0.933655,0.106465,-0.120428,-0.489041,-0.471239,-0.795870,-0.255516,0.142419,-1.855061,-3.571227,7.294764,6.375971,-24.152319,16.324243,-4.901551,27.946655,-0.696540,0.266425,6.286515,-0.092601,-0.694657,-0.103128
6.140000,1.505850,1.442300,1.005439,0.063097,-0.779616,-0.870813,-0.930732,0.107338,-0.123046,-0.494277,-0.471239,-0.769690,-0.278555,0.157080,1.042026,-2.868353,-0.020924,-0.340087,15.018151,-8.083365,-1.924339,26.124519,-0.204494,-0.065472,5.625486,-0.203712,-0.694657,-0.040841
6.160000,1.508039,1.439796,0.995451,0.053626,-0.794948,-0.876044,-0.927561,0.107338,-0.125664,-0.502655,-0.471239,-0.749793,-0.243997,0.154985,-0.832325,-0.565080,-4.517010,0.933829,-3.235542,20.699316,-9.350326,26.893865,-0.040478,0.145735,6.106234,-0.125934,-0.770478,-0.051222
6.180000,1.510142,1.437239,0.985393,0.044127,-0.810147,-0.881085,-0.924175,0.106465,-0.126536,-0.505796,-0.461814,-0.771785,-0.228289,0.179071,2.761718,3.475046,-1.422857,16.896497,2.091570,11.594056,10.469555,27.987147,-0.573529,-0.186162,5.805766,-0.270379,-0.781309,-0.123890
6.200000,1.512222,1.434651,0.975283,0.034630,-0.825251,-0.885979,-0.920522,0.105592,-0.130027,-0.506844,-0.472286,-0.743510,-0.225147,0.175929,0.980275,-0.382921,-1.809614,0.388939,-5.054571,12.614675,-3.873037,26.610422,-0.614533,-0.186162,5.865860,-0.192601,-0.683825,-0.051222
6.220000,1.514336,1.431992,0.965104,0.025146,-0.840197,-0.890690,-0.916636,0.102974,-0.131772,-0.506844,-0.476475,-0.729897,-0.224100,0.187448,-3.945827,2.238956,-1.059126,-2.735860,12.475407,16.337453,-7.833179,26.043536,0.000525,-0.095644,5.595439,-0.192601,-0.781309,-0.103128
6.240000,1.516379,1.429278,0.954864,0.015645,-0.855066,-0.895222,-0.912537,0.097738,-0.134390,-0.511032,-0.468097,-0.725708,-0.239808,0.197920,-4.758809,0.638521,3.994746,6.438977,20.122796,-19.540709,2.075969,27.582228,-0.040478,-0.337024,6.106234,-0.237045,-0.727152,-0.092747
6.260000,1.518380,1.426529,0.944563,0.006136,-0.869779,-0.899590,-0.908177,0.098611,-0.137881,-0.514174,-0.470192,-0.717330,-0.200015,0.245044,-1.997969,-2.261267,2.109768,4.292282,23.884173,14.440756,14.080315,27.177309,-0.573529,-0.337024,5.535345,-0.125934,-0.813804,-0.020079
6.280000,1.520417,1.423731,0.934200,-0.003358,-0.884393,-0.903778,-0.903607,0.100356,-0.139626,-0.513127,-0.480664,-0.704764,-0.201062,0.225147,-1.418173,0.795205,4.000786,-5.983866,23.946747,-5.053018,8.748742,26.448455,0.410564,-0.427541,5.865860,-0.181490,-0.759646,-0.103128
6.300000,1.522391,1.420855,0.923779,-0.012845,-0.898860,-0.907790,-0.898808,0.102974,-0.143990,-0.521504,-0.464956,-0.722566,-0.203156,0.227242,3.609330,0.029794,2.728538,4.389806,-17.734171,-14.188480,-10.517984,27.217801,-0.204494,-0.186162,5.805766,-0.125934,-0.716320,-0.144652
6.320000,1.524318,1.417964,0.913299,-0.022353,-0.913226,-0.911619,-0.893767,0.095120,-0.146608,-0.526740,-0.463909,-0.730944,-0.184307,0.250280,-0.402679,-1.926675,3.892423,5.547181,-6.047857,-5.771110,7.086358,27.217801,-0.655536,-0.306852,5.595439,-0.237045,-0.748815,-0.103128
6.340000,1.526283,1.415010,0.902760,-0.031850,-0.927425,-0.915275,-0.888485,0.095120,-0.146608,-0.518363,-0.476475,-0.695339,-0.167552,0.287979,2.207661,-0.475497,9.970263,0.404688,-5.115507,4.874723,17.411331,26.569930,-0.491521,-0.518059,5.355065,-0.148156,-0.781309,-0.061603
6.360000,1.528199,1.411996,0.892162,-0.041331,-0.941503,-0.918747,-0.883004,0.095120,-0.155334,-0.536165,-0.469145,-0.694292,-0.182212,0.270177,-3.374458,-4.580056,-3.588568,1.741094,21.015273,-5.502082,-1.294686,26.893865,0.164541,-0.276679,5.715626,-0.137045,-0.770478,-0.061603
6.380000,1.530053,1.408917,0.881511,-0.050826,-0.955451,-0.922044,-0.877287,0.090757,-0.154462,-0.533024,-0.470192,-0.704764,-0.153938,0.271224,-1.259182,-1.223271,-2.577548,-2.836610,-9.081279,6.032251,-23.839101,27.420260,-0.368509,-0.367196,5.685579,-0.159267,-0.889624,-0.113509
6.400000,1.531923,1.405809,0.870800,-0.060321,-0.969255,-0.925141,-0.871347,0.088139,-0.154462,-0.530929,-0.475428,-0.706858,-0.141372,0.283791,-2.909834,0.890363,1.597836,-0.229669,-20.315614,0.200728,-17.313226,26.245995,-0.532525,-0.729266,5.114690,-0.203712,-0.792141,-0.144652
6.420000,1.533776,1.402642,0.860029,-0.069786,-0.982934,-0.928079,-0.865184,0.094248,-0.163188,-0.540354,-0.473333,-0.688009,-0.136136,0.321490,0.831967,-2.497753,-0.532162,6.154574,-5.014136,-0.799236,21.117133,26.407963,0.656587,-0.759438,5.595439,-0.125934,-0.813804,-0.082365
6.440000,1.535575,1.399401,0.849214,-0.079261,-0.996438,-0.930837,-0.858787,0.088139,-0.164061,-0.542448,-0.475428,-0.657640,-0.126711,0.317301,-3.355770,0.790444,-0.438672,-10.242794,24.513075,3.157891,-21.636727,27.298784,-0.327505,-0.638749,5.535345,-0.159267,-0.781309,-0.061603
6.460000,1.537352,1.396148,0.838339,-0.088730,-1.009843,-0.933408,-0.852174,0.088139,-0.165806,-0.547684,-0.471239,-0.657640,-0.128805,0.361283,2.755023,-1.697378,-3.698479,1.130916,-0.723332,-1.822061,32.170657,26.488946,-0.737544,-0.668921,5.114690,-0.114823,-0.759646,-0.103128
6.480000,1.539124,1.392838,0.827407,-0.098180,-1.023063,-0.935806,-0.845343,0.090757,-0.167552,-0.548732,-0.472286,-0.662876,-0.112050,0.372802,2.098412,-0.381716,1.373128,0.372122,7.452097,2.920920,37.421616,26.286487,0.082533,-0.910301,5.234877,-0.170379,-0.781309,-0.113509
6.500000,1.540875,1.389466,0.816423,-0.107617,-1.036173,-0.937979,-0.838287,0.082903,-0.169297,-0.551873,-0.475428,-0.669159,-0.103673,0.374897,-3.416695,-2.395254,-0.279028,-6.007391,-23.640586,-1.785378,15.359696,27.015341,-0.122486,-0.789611,5.565392,-0.192601,-0.802972,-0.113509
6.520000,1.542553,1.386075,0.805392,-0.117053,-1.049106,-0.939991,-0.831041,0.082903,-0.168424,-0.550826,-0.467050,-0.638791,-0.091106,0.345575,-2.675664,2.024763,-1.755550,-7.007527,-8.725830,0.679580,-28.848228,26.934357,-1.147583,-0.759438,4.724082,-0.103712,-0.878793,-0.061603
6.540000,1.544250,1.382615,0.794306,-0.126479,-1.061886,-0.941840,-0.823565,0.086394,-0.177151,-0.549779,-0.474380,-0.626224,-0.089012,0.393746,3.407569,-2.573446,2.811543,-3.760823,3.113295,-1.011109,17.817499,26.084027,0.164541,-0.759438,4.814222,-0.092601,-0.813804,-0.040841
6.560000,1.545936,1.379076,0.783166,-0.135885,-1.074535,-0.943473,-0.815885,0.084648,-0.178896,-0.558156,-0.477522,-0.634602,-0.072257,0.414690,2.576351,-0.411588,0.525555,-8.286639,-17.181456,3.772315,38.809049,27.217801,0.164541,-1.181853,5.084643,-0.225934,-0.748815,-0.144652
6.580000,1.547534,1.375511,0.771981,-0.145279,-1.086997,-0.944939,-0.808005,0.079412,-0.178896,-0.561298,-0.463909,-0.630413,-0.070162,0.420973,2.703018,-0.713521,-0.552109,-4.464808,-12.081880,0.657619,35.548462,26.731898,-0.327505,-1.000818,5.234877,-0.092601,-0.889624,-0.061603
6.600000,1.549167,1.371892,0.760745,-0.154670,-1.099341,-0.946212,-0.799907,0.081158,-0.181514,-0.563392,-0.462861,-0.597950,-0.060737,0.411549,2.623863,-0.839600,-3.170725,8.592826,17.936450,-0.018227,-3.013286,26.488946,0.451568,-1.061163,4.573848,-0.114823,-0.867961,-0.071984
6.620000,1.550751,1.368225,0.749458,-0.164028,-1.111503,-0.947310,-0.791620,0.078540,-0.185878,-0.565487,-0.467050,-0.607375,-0.050265,0.411549,-1.456188,-1.665301,-0.579598,0.921638,0.665695,0.251888,-8.517992,26.124519,0.369560,-1.151680,4.844269,-0.125934,-0.889624,-0.040841
6.640000,1.552332,1.364510,0.738130,-0.173375,-1.123504,-0.948240,-0.783096,0.073304,-0.190241,-0.569675,-0.463909,-0.613658,-0.041888,0.420973,-3.026396,-1.056117,-5.619408,-5.471715,-23.659480,0.342771,-19.948208,27.136817,-0.286502,-1.272370,4.934410,-0.092601,-0.867961,-0.071984
6.660000,1.553835,1.360765,0.726747,-0.182711,-1.135363,-0.948945,-0.774383,0.076794,-0.184132,-0.572817,-0.459720,-0.592714,-0.029322,0.445059,-0.817431,2.097417,0.256512,8.396439,-12.559565,1.700185,11.029675,26.448455,-0.860556,-1.061163,4.213287,-0.081490,-0.813804,-0.020079
6.680000,1.555302,1.357157,0.715889,-0.191555,-1.146441,-0.949426,-0.765942,0.073304,-0.191114,-0.579100,-0.472286,-0.563392,-0.021991,0.450295,1.821750,-2.883253,-2.600056,-10.133808,17.981060,-1.329989,5.644018,25.517141,0.000525,-1.151680,4.363521,-0.081490,-0.737983,0.000684
6.700000,1.556798,1.353285,0.704423,-0.200850,-1.157977,-0.949818,-0.756838,0.074176,-0.194604,-0.570723,-0.460767,-0.583289,-0.013614,0.478569,-0.404660,0.082872,0.521358,-2.476888,-19.674413,1.825890,26.889275,27.258292,-0.204494,-1.513750,4.603895,-0.137045,-0.813804,-0.051222
6.720000,1.558236,1.349382,0.692912,-0.210137,-1.169338,-0.949997,-0.747571,0.069813,-0.196350,-0.578053,-0.460767,-0.563392,-0.004189,0.444012,-0.473765,-0.016782,-3.780353,0.503624,3.005306,-0.915126,-33.471251,26.084027,-0.245498,-1.694784,4.153193,-0.203712,-0.911287,-0.030460
6.740000,1.559694,1.345428,0.681348,-0.219379,-1.180527,-0.950005,-0.738095,0.073304,-0.195477,-0.583289,-0.464956,-0.566534,0.002094,0.493230,-0.549083,-0.346292,-9.372020,0.593092,-18.672399,-0.010054,25.097901,25.800584,0.123537,-1.332715,4.243333,-0.103712,-0.781309,-0.020079
6.760000,1.561117,1.341408,0.669742,-0.228618,-1.191544,-0.949890,-0.728435,0.067195,-0.202458,-0.579100,-0.461814,-0.528835,0.010472,0.516268,-2.084969,-0.106185,3.429365,1.524475,16.697257,-0.650964,39.995998,26.043536,0.205545,-1.755129,4.663988,-0.159267,-0.553847,-0.051222
6.780000,1.562497,1.337353,0.658095,-0.237829,-1.202391,-0.949521,-0.718570,0.070686,-0.201586,-0.582242,-0.459720,-0.519410,0.026180,0.518363,1.574402,2.771223,-1.637077,4.178725,21.098654,0.937853,31.650530,26.731898,0.000525,-1.513750,4.363521,-0.148156,-0.163913,-0.030460
6.800000,1.563851,1.333274,0.646412,-0.247008,-1.213053,-0.948918,-0.708537,0.067195,-0.206822,-0.581195,-0.460767,-0.525693,0.030369,0.502655,-0.370816,0.261129,4.282709,0.247030,2.010911,-0.110845,0.719131,25.557633,-0.368509,-1.574094,3.822678,-0.137045,-0.098924,0.021446
6.820000,1.565213,1.329123,0.634682,-0.256172,-1.223575,-0.948180,-0.698332,0.067195,-0.207694,-0.586431,-0.458673,-0.541401,0.041888,0.498466,-1.304275,0.014435,0.340713,-1.044854,-30.015805,0.263054,-21.846468,25.679108,0.574580,-1.664612,4.333474,-0.137045,-0.131419,0.000684
6.840000,1.566522,1.324914,0.622911,-0.265307,-1.233888,-0.947211,-0.687925,0.066323,-0.211185,-0.593761,-0.459720,-0.490088,0.053407,0.527788,2.823523,-1.958220,-4.816050,-2.184653,30.418377,0.170536,5.941871,26.569930,-0.409513,-1.393060,4.273380,0.007399,-0.109756,0.000684
6.860000,1.567804,1.320680,0.611102,-0.274408,-1.244024,-0.946058,-0.677365,0.067195,-0.212058,-0.592714,-0.454484,-0.505796,0.060737,0.553968,1.672566,1.346789,-1.342832,-6.016226,-13.587943,2.574396,32.925734,25.355173,-0.122486,-1.513750,3.792632,-0.114823,-0.001440,0.021446
6.880000,1.569080,1.316389,0.599251,-0.283498,-1.254010,-0.944756,-0.666629,0.061959,-0.210312,-0.595855,-0.453437,-0.509985,0.072257,0.564439,-2.809699,0.887359,-1.011472,-1.377916,-22.979219,2.413305,30.330629,25.517141,0.205545,-1.845646,3.432070,-0.203712,0.020223,0.031827
6.900000,1.570307,1.312050,0.587367,-0.292541,-1.263801,-0.943205,-0.655695,0.061959,-0.221657,-0.603186,-0.450295,-0.507891,0.079587,0.574911,-0.311399,-0.445993,-11.477815,-1.814358,-32.417550,-2.801824,35.576745,25.638617,0.246549,-2.207716,3.972912,-0.159267,-0.066429,-0.030460
6.920000,1.571510,1.307672,0.575443,-0.301571,-1.273377,-0.941538,-0.644622,0.060214,-0.219039,-0.595855,-0.436681,-0.475428,0.091106,0.550826,-1.223438,0.334878,-1.076143,6.043349,-5.548857,3.642934,-8.289750,26.367471,-0.409513,-2.117198,3.522211,-0.125934,-0.044766,0.000684
6.940000,1.572719,1.303243,0.563480,-0.310567,-1.282808,-0.939635,-0.633375,0.060214,-0.222529,-0.588525,-0.453437,-0.448201,0.104720,0.574911,1.005054,-2.727947,9.004323,-0.589568,21.388181,1.468409,6.287466,24.990746,0.082533,-2.087026,3.462117,-0.159267,0.009391,-0.009697
6.960000,1.573872,1.298750,0.551477,-0.319527,-1.292058,-0.937585,-0.621965,0.058469,-0.225147,-0.598997,-0.447153,-0.460767,0.113097,0.551873,2.069814,-2.538441,5.001841,-4.423984,-8.050047,1.338467,-31.336019,25.517141,0.574580,-2.388751,3.702491,-0.237045,-0.012272,0.031827
6.980000,1.575021,1.294209,0.539448,-0.328468,-1.301097,-0.935329,-0.610399,0.054105,-0.233001,-0.602139,-0.448201,-0.472286,0.117286,0.583289,-0.834368,-3.604751,-3.128427,6.307871,-35.216195,0.374631,11.237674,25.841076,0.861607,-2.268061,3.942866,-0.159267,-0.012272,0.000684
7.000000,1.576115,1.289637,0.527377,-0.337355,-1.309961,-0.932906,-0.598673,0.053233,-0.225147,-0.604233,-0.448201,-0.453437,0.127758,0.598997,1.288882,2.874742,4.708895,-9.453246,-24.679711,3.988308,22.202566,24.788287,-0.614533,-2.147371,3.131602,-0.003712,-0.044766,0.062971
7.020000,1.577229,1.285037,0.515279,-0.346220,-1.318644,-0.930291,-0.586791,0.055851,-0.229511,-0.608422,-0.448201,-0.440870,0.127758,0.600044,-0.549645,1.603854,-3.608007,-5.292418,-19.026024,-4.807117,9.310864,25.598125,0.533576,-2.358578,3.191696,-0.192601,0.020223,0.031827
7.040000,1.578303,1.280368,0.503146,-0.355044,-1.327129,-0.927498,-0.574766,0.052360,-0.236492,-0.607375,-0.435634,-0.400029,0.142419,0.583289,-0.724981,-1.664481,-5.738169,-1.046663,29.384824,-4.685237,-30.131565,25.436157,-0.040478,-2.358578,3.492164,-0.203712,-0.012272,0.000684
7.060000,1.579302,1.275673,0.490980,-0.363843,-1.335406,-0.924517,-0.562582,0.051487,-0.233001,-0.606327,-0.438776,-0.428304,0.151844,0.632507,-1.568337,1.526322,2.276518,4.332220,-28.246181,-9.763738,23.662167,25.314681,-0.245498,-2.237888,3.041462,-0.148156,-0.012272,0.052590
7.080000,1.580337,1.270913,0.478780,-0.372595,-1.343522,-0.921378,-0.550285,0.051487,-0.242601,-0.607375,-0.439823,-0.405265,0.152891,0.593761,-0.621691,-3.204025,4.113697,-0.310099,3.005819,-4.994744,-27.888922,24.950254,0.533576,-2.449095,3.341930,-0.170379,-0.055598,0.031827
7.100000,1.581333,1.266094,0.466549,-0.381327,-1.351441,-0.918050,-0.537816,0.045379,-0.239983,-0.607375,-0.436681,-0.381180,0.180118,0.639838,-2.131207,-0.006450,4.365910,-2.243034,15.938258,13.593312,27.923686,24.950254,0.861607,-2.479268,3.371977,-0.148156,-0.044766,0.073352
7.120000,1.582279,1.261232,0.454292,-0.389996,-1.359149,-0.914531,-0.525210,0.048869,-0.239983,-0.612611,-0.426209,-0.391652,0.165457,0.654498,2.034509,3.389118,2.135894,0.777313,-14.116723,-13.915342,22.496962,24.869271,0.615583,-2.660303,3.131602,-0.159267,-0.077261,0.052590
7.140000,1.583231,1.256339,0.442004,-0.398654,-1.366639,-0.910834,-0.512472,0.047124,-0.241728,-0.614705,-0.425162,-0.369661,0.194779,0.659734,-0.085387,3.571955,5.225798,11.871402,-11.468505,-2.524994,21.096345,24.464352,0.000525,-2.811165,2.891228,-0.203712,-0.066429,0.021446
7.160000,1.584136,1.251423,0.429690,-0.407238,-1.373973,-0.906978,-0.499605,0.045379,-0.247837,-0.609469,-0.430398,-0.358142,0.210487,0.666018,1.696589,-0.324133,7.611276,1.465040,10.905822,6.226975,26.836279,24.140416,0.123537,-2.962027,2.230199,-0.170379,-0.109756,0.042208
7.180000,1.585013,1.246438,0.417346,-0.415806,-1.381101,-0.902940,-0.486633,0.044506,-0.248709,-0.613658,-0.429351,-0.338245,0.210487,0.647168,-1.451130,0.962943,3.556981,5.359151,16.542483,-2.755606,7.524315,24.909762,0.246549,-3.022372,2.650854,-0.192601,-0.033935,0.011065
7.200000,1.585876,1.241397,0.404975,-0.424326,-1.388017,-0.898723,-0.473521,0.042761,-0.255691,-0.620988,-0.416785,-0.326726,0.200015,0.642979,-0.747307,-1.362082,0.940742,1.134478,15.230245,-10.009269,-30.168255,24.788287,1.066626,-3.082717,3.161649,-0.103712,-0.098924,-0.009697
7.220000,1.586714,1.236316,0.392579,-0.432814,-1.394736,-0.894313,-0.460262,0.038397,-0.256563,-0.619941,-0.426209,-0.315206,0.237714,0.680678,-0.104629,-1.081734,-2.055618,0.010003,24.066311,12.801864,27.662634,23.856973,0.123537,-3.052544,2.140058,-0.192601,-0.109756,0.062971
