FrankJIE09/Dynamics_identification_Frank/src/config/dynamics_identification_data.csv
time,q0,q1,q2,q3,q4,q5,q6,dq0,dq1,dq2,dq3,dq4,dq5,dq6,ddq0,ddq1,ddq2,ddq3,ddq4,ddq5,ddq6,tau0,tau1,tau2,tau3,tau4,tau5,tau6
1.000000,0.073774,0.356193,0.163309,0.293955,0.273302,0.314311,0.053913,0.034854,0.054976,0.076983,0.102084,0.122394,0.135053,-0.773572,-0.002078,-0.004198,-0.007433,-0.016054,-0.023557,-0.039652,-0.127259,1.335950,-23.718730,0.558766,-5.443197,0.017093,-0.053945,-0.068893
1.010000,0.074470,0.357291,0.164847,0.295993,0.275745,0.317004,0.038416,0.034814,0.054891,0.076835,0.101762,0.121923,0.134257,-0.775774,-0.002001,-0.004242,-0.007380,-0.016186,-0.023598,-0.039949,-0.089139,1.354634,-23.697657,0.568933,-5.427660,0.019581,-0.052770,-0.071563
1.020000,0.075166,0.358388,0.166382,0.298025,0.278178,0.319680,0.022884,0.034774,0.054806,0.076688,0.101437,0.121451,0.133455,-0.777213,-0.001925,-0.004282,-0.007328,-0.016314,-0.023640,-0.040238,-0.050930,1.373360,-23.676514,0.579113,-5.412061,0.022046,-0.051575,-0.074228
1.030000,0.075861,0.359483,0.167914,0.300050,0.280602,0.322340,0.007331,0.034736,0.054720,0.076542,0.101109,0.120977,0.132648,-0.777887,-0.001850,-0.004320,-0.007277,-0.016438,-0.023686,-0.040519,-0.012667,1.392122,-23.655304,0.589301,-5.396401,0.024486,-0.050360,-0.076886
1.040000,0.076556,0.360577,0.169443,0.302069,0.283016,0.324984,-0.008227,0.034700,0.054633,0.076397,0.100780,0.120503,0.131835,-0.777796,-0.001776,-0.004355,-0.007229,-0.016559,-0.023735,-0.040792,0.025611,1.410918,-23.634025,0.599495,-5.380681,0.026897,-0.049128,-0.079532
1.050000,0.077249,0.361669,0.170970,0.304081,0.285421,0.327612,-0.023775,0.034665,0.054546,0.076253,0.100447,0.120028,0.131017,-0.776940,-0.001705,-0.004387,-0.007182,-0.016675,-0.023788,-0.041059,0.063868,1.429745,-23.612681,0.609689,-5.364901,0.029276,-0.047877,-0.082163
1.060000,0.077942,0.362759,0.172493,0.306086,0.287816,0.330223,-0.039297,0.034632,0.054458,0.076109,0.100113,0.119552,0.130193,-0.775318,-0.001635,-0.004416,-0.007139,-0.016788,-0.023846,-0.041318,0.102067,1.448600,-23.591271,0.619882,-5.349064,0.031623,-0.046611,-0.084775
1.070000,0.078634,0.363847,0.174014,0.308085,0.290202,0.332818,-0.054779,0.034600,0.054369,0.075967,0.099776,0.119074,0.129365,-0.772934,-0.001567,-0.004441,-0.007098,-0.016897,-0.023909,-0.041572,0.140171,1.467479,-23.569798,0.630068,-5.333170,0.033932,-0.045329,-0.087366
1.080000,0.079326,0.364933,0.175531,0.310076,0.292578,0.335396,-0.070204,0.034569,0.054280,0.075825,0.099437,0.118595,0.128531,-0.769789,-0.001502,-0.004463,-0.007060,-0.017003,-0.023977,-0.041819,0.178143,1.486379,-23.548263,0.640247,-5.317220,0.036203,-0.044033,-0.089932
1.090000,0.080017,0.366018,0.177046,0.312061,0.294945,0.337957,-0.085558,0.034539,0.054191,0.075684,0.099096,0.118115,0.127693,-0.765885,-0.001438,-0.004482,-0.007025,-0.017105,-0.024052,-0.042060,0.215945,1.505299,-23.526667,0.650412,-5.301216,0.038433,-0.042724,-0.092470
1.100000,0.080708,0.367101,0.178558,0.314040,0.297302,0.340502,-0.100826,0.034511,0.054101,0.075544,0.098753,0.117634,0.126849,-0.761228,-0.001377,-0.004497,-0.006995,-0.017203,-0.024133,-0.042297,0.253542,1.524234,-23.505014,0.660563,-5.285161,0.040620,-0.041403,-0.094977
1.110000,0.081398,0.368182,0.180068,0.316011,0.299649,0.343030,-0.115992,0.034484,0.054011,0.075405,0.098408,0.117150,0.126001,-0.755820,-0.001319,-0.004508,-0.006967,-0.017298,-0.024220,-0.042528,0.290897,1.543183,-23.483303,0.670696,-5.269054,0.042762,-0.040072,-0.097451
1.120000,0.082087,0.369261,0.181574,0.317975,0.301987,0.345540,-0.131042,0.034458,0.053921,0.075266,0.098061,0.116665,0.125149,-0.749668,-0.001263,-0.004516,-0.006944,-0.017390,-0.024315,-0.042756,0.327972,1.562142,-23.461539,0.680807,-5.252899,0.044856,-0.038732,-0.099888
1.130000,0.082776,0.370338,0.183078,0.319933,0.304315,0.348034,-0.145961,0.034434,0.053830,0.075127,0.097713,0.116178,0.124291,-0.742777,-0.001209,-0.004521,-0.006925,-0.017479,-0.024418,-0.042979,0.364733,1.581109,-23.439723,0.690895,-5.236696,0.046901,-0.037384,-0.102286
1.140000,0.083464,0.371414,0.184579,0.321883,0.306633,0.350510,-0.160734,0.034410,0.053740,0.074988,0.097363,0.115688,0.123430,-0.735154,-0.001158,-0.004523,-0.006910,-0.017565,-0.024528,-0.043199,0.401144,1.600083,-23.417858,0.700957,-5.220448,0.048896,-0.036030,-0.104643
1.150000,0.084152,0.372488,0.186077,0.323826,0.308942,0.352969,-0.175346,0.034387,0.053650,0.074850,0.097010,0.115197,0.122564,-0.726806,-0.001110,-0.004521,-0.006900,-0.017648,-0.024646,-0.043417,0.437167,1.619060,-23.395946,0.710990,-5.204156,0.050838,-0.034672,-0.106956
1.160000,0.084840,0.373560,0.187573,0.325763,0.311240,0.355411,-0.189784,0.034365,0.053559,0.074712,0.096657,0.114703,0.121694,-0.717742,-0.001064,-0.004516,-0.006894,-0.017728,-0.024773,-0.043632,0.472770,1.638038,-23.373990,0.720992,-5.187823,0.052727,-0.033309,-0.109223
1.170000,0.085527,0.374630,0.189066,0.327692,0.313529,0.357835,-0.204032,0.034345,0.053469,0.074575,0.096302,0.114206,0.120819,-0.707969,-0.001021,-0.004508,-0.006892,-0.017807,-0.024907,-0.043845,0.507915,1.657016,-23.351992,0.730961,-5.171451,0.054561,-0.031945,-0.111442
1.180000,0.086213,0.375698,0.190556,0.329614,0.315807,0.360242,-0.218078,0.034324,0.053379,0.074437,0.095945,0.113707,0.119940,-0.697498,-0.000981,-0.004497,-0.006895,-0.017883,-0.025050,-0.044056,0.542569,1.675991,-23.329955,0.740895,-5.155041,0.056339,-0.030580,-0.113611
1.190000,0.086900,0.376765,0.192043,0.331529,0.318076,0.362631,-0.231906,0.034305,0.053289,0.074299,0.095586,0.113204,0.119057,-0.686339,-0.000944,-0.004484,-0.006903,-0.017957,-0.025202,-0.044267,0.576697,1.694962,-23.307883,0.750792,-5.138596,0.058060,-0.029216,-0.115729
1.200000,0.087586,0.377830,0.193527,0.333437,0.320335,0.365003,-0.245504,0.034287,0.053199,0.074161,0.095227,0.112699,0.118170,-0.674502,-0.000909,-0.004468,-0.006916,-0.018029,-0.025361,-0.044476,0.610266,1.713928,-23.285777,0.760651,-5.122118,0.059724,-0.027854,-0.117795
1.210000,0.088271,0.378893,0.195009,0.335337,0.322583,0.367356,-0.258857,0.034269,0.053110,0.074022,0.094865,0.112190,0.117279,-0.661999,-0.000877,-0.004450,-0.006933,-0.018100,-0.025529,-0.044686,0.643243,1.732885,-23.263640,0.770470,-5.105608,0.061329,-0.026495,-0.119806
1.220000,0.088956,0.379954,0.196488,0.337231,0.324821,0.369692,-0.271954,0.034251,0.053021,0.073883,0.094503,0.111678,0.116383,-0.648842,-0.000848,-0.004430,-0.006954,-0.018170,-0.025705,-0.044895,0.675594,1.751833,-23.241476,0.780247,-5.089069,0.062876,-0.025141,-0.121762
1.230000,0.089641,0.381013,0.197964,0.339117,0.327049,0.372010,-0.284780,0.034235,0.052933,0.073744,0.094139,0.111162,0.115483,-0.635043,-0.000821,-0.004408,-0.006980,-0.018238,-0.025889,-0.045105,0.707288,1.770771,-23.219287,0.789982,-5.072503,0.064364,-0.023794,-0.123661
1.240000,0.090326,0.382071,0.199437,0.340995,0.329266,0.374309,-0.297323,0.034219,0.052845,0.073604,0.093773,0.110643,0.114579,-0.620618,-0.000797,-0.004385,-0.007010,-0.018306,-0.026081,-0.045316,0.738293,1.789697,-23.197076,0.799673,-5.055912,0.065792,-0.022453,-0.125504
1.250000,0.091010,0.383127,0.200908,0.342867,0.331474,0.376591,-0.309571,0.034203,0.052758,0.073464,0.093407,0.110119,0.113671,-0.605578,-0.000775,-0.004360,-0.007045,-0.018374,-0.026281,-0.045528,0.768578,1.808611,-23.174845,0.809319,-5.039298,0.067161,-0.021121,-0.127288
1.260000,0.091694,0.384181,0.202376,0.344731,0.333670,0.378854,-0.321511,0.034187,0.052671,0.073322,0.093039,0.109592,0.112759,-0.589939,-0.000756,-0.004334,-0.007084,-0.018441,-0.026487,-0.045742,0.798113,1.827510,-23.152598,0.818921,-5.022663,0.068471,-0.019798,-0.129014
1.270000,0.092377,0.385234,0.203841,0.346588,0.335856,0.381099,-0.333133,0.034173,0.052584,0.073180,0.092669,0.109060,0.111842,-0.573717,-0.000740,-0.004307,-0.007126,-0.018508,-0.026700,-0.045957,0.826868,1.846394,-23.130336,0.828476,-5.006009,0.069722,-0.018486,-0.130681
1.280000,0.093061,0.386284,0.205303,0.348437,0.338031,0.383326,-0.344423,0.034158,0.052498,0.073037,0.092298,0.108524,0.110921,-0.556927,-0.000725,-0.004280,-0.007173,-0.018576,-0.026920,-0.046173,0.854814,1.865262,-23.108063,0.837984,-4.989338,0.070915,-0.017185,-0.132289
1.290000,0.093744,0.387333,0.206762,0.350279,0.340196,0.385534,-0.355372,0.034143,0.052413,0.072893,0.091926,0.107984,0.109995,-0.539585,-0.000713,-0.004252,-0.007223,-0.018643,-0.027147,-0.046392,0.881923,1.884114,-23.085780,0.847446,-4.972651,0.072049,-0.015897,-0.133838
1.300000,0.094426,0.388381,0.208218,0.352113,0.342350,0.387724,-0.365968,0.034129,0.052328,0.072749,0.091553,0.107439,0.109065,-0.521709,-0.000703,-0.004224,-0.007276,-0.018711,-0.027378,-0.046614,0.908168,1.902948,-23.063491,0.856860,-4.955951,0.073126,-0.014622,-0.135328
1.310000,0.095109,0.389426,0.209671,0.353940,0.344492,0.389895,-0.376201,0.034115,0.052244,0.072602,0.091178,0.106889,0.108131,-0.503316,-0.000695,-0.004197,-0.007333,-0.018780,-0.027616,-0.046837,0.933522,1.921764,-23.041197,0.866227,-4.939239,0.074146,-0.013361,-0.136758
1.320000,0.095791,0.390470,0.211122,0.355760,0.346624,0.392047,-0.386060,0.034101,0.052160,0.072455,0.090802,0.106334,0.107192,-0.484424,-0.000689,-0.004169,-0.007392,-0.018850,-0.027858,-0.047063,0.957959,1.940561,-23.018900,0.875546,-4.922517,0.075109,-0.012115,-0.138130
1.330000,0.096473,0.391513,0.212569,0.357571,0.348745,0.394181,-0.395536,0.034088,0.052077,0.072307,0.090424,0.105775,0.106249,-0.465052,-0.000684,-0.004143,-0.007455,-0.018921,-0.028104,-0.047291,0.981455,1.959339,-22.996603,0.884817,-4.905787,0.076017,-0.010884,-0.139442
1.340000,0.097154,0.392553,0.214014,0.359376,0.350854,0.396295,-0.404620,0.034074,0.051994,0.072157,0.090045,0.105211,0.105301,-0.445218,-0.000681,-0.004116,-0.007520,-0.018993,-0.028355,-0.047522,1.003985,1.978098,-22.974308,0.894041,-4.889049,0.076871,-0.009669,-0.140697
1.350000,0.097836,0.393592,0.215455,0.361173,0.352952,0.398391,-0.413302,0.034060,0.051912,0.072006,0.089664,0.104641,0.104349,-0.424943,-0.000680,-0.004091,-0.007587,-0.019067,-0.028609,-0.047756,1.025528,1.996837,-22.952015,0.903218,-4.872307,0.077671,-0.008470,-0.141893
1.360000,0.098517,0.394630,0.216894,0.362962,0.355038,0.400467,-0.421574,0.034047,0.051831,0.071854,0.089282,0.104067,0.103391,-0.404246,-0.000681,-0.004067,-0.007656,-0.019142,-0.028866,-0.047992,1.046060,2.015555,-22.929728,0.912348,-4.855560,0.078419,-0.007287,-0.143033
1.370000,0.099198,0.395665,0.218329,0.364743,0.357113,0.402525,-0.429427,0.034033,0.051750,0.071700,0.088899,0.103487,0.102429,-0.383148,-0.000682,-0.004045,-0.007728,-0.019218,-0.029125,-0.048230,1.065561,2.034253,-22.907447,0.921431,-4.838810,0.079116,-0.006122,-0.144115
1.380000,0.099878,0.396699,0.219761,0.366517,0.359177,0.404563,-0.436854,0.034020,0.051669,0.071545,0.088514,0.102902,0.101463,-0.361669,-0.000685,-0.004023,-0.007800,-0.019297,-0.029387,-0.048471,1.084011,2.052930,-22.885174,0.930467,-4.822059,0.079763,-0.004973,-0.145142
1.390000,0.100558,0.397732,0.221191,0.368283,0.361228,0.406581,-0.443848,0.034006,0.051589,0.071388,0.088127,0.102312,0.100491,-0.339830,-0.000689,-0.004004,-0.007874,-0.019376,-0.029650,-0.048714,1.101390,2.071586,-22.862910,0.939457,-4.805307,0.080361,-0.003842,-0.146113
1.400000,0.101238,0.398763,0.222617,0.370041,0.363268,0.408580,-0.450401,0.033992,0.051509,0.071230,0.087739,0.101717,0.099515,-0.317654,-0.000694,-0.003986,-0.007949,-0.019458,-0.029915,-0.048960,1.117682,2.090221,-22.840656,0.948402,-4.788556,0.080912,-0.002728,-0.147029
1.410000,0.101918,0.399792,0.224039,0.371792,0.365296,0.410560,-0.456507,0.033978,0.051429,0.071070,0.087349,0.101116,0.098533,-0.295162,-0.000700,-0.003970,-0.008026,-0.019542,-0.030180,-0.049207,1.132868,2.108835,-22.818414,0.957301,-4.771807,0.081416,-0.001632,-0.147892
1.420000,0.102597,0.400820,0.225459,0.373534,0.367311,0.412520,-0.462160,0.033964,0.051350,0.070909,0.086957,0.100510,0.097547,-0.272376,-0.000706,-0.003955,-0.008102,-0.019627,-0.030445,-0.049456,1.146935,2.127427,-22.796185,0.966156,-4.755060,0.081875,-0.000552,-0.148701
1.430000,0.103277,0.401846,0.226875,0.375269,0.369315,0.414460,-0.467355,0.033950,0.051271,0.070746,0.086564,0.099899,0.096555,-0.249319,-0.000713,-0.003943,-0.008179,-0.019714,-0.030710,-0.049707,1.159866,2.145999,-22.773968,0.974967,-4.738316,0.082291,0.000510,-0.149458
1.440000,0.103955,0.402870,0.228289,0.376996,0.371306,0.416380,-0.472085,0.033936,0.051192,0.070582,0.086169,0.099282,0.095559,-0.226014,-0.000721,-0.003933,-0.008257,-0.019804,-0.030974,-0.049959,1.171649,2.164549,-22.751766,0.983734,-4.721577,0.082665,0.001555,-0.150163
1.450000,0.104634,0.403893,0.229698,0.378715,0.373285,0.418280,-0.476347,0.033921,0.051114,0.070416,0.085772,0.098661,0.094558,-0.202483,-0.000728,-0.003924,-0.008334,-0.019895,-0.031238,-0.050212,1.182271,2.183077,-22.729578,0.992458,-4.704843,0.082998,0.002584,-0.150818
1.460000,0.105312,0.404915,0.231105,0.380426,0.375251,0.420160,-0.480136,0.033906,0.051035,0.070249,0.085373,0.098033,0.093551,-0.178751,-0.000737,-0.003918,-0.008411,-0.019987,-0.031500,-0.050467,1.191722,2.201584,-22.707406,1.001140,-4.688113,0.083291,0.003597,-0.151422
1.470000,0.105990,0.405935,0.232508,0.382129,0.377205,0.422020,-0.483448,0.033892,0.050957,0.070080,0.084973,0.097401,0.092539,-0.154840,-0.000745,-0.003914,-0.008488,-0.020082,-0.031761,-0.050722,1.199991,2.220070,-22.685249,1.009779,-4.671390,0.083547,0.004593,-0.151976
1.480000,0.106668,0.406953,0.233908,0.383824,0.379146,0.423860,-0.486280,0.033877,0.050879,0.069910,0.084570,0.096764,0.091523,-0.130774,-0.000753,-0.003912,-0.008564,-0.020178,-0.032019,-0.050977,1.207070,2.238535,-22.663108,1.018377,-4.654674,0.083765,0.005575,-0.152482
1.490000,0.107345,0.407970,0.235304,0.385511,0.381074,0.425679,-0.488630,0.033861,0.050800,0.069738,0.084166,0.096121,0.090501,-0.106578,-0.000762,-0.003912,-0.008640,-0.020276,-0.032275,-0.051233,1.212951,2.256978,-22.640983,1.026934,-4.637964,0.083948,0.006541,-0.152939
1.500000,0.108022,0.408985,0.236697,0.387190,0.382990,0.427478,-0.490494,0.033846,0.050722,0.069564,0.083759,0.095473,0.089474,-0.082275,-0.000770,-0.003914,-0.008715,-0.020376,-0.032529,-0.051488,1.217629,2.275399,-22.618875,1.035451,-4.621261,0.084097,0.007493,-0.153349
1.510000,0.108699,0.409998,0.238086,0.388861,0.384892,0.429256,-0.491872,0.033831,0.050644,0.069389,0.083351,0.094820,0.088442,-0.057889,-0.000779,-0.003919,-0.008788,-0.020477,-0.032779,-0.051744,1.221098,2.293799,-22.596783,1.043927,-4.604566,0.084213,0.008430,-0.153711
1.520000,0.109375,0.411010,0.239472,0.390523,0.386781,0.431013,-0.492761,0.033815,0.050565,0.069213,0.082941,0.094162,0.087405,-0.033445,-0.000787,-0.003925,-0.008861,-0.020579,-0.033027,-0.051998,1.223354,2.312178,-22.574708,1.052364,-4.587878,0.084297,0.009355,-0.154027
1.530000,0.110052,0.412021,0.240854,0.392177,0.388657,0.432750,-0.493160,0.033799,0.050487,0.069035,0.082528,0.093500,0.086362,-0.008966,-0.000794,-0.003933,-0.008932,-0.020683,-0.033271,-0.052252,1.224396,2.330535,-22.552649,1.060762,-4.571199,0.084351,0.010267,-0.154296
1.540000,0.110727,0.413030,0.242233,0.393823,0.390520,0.434466,-0.493070,0.033783,0.050408,0.068856,0.082113,0.092832,0.085315,0.015522,-0.000802,-0.003943,-0.009003,-0.020788,-0.033512,-0.052504,1.224221,2.348871,-22.530607,1.069120,-4.554527,0.084376,0.011166,-0.154520
1.550000,0.111403,0.414037,0.243608,0.395461,0.392369,0.436160,-0.492491,0.033767,0.050329,0.068675,0.081697,0.092160,0.084263,0.039996,-0.000808,-0.003954,-0.009071,-0.020895,-0.033750,-0.052754,1.222831,2.367185,-22.508582,1.077440,-4.537864,0.084372,0.012054,-0.154697
1.560000,0.112078,0.415043,0.244980,0.397090,0.394205,0.437834,-0.491422,0.033751,0.050250,0.068493,0.081278,0.091483,0.083205,0.064431,-0.000815,-0.003968,-0.009139,-0.021002,-0.033983,-0.053003,1.220225,2.385478,-22.486572,1.085722,-4.521208,0.084341,0.012932,-0.154829
1.570000,0.112753,0.416047,0.246348,0.398711,0.396027,0.439486,-0.489865,0.033735,0.050170,0.068310,0.080857,0.090801,0.082143,0.088803,-0.000821,-0.003983,-0.009205,-0.021110,-0.034213,-0.053249,1.216408,2.403748,-22.464579,1.093965,-4.504561,0.084285,0.013799,-0.154916
1.580000,0.113427,0.417049,0.247712,0.400324,0.397835,0.441117,-0.487822,0.033718,0.050091,0.068125,0.080434,0.090115,0.081076,0.113088,-0.000826,-0.004000,-0.009269,-0.021219,-0.034440,-0.053493,1.211381,2.421997,-22.442602,1.102171,-4.487922,0.084203,0.014656,-0.154957
1.590000,0.114102,0.418050,0.249072,0.401928,0.399630,0.442727,-0.485294,0.033702,0.050010,0.067939,0.080008,0.089424,0.080004,0.137262,-0.000831,-0.004018,-0.009332,-0.021329,-0.034662,-0.053734,1.205152,2.440224,-22.420640,1.110338,-4.471291,0.084097,0.015505,-0.154953
1.600000,0.114775,0.419050,0.250429,0.403523,0.401411,0.444315,-0.482284,0.033685,0.049930,0.067752,0.079581,0.088728,0.078927,0.161300,-0.000836,-0.004037,-0.009393,-0.021439,-0.034880,-0.053973,1.197725,2.458428,-22.398694,1.118468,-4.454669,0.083969,0.016346,-0.154904
1.610000,0.115449,0.420047,0.251782,0.405110,0.403178,0.445882,-0.478795,0.033668,0.049849,0.067563,0.079151,0.088029,0.077846,0.185179,-0.000840,-0.004058,-0.009453,-0.021550,-0.035095,-0.054207,1.189109,2.476610,-22.376763,1.126561,-4.438054,0.083818,0.017179,-0.154809
1.620000,0.116122,0.421043,0.253131,0.406689,0.404931,0.447427,-0.474830,0.033651,0.049768,0.067374,0.078719,0.087325,0.076759,0.208875,-0.000843,-0.004080,-0.009511,-0.021661,-0.035305,-0.054439,1.179312,2.494769,-22.354846,1.134615,-4.421447,0.083646,0.018005,-0.154668
1.630000,0.116795,0.422038,0.254477,0.408258,0.406669,0.448950,-0.470394,0.033634,0.049686,0.067183,0.078285,0.086617,0.075668,0.232364,-0.000846,-0.004104,-0.009568,-0.021772,-0.035512,-0.054666,1.168343,2.512905,-22.332944,1.142632,-4.404848,0.083453,0.018825,-0.154482
1.640000,0.117467,0.423031,0.255818,0.409819,0.408394,0.450452,-0.465491,0.033618,0.049603,0.066991,0.077848,0.085905,0.074573,0.255624,-0.000848,-0.004128,-0.009624,-0.021884,-0.035715,-0.054889,1.156215,2.531019,-22.311056,1.150612,-4.388257,0.083241,0.019639,-0.154249
1.650000,0.118140,0.424022,0.257156,0.411371,0.410104,0.451931,-0.460125,0.033601,0.049521,0.066798,0.077410,0.085189,0.073473,0.278630,-0.000849,-0.004154,-0.009677,-0.021995,-0.035914,-0.055108,1.142940,2.549108,-22.289182,1.158553,-4.371674,0.083010,0.020448,-0.153970
1.660000,0.118811,0.425011,0.258490,0.412915,0.411800,0.453388,-0.454302,0.033584,0.049437,0.066604,0.076969,0.084469,0.072369,0.301361,-0.000851,-0.004180,-0.009730,-0.022106,-0.036109,-0.055322,1.128530,2.567174,-22.267321,1.166456,-4.355098,0.082760,0.021253,-0.153644
1.670000,0.119483,0.425999,0.259820,0.414449,0.413481,0.454823,-0.448027,0.033567,0.049354,0.066409,0.076526,0.083745,0.071261,0.323794,-0.000851,-0.004207,-0.009781,-0.022217,-0.036301,-0.055532,1.113001,2.585216,-22.245473,1.174321,-4.338529,0.082493,0.022053,-0.153271
1.680000,0.120154,0.426985,0.261146,0.415975,0.415148,0.456236,-0.441307,0.033549,0.049269,0.066213,0.076080,0.083017,0.070148,0.345906,-0.000852,-0.004235,-0.009831,-0.022327,-0.036490,-0.055737,1.096369,2.603234,-22.223637,1.182148,-4.321968,0.082209,0.022850,-0.152849
1.690000,0.120825,0.427970,0.262468,0.417491,0.416800,0.457627,-0.434149,0.033532,0.049184,0.066016,0.075633,0.082286,0.069032,0.367676,-0.000852,-0.004264,-0.009880,-0.022437,-0.036675,-0.055936,1.078650,2.621226,-22.201814,1.189936,-4.305413,0.081908,0.023644,-0.152380
1.700000,0.121495,0.428952,0.263786,0.418999,0.418438,0.458995,-0.426560,0.033515,0.049099,0.065818,0.075183,0.081551,0.067911,0.389082,-0.000851,-0.004293,-0.009928,-0.022547,-0.036857,-0.056130,1.059863,2.639194,-22.180002,1.197685,-4.288866,0.081592,0.024435,-0.151862
1.710000,0.122165,0.429934,0.265100,0.420498,0.420061,0.460341,-0.418546,0.033498,0.049013,0.065619,0.074731,0.080812,0.066787,0.410102,-0.000851,-0.004323,-0.009975,-0.022655,-0.037036,-0.056319,1.040026,2.657136,-22.158202,1.205395,-4.272327,0.081260,0.025224,-0.151294
1.720000,0.122835,0.430913,0.266410,0.421987,0.421669,0.461665,-0.410117,0.033481,0.048926,0.065419,0.074277,0.080070,0.065659,0.430716,-0.000850,-0.004354,-0.010021,-0.022763,-0.037212,-0.056502,1.019160,2.675053,-22.136413,1.213065,-4.255794,0.080914,0.026010,-0.150678
1.730000,0.123505,0.431890,0.267716,0.423468,0.423262,0.462965,-0.401280,0.033464,0.048838,0.065218,0.073821,0.079324,0.064527,0.450904,-0.000849,-0.004384,-0.010066,-0.022870,-0.037385,-0.056680,0.997285,2.692943,-22.114635,1.220695,-4.239268,0.080553,0.026795,-0.150010
1.740000,0.124174,0.432866,0.269018,0.424939,0.424841,0.464243,-0.392044,0.033447,0.048750,0.065016,0.073362,0.078575,0.063392,0.470646,-0.000847,-0.004416,-0.010111,-0.022975,-0.037556,-0.056852,0.974425,2.710806,-22.092867,1.228285,-4.222749,0.080178,0.027578,-0.149293
1.750000,0.124843,0.433840,0.270317,0.426401,0.426404,0.465499,-0.382418,0.033431,0.048662,0.064814,0.072902,0.077822,0.062254,0.489922,-0.000846,-0.004447,-0.010156,-0.023080,-0.037724,-0.057018,0.950603,2.728643,-22.071109,1.235834,-4.206238,0.079790,0.028359,-0.148524
1.760000,0.125511,0.434812,0.271611,0.427854,0.427952,0.466731,-0.372412,0.033414,0.048573,0.064610,0.072439,0.077066,0.061112,0.508712,-0.000845,-0.004479,-0.010200,-0.023183,-0.037890,-0.057178,0.925841,2.746452,-22.049360,1.243342,-4.189734,0.079390,0.029139,-0.147703
1.770000,0.126179,0.435783,0.272901,0.429298,0.429485,0.467941,-0.362036,0.033397,0.048483,0.064406,0.071975,0.076307,0.059967,0.527000,-0.000844,-0.004512,-0.010243,-0.023285,-0.038053,-0.057332,0.900167,2.764233,-22.027621,1.250809,-4.173237,0.078976,0.029918,-0.146831
1.780000,0.126847,0.436752,0.274186,0.430732,0.431003,0.469128,-0.351299,0.033380,0.048392,0.064201,0.071508,0.075544,0.058819,0.544765,-0.000843,-0.004544,-0.010287,-0.023385,-0.038215,-0.057480,0.873605,2.781986,-22.005891,1.258234,-4.156748,0.078551,0.030696,-0.145907
1.790000,0.127514,0.437718,0.275468,0.432157,0.432505,0.470291,-0.340214,0.033363,0.048301,0.063995,0.071040,0.074778,0.057668,0.561992,-0.000842,-0.004576,-0.010331,-0.023483,-0.038375,-0.057623,0.846182,2.799710,-21.984169,1.265617,-4.140266,0.078114,0.031472,-0.144930
1.800000,0.128181,0.438683,0.276746,0.433573,0.433992,0.471432,-0.328789,0.033346,0.048209,0.063788,0.070569,0.074010,0.056514,0.578663,-0.000841,-0.004609,-0.010375,-0.023580,-0.038534,-0.057759,0.817926,2.817406,-21.962456,1.272957,-4.123793,0.077665,0.032247,-0.143901
1.810000,0.128848,0.439647,0.278019,0.434979,0.435464,0.472550,-0.317038,0.033329,0.048117,0.063580,0.070097,0.073237,0.055358,0.594761,-0.000841,-0.004642,-0.010419,-0.023675,-0.038690,-0.057890,0.788867,2.835072,-21.940750,1.280255,-4.107327,0.077206,0.033021,-0.142818
1.820000,0.129514,0.440608,0.279289,0.436376,0.436920,0.473644,-0.304971,0.033313,0.048024,0.063371,0.069622,0.072462,0.054199,0.610271,-0.000841,-0.004674,-0.010464,-0.023769,-0.038846,-0.058015,0.759032,2.852709,-21.919053,1.287509,-4.090871,0.076737,0.033792,-0.141683
1.830000,0.130181,0.441567,0.280554,0.437763,0.438361,0.474715,-0.292601,0.033296,0.047930,0.063161,0.069146,0.071684,0.053038,0.625178,-0.000841,-0.004707,-0.010509,-0.023860,-0.039000,-0.058134,0.728452,2.870315,-21.897363,1.294720,-4.074424,0.076257,0.034562,-0.140496
1.840000,0.130846,0.442525,0.281815,0.439141,0.439786,0.475763,-0.279939,0.033279,0.047835,0.062951,0.068668,0.070903,0.051874,0.639466,-0.000842,-0.004739,-0.010555,-0.023949,-0.039154,-0.058248,0.697157,2.887892,-21.875680,1.301887,-4.057986,0.075768,0.035330,-0.139255
1.850000,0.131512,0.443481,0.283071,0.440509,0.441195,0.476788,-0.266999,0.033262,0.047740,0.062739,0.068188,0.070118,0.050708,0.653123,-0.000844,-0.004771,-0.010601,-0.024036,-0.039306,-0.058356,0.665180,2.905438,-21.854005,1.309010,-4.041558,0.075269,0.036095,-0.137963
1.860000,0.132177,0.444434,0.284324,0.441867,0.442589,0.477789,-0.253792,0.033245,0.047645,0.062527,0.067707,0.069331,0.049540,0.666134,-0.000846,-0.004803,-0.010649,-0.024121,-0.039457,-0.058459,0.632552,2.922953,-21.832337,1.316090,-4.025141,0.074762,0.036858,-0.136618
1.870000,0.132841,0.445386,0.285572,0.443216,0.443967,0.478767,-0.240332,0.033228,0.047548,0.062313,0.067224,0.068540,0.048370,0.678486,-0.000849,-0.004834,-0.010697,-0.024203,-0.039608,-0.058557,0.599305,2.940438,-21.810675,1.323124,-4.008736,0.074246,0.037617,-0.135221
1.880000,0.133506,0.446336,0.286816,0.444555,0.445329,0.479722,-0.226633,0.033211,0.047451,0.062099,0.066739,0.067747,0.047198,0.690169,-0.000853,-0.004865,-0.010747,-0.024283,-0.039758,-0.058650,0.565474,2.957891,-21.789021,1.330115,-3.992342,0.073723,0.038373,-0.133774
1.890000,0.134170,0.447284,0.288055,0.445885,0.446675,0.480653,-0.212707,0.033194,0.047354,0.061883,0.066253,0.066950,0.046024,0.701170,-0.000857,-0.004896,-0.010798,-0.024361,-0.039908,-0.058738,0.531091,2.975313,-21.767373,1.337061,-3.975962,0.073192,0.039124,-0.132277
1.900000,0.134834,0.448230,0.289291,0.447205,0.448005,0.481560,-0.198569,0.033177,0.047256,0.061667,0.065765,0.066151,0.044849,0.711478,-0.000863,-0.004926,-0.010850,-0.024436,-0.040057,-0.058821,0.496192,2.992704,-21.745733,1.343962,-3.959595,0.072654,0.039871,-0.130730
1.910000,0.135497,0.449174,0.290522,0.448514,0.449320,0.482444,-0.184233,0.033160,0.047157,0.061450,0.065275,0.065348,0.043671,0.721085,-0.000869,-0.004955,-0.010903,-0.024509,-0.040205,-0.058900,0.460810,3.010063,-21.724099,1.350819,-3.943243,0.072110,0.040613,-0.129134
1.920000,0.136160,0.450116,0.291748,0.449815,0.450618,0.483305,-0.169712,0.033142,0.047057,0.061231,0.064785,0.064543,0.042493,0.729979,-0.000876,-0.004983,-0.010958,-0.024579,-0.040354,-0.058975,0.424980,3.027391,-21.702473,1.357632,-3.926907,0.071560,0.041349,-0.127492
1.930000,0.136823,0.451056,0.292970,0.451105,0.451900,0.484142,-0.155022,0.033125,0.046958,0.061011,0.064292,0.063734,0.041313,0.738153,-0.000885,-0.005011,-0.011015,-0.024646,-0.040502,-0.059046,0.388739,3.044687,-21.680854,1.364400,-3.910587,0.071004,0.042080,-0.125803
1.940000,0.137485,0.451994,0.294188,0.452385,0.453165,0.484955,-0.140175,0.033107,0.046857,0.060790,0.063799,0.062923,0.040131,0.745599,-0.000894,-0.005037,-0.011073,-0.024711,-0.040649,-0.059113,0.352123,3.061952,-21.659243,1.371124,-3.894285,0.070444,0.042803,-0.124069
1.950000,0.138147,0.452930,0.295402,0.453656,0.454415,0.485745,-0.125188,0.033089,0.046756,0.060568,0.063304,0.062109,0.038948,0.752309,-0.000904,-0.005063,-0.011133,-0.024773,-0.040797,-0.059177,0.315166,3.079186,-21.637640,1.377804,-3.878002,0.069880,0.043519,-0.122293
1.960000,0.138808,0.453864,0.296611,0.454916,0.455648,0.486510,-0.110075,0.033071,0.046655,0.060345,0.062808,0.061291,0.037764,0.758278,-0.000916,-0.005087,-0.011194,-0.024832,-0.040944,-0.059238,0.277907,3.096388,-21.616045,1.384441,-3.861739,0.069312,0.044228,-0.120474
1.970000,0.139470,0.454796,0.297815,0.456167,0.456865,0.487253,-0.094851,0.033052,0.046553,0.060121,0.062311,0.060471,0.036579,0.763499,-0.000929,-0.005110,-0.011257,-0.024889,-0.041090,-0.059295,0.240381,3.113559,-21.594460,1.391035,-3.845498,0.068741,0.044928,-0.118616
1.980000,0.140130,0.455726,0.299015,0.457408,0.458065,0.487971,-0.079531,0.033033,0.046450,0.059895,0.061813,0.059648,0.035393,0.767967,-0.000943,-0.005132,-0.011322,-0.024943,-0.041237,-0.059350,0.202626,3.130700,-21.572885,1.397586,-3.829280,0.068168,0.045619,-0.116720
1.990000,0.140791,0.456654,0.300210,0.458639,0.459249,0.488666,-0.064129,0.033014,0.046347,0.059668,0.061313,0.058822,0.034205,0.771678,-0.000958,-0.005153,-0.011389,-0.024994,-0.041383,-0.059403,0.164679,3.147810,-21.551320,1.404095,-3.813087,0.067593,0.046301,-0.114788
2.000000,0.141451,0.457580,0.301401,0.459859,0.460417,0.489337,-0.048662,0.032995,0.046244,0.059440,0.060813,0.057993,0.033017,0.774629,-0.000975,-0.005171,-0.011457,-0.025042,-0.041528,-0.059453,0.126576,3.164891,-21.529767,1.410562,-3.796920,0.067016,0.046973,-0.112823
2.010000,0.142111,0.458504,0.302587,0.461070,0.461567,0.489984,-0.033144,0.032976,0.046141,0.059210,0.060312,0.057161,0.031827,0.776817,-0.000993,-0.005188,-0.011527,-0.025088,-0.041674,-0.059501,0.088356,3.181941,-21.508226,1.416988,-3.780780,0.066440,0.047634,-0.110826
2.020000,0.142770,0.459425,0.303769,0.462271,0.462701,0.490608,-0.017591,0.032955,0.046037,0.058979,0.059810,0.056326,0.030637,0.778239,-0.001012,-0.005204,-0.011599,-0.025131,-0.041818,-0.059547,0.050056,3.198962,-21.486699,1.423373,-3.764669,0.065864,0.048284,-0.108799
2.030000,0.143429,0.460345,0.304946,0.463462,0.463819,0.491207,-0.002018,0.032935,0.045933,0.058746,0.059307,0.055489,0.029445,0.778895,-0.001032,-0.005217,-0.011672,-0.025172,-0.041962,-0.059592,0.011713,3.215955,-21.465186,1.429719,-3.748590,0.065289,0.048923,-0.106747
2.040000,0.144087,0.461262,0.306118,0.464642,0.464919,0.491783,0.013560,0.032914,0.045828,0.058512,0.058803,0.054648,0.028253,0.778784,-0.001054,-0.005229,-0.011747,-0.025209,-0.042105,-0.059636,-0.026636,3.232919,-21.443690,1.436027,-3.732543,0.064715,0.049549,-0.104670
2.050000,0.144745,0.462178,0.307286,0.465813,0.466003,0.492335,0.029128,0.032893,0.045723,0.058276,0.058298,0.053805,0.027060,0.777907,-0.001077,-0.005238,-0.011824,-0.025245,-0.042248,-0.059678,-0.064952,3.249856,-21.422210,1.442296,-3.716531,0.064145,0.050163,-0.102572
2.060000,0.145403,0.463091,0.308449,0.466973,0.467070,0.492863,0.044669,0.032871,0.045619,0.058039,0.057793,0.052959,0.025866,0.776263,-0.001102,-0.005246,-0.011903,-0.025278,-0.042389,-0.059720,-0.103199,3.266766,-21.400750,1.448528,-3.700555,0.063577,0.050764,-0.100455
2.070000,0.146060,0.464002,0.309607,0.468123,0.468119,0.493367,0.060169,0.032849,0.045514,0.057800,0.057287,0.052110,0.024671,0.773856,-0.001128,-0.005251,-0.011982,-0.025308,-0.042530,-0.059760,-0.141339,3.283649,-21.379310,1.454724,-3.684618,0.063014,0.051352,-0.098323
2.080000,0.146717,0.464911,0.310761,0.469263,0.469152,0.493848,0.075612,0.032826,0.045409,0.057560,0.056781,0.051258,0.023476,0.770687,-0.001155,-0.005254,-0.012064,-0.025336,-0.042669,-0.059800,-0.179336,3.300508,-21.357892,1.460885,-3.668721,0.062455,0.051926,-0.096178
2.090000,0.147373,0.465818,0.311909,0.470394,0.470168,0.494304,0.090984,0.032803,0.045303,0.057318,0.056274,0.050403,0.022279,0.766759,-0.001183,-0.005254,-0.012146,-0.025363,-0.042807,-0.059840,-0.217151,3.317341,-21.336499,1.467012,-3.652867,0.061902,0.052486,-0.094024
2.100000,0.148029,0.466723,0.313053,0.471513,0.471167,0.494736,0.106269,0.032779,0.045198,0.057074,0.055766,0.049546,0.021082,0.762078,-0.001213,-0.005253,-0.012230,-0.025386,-0.042943,-0.059879,-0.254748,3.334151,-21.315131,1.473107,-3.637057,0.061355,0.053032,-0.091862
2.110000,0.148684,0.467626,0.314192,0.472623,0.472148,0.495145,0.121452,0.032754,0.045093,0.056829,0.055258,0.048686,0.019884,0.756646,-0.001244,-0.005248,-0.012315,-0.025408,-0.043079,-0.059918,-0.292092,3.350938,-21.293792,1.479169,-3.621294,0.060815,0.053564,-0.089698
2.120000,0.149339,0.468527,0.315325,0.473723,0.473112,0.495529,0.136518,0.032729,0.044988,0.056582,0.054750,0.047823,0.018685,0.750470,-0.001276,-0.005242,-0.012401,-0.025428,-0.043212,-0.059957,-0.329144,3.367704,-21.272483,1.485201,-3.605579,0.060283,0.054081,-0.087533
2.130000,0.149993,0.469425,0.316454,0.474812,0.474059,0.495890,0.151453,0.032703,0.044884,0.056333,0.054241,0.046957,0.017486,0.743556,-0.001309,-0.005233,-0.012488,-0.025447,-0.043344,-0.059996,-0.365870,3.384448,-21.251207,1.491204,-3.589915,0.059760,0.054584,-0.085370
2.140000,0.150647,0.470322,0.317578,0.475891,0.474989,0.496226,0.166241,0.032677,0.044779,0.056083,0.053732,0.046089,0.016286,0.735911,-0.001343,-0.005221,-0.012575,-0.025463,-0.043473,-0.060034,-0.402234,3.401173,-21.229966,1.497179,-3.574304,0.059246,0.055072,-0.083213
2.150000,0.151300,0.471216,0.318697,0.476960,0.475901,0.496539,0.180869,0.032650,0.044675,0.055830,0.053223,0.045219,0.015085,0.727542,-0.001378,-0.005207,-0.012664,-0.025479,-0.043601,-0.060073,-0.438200,3.417879,-21.208763,1.503127,-3.558748,0.058742,0.055545,-0.081066
2.160000,0.151953,0.472109,0.319811,0.478019,0.476796,0.496827,0.195321,0.032622,0.044571,0.055576,0.052713,0.044346,0.013883,0.718457,-0.001415,-0.005191,-0.012753,-0.025492,-0.043726,-0.060112,-0.473733,3.434567,-21.187600,1.509050,-3.543249,0.058249,0.056003,-0.078931
2.170000,0.152605,0.472999,0.320920,0.479068,0.477673,0.497092,0.209583,0.032593,0.044467,0.055320,0.052203,0.043470,0.012680,0.708666,-0.001452,-0.005173,-0.012842,-0.025505,-0.043849,-0.060151,-0.508799,3.451239,-21.166480,1.514949,-3.527809,0.057768,0.056446,-0.076811
2.180000,0.153257,0.473887,0.322023,0.480106,0.478533,0.497332,0.223642,0.032564,0.044364,0.055063,0.051693,0.042592,0.011477,0.698179,-0.001490,-0.005152,-0.012932,-0.025517,-0.043970,-0.060190,-0.543363,3.467896,-21.145405,1.520826,-3.512431,0.057298,0.056876,-0.074710
2.190000,0.153908,0.474773,0.323122,0.481135,0.479375,0.497548,0.237484,0.032534,0.044261,0.054803,0.051183,0.041711,0.010273,0.687004,-0.001528,-0.005128,-0.013022,-0.025527,-0.044088,-0.060229,-0.577393,3.484539,-21.124379,1.526681,-3.497117,0.056842,0.057290,-0.072631
2.200000,0.154558,0.475657,0.324215,0.482153,0.480200,0.497741,0.251095,0.032503,0.044159,0.054542,0.050672,0.040829,0.009068,0.675154,-0.001568,-0.005103,-0.013112,-0.025537,-0.044203,-0.060268,-0.610854,3.501169,-21.103404,1.532516,-3.481868,0.056400,0.057691,-0.070577
2.210000,0.155208,0.476540,0.325303,0.483160,0.481006,0.497909,0.264461,0.032471,0.044057,0.054279,0.050161,0.039944,0.007862,0.662640,-0.001607,-0.005076,-0.013202,-0.025546,-0.044316,-0.060306,-0.643715,3.517788,-21.082483,1.538333,-3.466688,0.055972,0.058077,-0.068551
2.220000,0.155857,0.477420,0.326385,0.484158,0.481796,0.498053,0.277570,0.032438,0.043956,0.054014,0.049650,0.039056,0.006656,0.649475,-0.001648,-0.005046,-0.013291,-0.025555,-0.044425,-0.060345,-0.675943,3.534397,-21.061619,1.544132,-3.451577,0.055559,0.058450,-0.066556
2.230000,0.156505,0.478298,0.327463,0.485145,0.482567,0.498173,0.290409,0.032405,0.043855,0.053747,0.049139,0.038167,0.005448,0.635671,-0.001688,-0.005015,-0.013381,-0.025563,-0.044532,-0.060383,-0.707506,3.550997,-21.040816,1.549917,-3.436538,0.055161,0.058810,-0.064594
2.240000,0.157153,0.479174,0.328535,0.486123,0.483320,0.498268,0.302965,0.032371,0.043755,0.053479,0.048628,0.037275,0.004240,0.621242,-0.001729,-0.004982,-0.013469,-0.025572,-0.044635,-0.060420,-0.738375,3.567589,-21.020075,1.555686,-3.421573,0.054779,0.059157,-0.062670
2.250000,0.157800,0.480048,0.329601,0.487090,0.484056,0.498340,0.315225,0.032336,0.043656,0.053209,0.048116,0.036382,0.003032,0.606202,-0.001770,-0.004947,-0.013557,-0.025580,-0.044735,-0.060458,-0.768518,3.584175,-20.999401,1.561443,-3.406685,0.054415,0.059492,-0.060785
2.260000,0.158446,0.480920,0.330663,0.488046,0.484774,0.498387,0.327178,0.032300,0.043557,0.052937,0.047604,0.035486,0.001822,0.590566,-0.001811,-0.004911,-0.013645,-0.025588,-0.044832,-0.060494,-0.797906,3.600756,-20.978796,1.567188,-3.391874,0.054067,0.059814,-0.058943
2.270000,0.159092,0.481790,0.331718,0.488993,0.485474,0.498410,0.338812,0.032264,0.043459,0.052663,0.047093,0.034588,0.000612,0.574349,-0.001852,-0.004874,-0.013731,-0.025596,-0.044926,-0.060529,-0.826511,3.617334,-20.958262,1.572923,-3.377144,0.053737,0.060125,-0.057146
2.280000,0.159737,0.482658,0.332769,0.489929,0.486156,0.498409,0.350115,0.032226,0.043362,0.052388,0.046581,0.033689,-0.000599,0.557567,-0.001893,-0.004835,-0.013816,-0.025605,-0.045016,-0.060564,-0.854305,3.633910,-20.937804,1.578649,-3.362495,0.053426,0.060426,-0.055397
2.290000,0.160381,0.483524,0.333813,0.490855,0.486819,0.498384,0.361077,0.032188,0.043266,0.052111,0.046068,0.032788,-0.001810,0.540237,-0.001933,-0.004796,-0.013900,-0.025614,-0.045102,-0.060597,-0.881259,3.650484,-20.917424,1.584367,-3.347929,0.053133,0.060715,-0.053698
2.300000,0.161024,0.484388,0.334852,0.491771,0.487465,0.498334,0.371686,0.032149,0.043170,0.051832,0.045556,0.031885,-0.003023,0.522375,-0.001973,-0.004755,-0.013983,-0.025624,-0.045185,-0.060628,-0.907348,3.667059,-20.897125,1.590079,-3.333450,0.052859,0.060996,-0.052052
2.310000,0.161667,0.485251,0.335886,0.492676,0.488093,0.498261,0.381932,0.032109,0.043075,0.051552,0.045043,0.030981,-0.004236,0.504000,-0.002012,-0.004714,-0.014064,-0.025634,-0.045264,-0.060659,-0.932547,3.683635,-20.876910,1.595785,-3.319057,0.052605,0.061266,-0.050460
2.320000,0.162308,0.486111,0.336914,0.493571,0.488703,0.498162,0.391806,0.032069,0.042982,0.051270,0.044531,0.030075,-0.005449,0.485129,-0.002051,-0.004673,-0.014144,-0.025646,-0.045339,-0.060687,-0.956829,3.700214,-20.856782,1.601488,-3.304753,0.052370,0.061529,-0.048926
2.330000,0.162949,0.486970,0.337936,0.494456,0.489294,0.498040,0.401296,0.032027,0.042888,0.050986,0.044018,0.029167,-0.006663,0.465781,-0.002088,-0.004631,-0.014221,-0.025658,-0.045411,-0.060713,-0.980172,3.716798,-20.836742,1.607187,-3.290539,0.052156,0.061783,-0.047452
2.340000,0.163589,0.487826,0.338953,0.495331,0.489868,0.497894,0.410395,0.031985,0.042796,0.050701,0.043504,0.028259,-0.007877,0.445974,-0.002125,-0.004589,-0.014298,-0.025671,-0.045478,-0.060737,-1.002552,3.733386,-20.816796,1.612884,-3.276417,0.051962,0.062031,-0.046038
2.350000,0.164229,0.488681,0.339964,0.496195,0.490423,0.497723,0.419092,0.031942,0.042705,0.050414,0.042991,0.027348,-0.009092,0.425729,-0.002161,-0.004547,-0.014372,-0.025684,-0.045542,-0.060759,-1.023947,3.749980,-20.796943,1.618580,-3.262388,0.051788,0.062271,-0.044689
2.360000,0.164867,0.489534,0.340969,0.497050,0.490960,0.497527,0.427380,0.031899,0.042614,0.050126,0.042477,0.026437,-0.010308,0.405065,-0.002195,-0.004505,-0.014444,-0.025699,-0.045602,-0.060777,-1.044337,3.766582,-20.777189,1.624276,-3.248453,0.051635,0.062506,-0.043404
2.370000,0.165505,0.490386,0.341968,0.497893,0.491478,0.497308,0.435250,0.031855,0.042524,0.049837,0.041963,0.025525,-0.011523,0.384002,-0.002229,-0.004464,-0.014514,-0.025716,-0.045658,-0.060794,-1.063700,3.783191,-20.757534,1.629973,-3.234615,0.051504,0.062736,-0.042186
2.380000,0.166141,0.491235,0.342962,0.498727,0.491979,0.497064,0.442695,0.031810,0.042436,0.049546,0.041448,0.024611,-0.012739,0.362562,-0.002260,-0.004424,-0.014582,-0.025733,-0.045710,-0.060806,-1.082017,3.799810,-20.737981,1.635671,-3.220874,0.051393,0.062961,-0.041036
2.390000,0.166777,0.492083,0.343949,0.499550,0.492461,0.496796,0.449707,0.031764,0.042347,0.049254,0.040934,0.023696,-0.013956,0.340764,-0.002291,-0.004384,-0.014648,-0.025751,-0.045758,-0.060816,-1.099271,3.816439,-20.718532,1.641372,-3.207232,0.051303,0.063182,-0.039957
2.400000,0.167412,0.492929,0.344931,0.500363,0.492925,0.496503,0.456280,0.031718,0.042260,0.048960,0.040418,0.022781,-0.015172,0.318632,-0.002319,-0.004345,-0.014711,-0.025771,-0.045802,-0.060822,-1.115445,3.833079,-20.699191,1.647076,-3.193689,0.051235,0.063400,-0.038949
2.410000,0.168045,0.493773,0.345907,0.501166,0.493370,0.496187,0.462406,0.031672,0.042174,0.048665,0.039903,0.021864,-0.016388,0.296185,-0.002346,-0.004307,-0.014772,-0.025791,-0.045842,-0.060825,-1.130521,3.849730,-20.679957,1.652783,-3.180246,0.051188,0.063616,-0.038014
2.420000,0.168678,0.494616,0.346877,0.501958,0.493798,0.495845,0.468080,0.031624,0.042088,0.048369,0.039387,0.020947,-0.017605,0.273447,-0.002372,-0.004270,-0.014831,-0.025814,-0.045878,-0.060823,-1.144486,3.866394,-20.660835,1.658494,-3.166905,0.051161,0.063829,-0.037152
2.430000,0.169310,0.495457,0.347841,0.502741,0.494206,0.495480,0.473296,0.031577,0.042003,0.048072,0.038870,0.020029,-0.018821,0.250440,-0.002395,-0.004234,-0.014887,-0.025837,-0.045910,-0.060817,-1.157325,3.883071,-20.641825,1.664210,-3.153667,0.051156,0.064041,-0.036365
2.440000,0.169941,0.496296,0.348799,0.503512,0.494597,0.495090,0.478050,0.031529,0.041918,0.047774,0.038353,0.019111,-0.020038,0.227186,-0.002416,-0.004201,-0.014940,-0.025861,-0.045938,-0.060807,-1.169026,3.899761,-20.622929,1.669932,-3.140533,0.051172,0.064253,-0.035655
2.450000,0.170571,0.497133,0.349752,0.504274,0.494969,0.494676,0.482335,0.031480,0.041835,0.047475,0.037836,0.018192,-0.021254,0.203709,-0.002436,-0.004168,-0.014991,-0.025887,-0.045962,-0.060793,-1.179576,3.916464,-20.604148,1.675658,-3.127502,0.051209,0.064464,-0.035021
2.460000,0.171200,0.497969,0.350698,0.505025,0.495323,0.494238,0.486149,0.031431,0.041752,0.047174,0.037318,0.017272,-0.022469,0.180031,-0.002453,-0.004138,-0.015039,-0.025914,-0.045982,-0.060774,-1.188966,3.933182,-20.585485,1.681390,-3.114577,0.051267,0.064676,-0.034464
2.470000,0.171829,0.498803,0.351638,0.505765,0.495658,0.493775,0.489488,0.031382,0.041669,0.046873,0.036799,0.016353,-0.023685,0.156176,-0.002468,-0.004109,-0.015084,-0.025942,-0.045998,-0.060750,-1.197186,3.949914,-20.566941,1.687128,-3.101757,0.051345,0.064889,-0.033986
2.480000,0.172456,0.499636,0.352572,0.506496,0.495975,0.493288,0.492348,0.031333,0.041587,0.046571,0.036280,0.015433,-0.024899,0.132167,-0.002480,-0.004082,-0.015126,-0.025971,-0.046009,-0.060721,-1.204227,3.966661,-20.548516,1.692872,-3.089044,0.051443,0.065103,-0.033587
2.490000,0.173082,0.500466,0.353500,0.507215,0.496274,0.492776,0.494726,0.031283,0.041506,0.046268,0.035761,0.014512,-0.026113,0.108028,-0.002490,-0.004057,-0.015166,-0.026002,-0.046017,-0.060687,-1.210083,3.983422,-20.530212,1.698621,-3.076437,0.051560,0.065319,-0.033267
2.500000,0.173707,0.501296,0.354422,0.507925,0.496554,0.492241,0.496620,0.031233,0.041425,0.045965,0.035240,0.013592,-0.027327,0.083782,-0.002498,-0.004035,-0.015202,-0.026034,-0.046021,-0.060648,-1.214748,4.000198,-20.512030,1.704376,-3.063938,0.051698,0.065538,-0.033026
2.510000,0.174331,0.502123,0.355338,0.508624,0.496815,0.491681,0.498028,0.031183,0.041344,0.045660,0.034719,0.012671,-0.028539,0.059454,-0.002504,-0.004014,-0.015236,-0.026066,-0.046021,-0.060603,-1.218217,4.016989,-20.493971,1.710136,-3.051547,0.051854,0.065759,-0.032865
2.520000,0.174954,0.502949,0.356248,0.509313,0.497059,0.491097,0.498949,0.031133,0.041264,0.045355,0.034198,0.011751,-0.029751,0.035067,-0.002507,-0.003996,-0.015267,-0.026100,-0.046016,-0.060553,-1.220486,4.033794,-20.476035,1.715902,-3.039265,0.052029,0.065983,-0.032785
2.530000,0.175576,0.503774,0.357152,0.509991,0.497284,0.490488,0.499381,0.031083,0.041184,0.045050,0.033675,0.010831,-0.030962,0.010646,-0.002508,-0.003980,-0.015294,-0.026135,-0.046008,-0.060497,-1.221554,4.050612,-20.458223,1.721673,-3.027091,0.052223,0.066211,-0.032784
2.540000,0.176197,0.504596,0.358049,0.510659,0.497490,0.489856,0.499325,0.031033,0.041105,0.044744,0.033152,0.009911,-0.032171,-0.013786,-0.002506,-0.003967,-0.015319,-0.026171,-0.045996,-0.060435,-1.221419,4.067444,-20.440536,1.727448,-3.015025,0.052434,0.066442,-0.032864
2.550000,0.176817,0.505418,0.358941,0.511316,0.497678,0.489199,0.498781,0.030983,0.041026,0.044437,0.032629,0.008991,-0.033379,-0.038204,-0.002501,-0.003956,-0.015341,-0.026207,-0.045980,-0.060368,-1.220082,4.084290,-20.422974,1.733226,-3.003070,0.052662,0.066676,-0.033023
2.560000,0.177436,0.506237,0.359826,0.511963,0.497848,0.488518,0.497749,0.030933,0.040947,0.044130,0.032104,0.008072,-0.034586,-0.062585,-0.002494,-0.003947,-0.015360,-0.026245,-0.045960,-0.060295,-1.217543,4.101147,-20.405537,1.739008,-2.991223,0.052907,0.066915,-0.033263
2.570000,0.178055,0.507055,0.360706,0.512599,0.497999,0.487813,0.496229,0.030883,0.040868,0.043823,0.031579,0.007153,-0.035791,-0.086904,-0.002485,-0.003941,-0.015376,-0.026283,-0.045936,-0.060216,-1.213805,4.118016,-20.388225,1.744793,-2.979487,0.053168,0.067158,-0.033581
2.580000,0.178672,0.507872,0.361579,0.513225,0.498132,0.487084,0.494225,0.030833,0.040789,0.043515,0.031053,0.006234,-0.036995,-0.111138,-0.002473,-0.003938,-0.015389,-0.026323,-0.045908,-0.060131,-1.208872,4.134896,-20.371038,1.750580,-2.967859,0.053444,0.067405,-0.033979
2.590000,0.179288,0.508687,0.362446,0.513840,0.498247,0.486331,0.491736,0.030784,0.040710,0.043207,0.030526,0.005316,-0.038196,-0.135262,-0.002458,-0.003937,-0.015399,-0.026363,-0.045876,-0.060040,-1.202750,4.151786,-20.353977,1.756367,-2.956342,0.053735,0.067656,-0.034455
2.600000,0.179903,0.509500,0.363306,0.514445,0.498343,0.485554,0.488767,0.030735,0.040631,0.042899,0.029998,0.004399,-0.039396,-0.159253,-0.002441,-0.003939,-0.015406,-0.026404,-0.045841,-0.059943,-1.195443,4.168685,-20.337041,1.762154,-2.944935,0.054040,0.067911,-0.035009
2.610000,0.180517,0.510312,0.364161,0.515039,0.498421,0.484753,0.485319,0.030686,0.040553,0.042591,0.029470,0.003483,-0.040594,-0.183088,-0.002422,-0.003944,-0.015410,-0.026446,-0.045802,-0.059840,-1.186959,4.185591,-20.320229,1.767940,-2.933637,0.054358,0.068170,-0.035641
2.620000,0.181130,0.511122,0.365009,0.515623,0.498480,0.483928,0.481397,0.030638,0.040474,0.042283,0.028941,0.002567,-0.041790,-0.206742,-0.002400,-0.003951,-0.015411,-0.026489,-0.045760,-0.059731,-1.177307,4.202504,-20.303541,1.773724,-2.922449,0.054689,0.068434,-0.036348
2.630000,0.181743,0.511931,0.365852,0.516196,0.498522,0.483079,0.477004,0.030590,0.040395,0.041974,0.028410,0.001652,-0.042984,-0.230193,-0.002375,-0.003961,-0.015410,-0.026532,-0.045714,-0.059616,-1.166497,4.219423,-20.286977,1.779504,-2.911370,0.055031,0.068700,-0.037131
2.640000,0.182354,0.512738,0.366688,0.516758,0.498545,0.482206,0.472144,0.030543,0.040315,0.041666,0.027879,0.000738,-0.044175,-0.253417,-0.002349,-0.003973,-0.015405,-0.026576,-0.045664,-0.059495,-1.154538,4.236345,-20.270535,1.785279,-2.900401,0.055385,0.068971,-0.037989
2.650000,0.182964,0.513543,0.367518,0.517310,0.498549,0.481310,0.466823,0.030496,0.040236,0.041358,0.027347,-0.000175,-0.045364,-0.276392,-0.002320,-0.003988,-0.015398,-0.026621,-0.045611,-0.059368,-1.141444,4.253269,-20.254216,1.791048,-2.889541,0.055748,0.069244,-0.038920
2.660000,0.183574,0.514347,0.368341,0.517851,0.498536,0.480389,0.461045,0.030450,0.040156,0.041050,0.026815,-0.001086,-0.046550,-0.299095,-0.002288,-0.004006,-0.015388,-0.026667,-0.045555,-0.059236,-1.127226,4.270194,-20.238017,1.796810,-2.878790,0.056120,0.069521,-0.039923
2.670000,0.184182,0.515149,0.369159,0.518381,0.498504,0.479445,0.454816,0.030405,0.040075,0.040743,0.026281,-0.001997,-0.047733,-0.321503,-0.002255,-0.004027,-0.015375,-0.026713,-0.045495,-0.059098,-1.111900,4.287118,-20.221939,1.802562,-2.868148,0.056500,0.069800,-0.040997
2.680000,0.184790,0.515950,0.369970,0.518901,0.498454,0.478478,0.448142,0.030360,0.039995,0.040435,0.025746,-0.002906,-0.048914,-0.343595,-0.002220,-0.004050,-0.015360,-0.026760,-0.045433,-0.058954,-1.095480,4.304040,-20.205980,1.808304,-2.857613,0.056888,0.070081,-0.042140
2.690000,0.185396,0.516749,0.370776,0.519410,0.498386,0.477486,0.441030,0.030316,0.039913,0.040128,0.025211,-0.003814,-0.050092,-0.365349,-0.002182,-0.004075,-0.015342,-0.026807,-0.045367,-0.058805,-1.077983,4.320956,-20.190139,1.814032,-2.847187,0.057282,0.070364,-0.043351
2.700000,0.186002,0.517546,0.371575,0.519908,0.498300,0.476472,0.433487,0.030273,0.039832,0.039822,0.024674,-0.004721,-0.051267,-0.386743,-0.002143,-0.004103,-0.015322,-0.026855,-0.045299,-0.058650,-1.059426,4.337867,-20.174414,1.819747,-2.836868,0.057681,0.070647,-0.044629
2.710000,0.186607,0.518342,0.372368,0.520396,0.498195,0.475433,0.425521,0.030230,0.039749,0.039515,0.024136,-0.005626,-0.052438,-0.407757,-0.002102,-0.004134,-0.015299,-0.026904,-0.045228,-0.058490,-1.039827,4.354769,-20.158804,1.825445,-2.826656,0.058084,0.070932,-0.045971
2.720000,0.187211,0.519136,0.373155,0.520873,0.498073,0.474372,0.417138,0.030188,0.039666,0.039210,0.023598,-0.006530,-0.053606,-0.428370,-0.002059,-0.004167,-0.015274,-0.026953,-0.045155,-0.058325,-1.019206,4.371660,-20.143308,1.831126,-2.816551,0.058491,0.071217,-0.047376
2.730000,0.187815,0.519928,0.373936,0.521339,0.497932,0.473287,0.408348,0.030148,0.039583,0.038904,0.023058,-0.007433,-0.054771,-0.448561,-0.002015,-0.004202,-0.015247,-0.027003,-0.045079,-0.058155,-0.997583,4.388539,-20.127925,1.836786,-2.806551,0.058900,0.071501,-0.048842
2.740000,0.188417,0.520719,0.374711,0.521794,0.497774,0.472179,0.399159,0.030108,0.039498,0.038600,0.022518,-0.008334,-0.055933,-0.468311,-0.001969,-0.004240,-0.015219,-0.027054,-0.045001,-0.057981,-0.974980,4.405404,-20.112652,1.842424,-2.796657,0.059310,0.071784,-0.050366
2.750000,0.189019,0.521508,0.375479,0.522238,0.497597,0.471047,0.389580,0.030069,0.039413,0.038296,0.021976,-0.009233,-0.057091,-0.487600,-0.001922,-0.004280,-0.015188,-0.027105,-0.044920,-0.057801,-0.951419,4.422251,-20.097487,1.848039,-2.786867,0.059720,0.072065,-0.051948
2.760000,0.189620,0.522295,0.376242,0.522672,0.497403,0.469893,0.379620,0.030031,0.039327,0.037992,0.021434,-0.010131,-0.058245,-0.506409,-0.001874,-0.004322,-0.015155,-0.027156,-0.044838,-0.057618,-0.926924,4.439079,-20.082430,1.853627,-2.777182,0.060130,0.072343,-0.053584
2.770000,0.190220,0.523081,0.376998,0.523095,0.497190,0.468715,0.369289,0.029994,0.039240,0.037689,0.020890,-0.011027,-0.059396,-0.524721,-0.001825,-0.004366,-0.015121,-0.027208,-0.044755,-0.057430,-0.901517,4.455886,-20.067479,1.859187,-2.767599,0.060537,0.072619,-0.055272
2.780000,0.190820,0.523865,0.377749,0.523506,0.496960,0.467515,0.358598,0.029958,0.039153,0.037387,0.020346,-0.011921,-0.060543,-0.542516,-0.001775,-0.004412,-0.015086,-0.027260,-0.044669,-0.057238,-0.875225,4.472669,-20.052631,1.864716,-2.758120,0.060942,0.072890,-0.057010
2.790000,0.191418,0.524647,0.378493,0.523907,0.496712,0.466291,0.347557,0.029923,0.039064,0.037086,0.019800,-0.012813,-0.061686,-0.559777,-0.001724,-0.004460,-0.015049,-0.027313,-0.044583,-0.057043,-0.848073,4.489426,-20.037885,1.870213,-2.748742,0.061342,0.073157,-0.058796
2.800000,0.192016,0.525427,0.379232,0.524297,0.496446,0.465045,0.336177,0.029889,0.038974,0.036785,0.019253,-0.013704,-0.062825,-0.576488,-0.001672,-0.004510,-0.015012,-0.027366,-0.044495,-0.056844,-0.820088,4.506154,-20.023238,1.875675,-2.739465,0.061737,0.073418,-0.060627
2.810000,0.192614,0.526206,0.379964,0.524676,0.496162,0.463776,0.324469,0.029856,0.038884,0.036485,0.018705,-0.014593,-0.063960,-0.592632,-0.001621,-0.004562,-0.014973,-0.027419,-0.044407,-0.056642,-0.791297,4.522851,-20.008689,1.881099,-2.730288,0.062126,0.073673,-0.062500
2.820000,0.193211,0.526982,0.380690,0.525044,0.495860,0.462484,0.312444,0.029824,0.038792,0.036186,0.018157,-0.015481,-0.065091,-0.608193,-0.001568,-0.004615,-0.014934,-0.027473,-0.044318,-0.056437,-0.761729,4.539515,-19.994237,1.886484,-2.721211,0.062509,0.073922,-0.064412
2.830000,0.193807,0.527757,0.381411,0.525401,0.495541,0.461170,0.300115,0.029793,0.038699,0.035888,0.017607,-0.016366,-0.066218,-0.623156,-0.001516,-0.004669,-0.014894,-0.027527,-0.044228,-0.056229,-0.731412,4.556144,-19.979878,1.891828,-2.712231,0.062883,0.074162,-0.066362
2.840000,0.194402,0.528530,0.382125,0.525748,0.495204,0.459833,0.287493,0.029763,0.038605,0.035590,0.017056,-0.017250,-0.067341,-0.637506,-0.001464,-0.004725,-0.014854,-0.027581,-0.044138,-0.056018,-0.700377,4.572734,-19.965611,1.897127,-2.703350,0.063248,0.074394,-0.068345
2.850000,0.194997,0.529301,0.382834,0.526083,0.494849,0.458474,0.274590,0.029734,0.038510,0.035294,0.016503,-0.018132,-0.068459,-0.651229,-0.001411,-0.004782,-0.014814,-0.027635,-0.044048,-0.055805,-0.668652,4.589283,-19.951434,1.902380,-2.694565,0.063603,0.074617,-0.070359
2.860000,0.195592,0.530070,0.383537,0.526407,0.494477,0.457093,0.261421,0.029706,0.038414,0.034998,0.015950,-0.019012,-0.069573,-0.664312,-0.001359,-0.004840,-0.014774,-0.027688,-0.043959,-0.055590,-0.636271,4.605790,-19.937345,1.907584,-2.685876,0.063947,0.074829,-0.072402
2.870000,0.196185,0.530838,0.384233,0.526719,0.494087,0.455689,0.247997,0.029680,0.038317,0.034703,0.015396,-0.019891,-0.070683,-0.676741,-0.001308,-0.004899,-0.014734,-0.027742,-0.043869,-0.055374,-0.603263,4.622252,-19.923342,1.912737,-2.677281,0.064279,0.075032,-0.074470
2.880000,0.196779,0.531603,0.384924,0.527021,0.493679,0.454263,0.234331,0.029654,0.038218,0.034408,0.014841,-0.020767,-0.071789,-0.688505,-0.001257,-0.004959,-0.014694,-0.027796,-0.043781,-0.055156,-0.569662,4.638666,-19.909424,1.917838,-2.668780,0.064598,0.075222,-0.076560
2.890000,0.197371,0.532366,0.385609,0.527312,0.493254,0.452815,0.220438,0.029629,0.038119,0.034115,0.014284,-0.021642,-0.072890,-0.699592,-0.001207,-0.005019,-0.014656,-0.027849,-0.043693,-0.054936,-0.535499,4.655030,-19.895587,1.922883,-2.660372,0.064904,0.075401,-0.078669
2.900000,0.197964,0.533127,0.386288,0.527592,0.492812,0.451345,0.206331,0.029606,0.038018,0.033822,0.013727,-0.022515,-0.073986,-0.709991,-0.001158,-0.005079,-0.014618,-0.027903,-0.043606,-0.054715,-0.500809,4.671342,-19.881832,1.927870,-2.652056,0.065196,0.075566,-0.080794
2.910000,0.198556,0.533887,0.386961,0.527860,0.492352,0.449854,0.192023,0.029583,0.037916,0.033530,0.013168,-0.023386,-0.075079,-0.719691,-0.001110,-0.005140,-0.014581,-0.027955,-0.043521,-0.054494,-0.465625,4.687599,-19.868155,1.932798,-2.643830,0.065473,0.075719,-0.082932
2.920000,0.199147,0.534644,0.387629,0.528117,0.491875,0.448340,0.177529,0.029561,0.037812,0.033239,0.012609,-0.024256,-0.076167,-0.728683,-0.001063,-0.005201,-0.014546,-0.028007,-0.043437,-0.054272,-0.429982,4.703800,-19.854555,1.937665,-2.635695,0.065734,0.075857,-0.085080
2.930000,0.199738,0.535399,0.388290,0.528363,0.491380,0.446805,0.162863,0.029540,0.037708,0.032948,0.012048,-0.025124,-0.077250,-0.736959,-0.001017,-0.005262,-0.014512,-0.028059,-0.043354,-0.054049,-0.393913,4.719942,-19.841030,1.942467,-2.627648,0.065980,0.075981,-0.087234
2.940000,0.200329,0.536152,0.388946,0.528598,0.490868,0.445248,0.148040,0.029520,0.037602,0.032658,0.011486,-0.025990,-0.078329,-0.744510,-0.000972,-0.005322,-0.014479,-0.028110,-0.043274,-0.053826,-0.357454,4.736024,-19.827579,1.947204,-2.619689,0.066208,0.076089,-0.089392
2.950000,0.200919,0.536903,0.389596,0.528821,0.490339,0.443670,0.133074,0.029501,0.037495,0.032369,0.010924,-0.026855,-0.079404,-0.751328,-0.000929,-0.005382,-0.014449,-0.028160,-0.043195,-0.053604,-0.320641,4.752043,-19.814201,1.951874,-2.611817,0.066419,0.076182,-0.091551
2.960000,0.201509,0.537652,0.390240,0.529034,0.489792,0.442070,0.117979,0.029483,0.037387,0.032080,0.010360,-0.027718,-0.080474,-0.757407,-0.000888,-0.005442,-0.014421,-0.028209,-0.043118,-0.053381,-0.283509,4.767997,-19.800893,1.956474,-2.604031,0.066612,0.076259,-0.093708
2.970000,0.202098,0.538398,0.390879,0.529235,0.489228,0.440449,0.102771,0.029466,0.037277,0.031792,0.009796,-0.028580,-0.081539,-0.762741,-0.000848,-0.005500,-0.014394,-0.028257,-0.043043,-0.053158,-0.246095,4.783885,-19.787655,1.961004,-2.596330,0.066787,0.076320,-0.095859
2.980000,0.202687,0.539142,0.391511,0.529424,0.488647,0.438806,0.087464,0.029449,0.037167,0.031504,0.009230,-0.029440,-0.082600,-0.767324,-0.000811,-0.005558,-0.014370,-0.028304,-0.042971,-0.052936,-0.208434,4.799704,-19.774486,1.965460,-2.588713,0.066943,0.076363,-0.098001
2.990000,0.203276,0.539884,0.392138,0.529603,0.488049,0.437142,0.072075,0.029433,0.037055,0.031217,0.008664,-0.030299,-0.083657,-0.771153,-0.000774,-0.005615,-0.014348,-0.028350,-0.042901,-0.052715,-0.170564,4.815453,-19.761383,1.969842,-2.581179,0.067081,0.076390,-0.100132
3.000000,0.203865,0.540624,0.392759,0.529770,0.487434,0.435458,0.056616,0.029418,0.036942,0.030930,0.008096,-0.031156,-0.084709,-0.774222,-0.000740,-0.005671,-0.014329,-0.028395,-0.042833,-0.052494,-0.132520,4.831131,-19.748347,1.974149,-2.573728,0.067199,0.076399,-0.102249
3.010000,0.204453,0.541362,0.393375,0.529926,0.486801,0.433752,0.041105,0.029403,0.036828,0.030644,0.007528,-0.032013,-0.085757,-0.776529,-0.000708,-0.005725,-0.014313,-0.028439,-0.042768,-0.052274,-0.094342,4.846735,-19.735376,1.978378,-2.566359,0.067299,0.076391,-0.104349
3.020000,0.205041,0.542097,0.393985,0.530070,0.486151,0.432025,0.025557,0.029389,0.036713,0.030358,0.006959,-0.032867,-0.086801,-0.778071,-0.000678,-0.005779,-0.014299,-0.028481,-0.042705,-0.052054,-0.056064,4.862264,-19.722469,1.982529,-2.559070,0.067379,0.076366,-0.106430
3.030000,0.205628,0.542830,0.394589,0.530203,0.485485,0.430278,0.009985,0.029376,0.036597,0.030072,0.006389,-0.033721,-0.087840,-0.778847,-0.000649,-0.005830,-0.014288,-0.028521,-0.042644,-0.051836,-0.017726,4.877718,-19.709625,1.986601,-2.551862,0.067440,0.076322,-0.108488
3.040000,0.206216,0.543561,0.395187,0.530324,0.484801,0.428510,-0.005593,0.029363,0.036480,0.029786,0.005818,-0.034573,-0.088875,-0.778857,-0.000623,-0.005880,-0.014280,-0.028560,-0.042586,-0.051618,0.020636,4.893093,-19.696845,1.990591,-2.544732,0.067482,0.076261,-0.110522
3.050000,0.206803,0.544289,0.395780,0.530434,0.484100,0.426721,-0.021163,0.029351,0.036362,0.029501,0.005246,-0.035424,-0.089905,-0.778099,-0.000599,-0.005929,-0.014275,-0.028598,-0.042531,-0.051402,0.058985,4.908390,-19.684127,1.994500,-2.537682,0.067505,0.076182,-0.112529
3.060000,0.207390,0.545015,0.396366,0.530533,0.483382,0.424911,-0.036709,0.029339,0.036243,0.029215,0.004674,-0.036275,-0.090931,-0.776574,-0.000577,-0.005975,-0.014273,-0.028634,-0.042478,-0.051186,0.097283,4.923608,-19.671471,1.998327,-2.530709,0.067508,0.076085,-0.114506
3.070000,0.207976,0.545739,0.396948,0.530620,0.482647,0.423082,-0.052217,0.029328,0.036123,0.028930,0.004101,-0.037124,-0.091953,-0.774285,-0.000557,-0.006020,-0.014274,-0.028668,-0.042427,-0.050971,0.135492,4.938744,-19.658877,2.002070,-2.523813,0.067494,0.075971,-0.116452
3.080000,0.208563,0.546460,0.397523,0.530696,0.481895,0.421231,-0.067670,0.029317,0.036003,0.028644,0.003527,-0.037972,-0.092971,-0.771232,-0.000539,-0.006064,-0.014278,-0.028700,-0.042378,-0.050757,0.173575,4.953798,-19.646343,2.005729,-2.516994,0.067460,0.075840,-0.118365
3.090000,0.209149,0.547179,0.398093,0.530760,0.481127,0.419361,-0.083054,0.029306,0.035881,0.028359,0.002953,-0.038819,-0.093984,-0.767419,-0.000523,-0.006105,-0.014285,-0.028731,-0.042331,-0.050543,0.211495,4.968769,-19.633871,2.009303,-2.510252,0.067409,0.075691,-0.120242
3.100000,0.209735,0.547895,0.398657,0.530813,0.480341,0.417470,-0.098354,0.029296,0.035759,0.028073,0.002378,-0.039665,-0.094993,-0.762849,-0.000509,-0.006144,-0.014295,-0.028759,-0.042286,-0.050331,0.249215,4.983657,-19.621460,2.012793,-2.503584,0.067340,0.075526,-0.122081
3.110000,0.210321,0.548609,0.399215,0.530854,0.479538,0.415559,-0.113553,0.029286,0.035635,0.027787,0.001803,-0.040510,-0.095997,-0.757527,-0.000497,-0.006182,-0.014307,-0.028786,-0.042243,-0.050118,0.286697,4.998460,-19.609110,2.016197,-2.496992,0.067254,0.075345,-0.123882
3.120000,0.210906,0.549320,0.399768,0.530884,0.478719,0.413628,-0.128638,0.029276,0.035511,0.027500,0.001227,-0.041355,-0.096998,-0.751458,-0.000487,-0.006217,-0.014323,-0.028811,-0.042202,-0.049907,0.323905,5.013178,-19.596821,2.019515,-2.490475,0.067152,0.075147,-0.125643
3.130000,0.211492,0.550029,0.400315,0.530902,0.477883,0.411677,-0.143594,0.029267,0.035387,0.027214,0.000650,-0.042199,-0.097994,-0.744647,-0.000479,-0.006251,-0.014341,-0.028835,-0.042162,-0.049695,0.360801,5.027811,-19.584593,2.022748,-2.484032,0.067033,0.074934,-0.127362
3.140000,0.212077,0.550735,0.400856,0.530909,0.477029,0.409706,-0.158405,0.029257,0.035261,0.026927,0.000074,-0.043042,-0.098986,-0.737101,-0.000473,-0.006283,-0.014362,-0.028856,-0.042124,-0.049484,0.397351,5.042357,-19.572426,2.025895,-2.477663,0.066899,0.074706,-0.129037
3.150000,0.212662,0.551439,0.401391,0.530904,0.476159,0.407716,-0.173057,0.029248,0.035135,0.026639,-0.000504,-0.043884,-0.099974,-0.728828,-0.000468,-0.006313,-0.014385,-0.028875,-0.042086,-0.049273,0.433516,5.056817,-19.560321,2.028955,-2.471367,0.066750,0.074464,-0.130669
3.160000,0.213247,0.552140,0.401921,0.530887,0.475272,0.405705,-0.187536,0.029238,0.035009,0.026351,-0.001081,-0.044725,-0.100957,-0.719835,-0.000465,-0.006341,-0.014411,-0.028893,-0.042049,-0.049062,0.469263,5.071189,-19.548278,2.031930,-2.465144,0.066588,0.074207,-0.132256
3.170000,0.213832,0.552839,0.402445,0.530859,0.474369,0.403676,-0.201827,0.029229,0.034882,0.026063,-0.001659,-0.045566,-0.101937,-0.710132,-0.000464,-0.006368,-0.014440,-0.028908,-0.042013,-0.048850,0.504555,5.085474,-19.536297,2.034820,-2.458995,0.066411,0.073937,-0.133797
3.180000,0.214416,0.553535,0.402963,0.530820,0.473448,0.401626,-0.215916,0.029220,0.034754,0.025774,-0.002238,-0.046406,-0.102912,-0.699727,-0.000465,-0.006393,-0.014470,-0.028922,-0.041977,-0.048638,0.539357,5.099672,-19.524378,2.037623,-2.452918,0.066222,0.073655,-0.135292
3.190000,0.215000,0.554229,0.403475,0.530769,0.472511,0.399557,-0.229790,0.029210,0.034626,0.025484,-0.002816,-0.047245,-0.103883,-0.688630,-0.000466,-0.006417,-0.014502,-0.028934,-0.041941,-0.048424,0.573635,5.113781,-19.512522,2.040342,-2.446914,0.066022,0.073360,-0.136739
3.200000,0.215585,0.554920,0.403981,0.530706,0.471557,0.397469,-0.243434,0.029201,0.034498,0.025194,-0.003395,-0.048083,-0.104849,-0.676853,-0.000470,-0.006439,-0.014537,-0.028944,-0.041905,-0.048210,0.607354,5.127803,-19.500730,2.042977,-2.440982,0.065810,0.073054,-0.138139
3.210000,0.216168,0.555609,0.404482,0.530632,0.470586,0.395361,-0.256835,0.029192,0.034369,0.024903,-0.003974,-0.048921,-0.105812,-0.664407,-0.000474,-0.006459,-0.014573,-0.028953,-0.041869,-0.047995,0.640481,5.141737,-19.489002,2.045527,-2.435122,0.065588,0.072737,-0.139492
3.220000,0.216752,0.556295,0.404977,0.530546,0.469598,0.393235,-0.269981,0.029182,0.034239,0.024611,-0.004553,-0.049758,-0.106769,-0.651304,-0.000480,-0.006478,-0.014610,-0.028959,-0.041832,-0.047778,0.672984,5.155582,-19.477338,2.047994,-2.429334,0.065357,0.072410,-0.140797
3.230000,0.217336,0.556978,0.405466,0.530448,0.468594,0.391089,-0.282856,0.029172,0.034110,0.024318,-0.005132,-0.050594,-0.107723,-0.637556,-0.000487,-0.006496,-0.014649,-0.028964,-0.041794,-0.047560,0.704828,5.169340,-19.465739,2.050377,-2.423618,0.065117,0.072074,-0.142054
3.240000,0.217919,0.557659,0.405949,0.530339,0.467573,0.388924,-0.295450,0.029163,0.033980,0.024025,-0.005712,-0.051430,-0.108672,-0.623178,-0.000495,-0.006513,-0.014690,-0.028967,-0.041755,-0.047340,0.735983,5.183009,-19.454205,2.052679,-2.417975,0.064870,0.071730,-0.143263
3.250000,0.218502,0.558337,0.406426,0.530219,0.466535,0.386740,-0.307750,0.029153,0.033849,0.023731,-0.006291,-0.052265,-0.109617,-0.608183,-0.000504,-0.006529,-0.014731,-0.028968,-0.041714,-0.047117,0.766418,5.196591,-19.442737,2.054898,-2.412403,0.064615,0.071377,-0.144424
3.260000,0.219085,0.559012,0.406898,0.530087,0.465480,0.384537,-0.319743,0.029142,0.033718,0.023436,-0.006870,-0.053099,-0.110557,-0.592586,-0.000514,-0.006544,-0.014773,-0.028968,-0.041672,-0.046893,0.796101,5.210084,-19.431335,2.057037,-2.406903,0.064355,0.071018,-0.145539
3.270000,0.219668,0.559685,0.407363,0.529943,0.464409,0.382316,-0.331418,0.029132,0.033587,0.023140,-0.007450,-0.053932,-0.111493,-0.576403,-0.000524,-0.006558,-0.014816,-0.028966,-0.041628,-0.046665,0.825003,5.223490,-19.420000,2.059095,-2.401475,0.064090,0.070652,-0.146606
3.280000,0.220250,0.560356,0.407823,0.529787,0.463321,0.380076,-0.342763,0.029122,0.033456,0.022843,-0.008029,-0.054764,-0.112424,-0.559649,-0.000536,-0.006571,-0.014859,-0.028962,-0.041581,-0.046435,0.853095,5.236808,-19.408733,2.061074,-2.396119,0.063820,0.070281,-0.147628
3.290000,0.220833,0.561023,0.408276,0.529620,0.462217,0.377817,-0.353766,0.029111,0.033325,0.022546,-0.008608,-0.055595,-0.113351,-0.542340,-0.000547,-0.006583,-0.014902,-0.028957,-0.041533,-0.046202,0.880349,5.250040,-19.397533,2.062974,-2.390835,0.063547,0.069905,-0.148603
3.300000,0.221415,0.561688,0.408724,0.529442,0.461096,0.375540,-0.364417,0.029100,0.033193,0.022247,-0.009187,-0.056425,-0.114273,-0.524494,-0.000560,-0.006595,-0.014946,-0.028951,-0.041481,-0.045965,0.906736,5.263183,-19.386402,2.064796,-2.385623,0.063272,0.069525,-0.149534
3.310000,0.221997,0.562351,0.409166,0.529252,0.459958,0.373244,-0.374706,0.029088,0.033061,0.021948,-0.009766,-0.057254,-0.115190,-0.506129,-0.000572,-0.006606,-0.014989,-0.028943,-0.041427,-0.045726,0.932230,5.276241,-19.375339,2.066541,-2.380484,0.062994,0.069141,-0.150419
3.320000,0.222578,0.563011,0.409601,0.529050,0.458804,0.370930,-0.384622,0.029077,0.032929,0.021648,-0.010345,-0.058082,-0.116102,-0.487261,-0.000585,-0.006617,-0.015033,-0.028933,-0.041370,-0.045482,0.956806,5.289211,-19.364345,2.068210,-2.375416,0.062716,0.068755,-0.151261
3.330000,0.223160,0.563668,0.410031,0.528837,0.457633,0.368598,-0.394155,0.029065,0.032796,0.021347,-0.010924,-0.058909,-0.117010,-0.467911,-0.000598,-0.006627,-0.015075,-0.028922,-0.041309,-0.045235,0.980439,5.302095,-19.353422,2.069803,-2.370421,0.062437,0.068366,-0.152061
3.340000,0.223741,0.564322,0.410455,0.528612,0.456446,0.366248,-0.403296,0.029053,0.032664,0.021045,-0.011502,-0.059735,-0.117912,-0.448096,-0.000611,-0.006637,-0.015118,-0.028909,-0.041245,-0.044984,1.003104,5.314893,-19.342568,2.071322,-2.365499,0.062158,0.067976,-0.152818
3.350000,0.224322,0.564974,0.410872,0.528376,0.455242,0.363880,-0.412036,0.029041,0.032531,0.020742,-0.012080,-0.060559,-0.118810,-0.427838,-0.000625,-0.006647,-0.015159,-0.028896,-0.041177,-0.044728,1.024779,5.327605,-19.331784,2.072766,-2.360650,0.061881,0.067584,-0.153533
3.360000,0.224902,0.565623,0.411284,0.528128,0.454022,0.361494,-0.420366,0.029028,0.032398,0.020439,-0.012658,-0.061382,-0.119702,-0.407154,-0.000638,-0.006656,-0.015200,-0.028880,-0.041106,-0.044469,1.045441,5.340231,-19.321072,2.074137,-2.355873,0.061605,0.067193,-0.154209
3.370000,0.225483,0.566270,0.411689,0.527868,0.452785,0.359090,-0.428278,0.029015,0.032265,0.020134,-0.013235,-0.062203,-0.120589,-0.386067,-0.000651,-0.006665,-0.015239,-0.028864,-0.041030,-0.044204,1.065070,5.352772,-19.310431,2.075436,-2.351170,0.061331,0.066801,-0.154844
3.380000,0.226063,0.566913,0.412088,0.527597,0.451532,0.356669,-0.435763,0.029002,0.032131,0.019829,-0.013812,-0.063023,-0.121471,-0.364597,-0.000663,-0.006674,-0.015278,-0.028846,-0.040951,-0.043936,1.083645,5.365227,-19.299861,2.076663,-2.346540,0.061060,0.066410,-0.155441
3.390000,0.226643,0.567555,0.412482,0.527315,0.450263,0.354230,-0.442816,0.028989,0.031998,0.019523,-0.014389,-0.063842,-0.122347,-0.342765,-0.000676,-0.006683,-0.015315,-0.028827,-0.040868,-0.043663,1.101147,5.377598,-19.289364,2.077819,-2.341984,0.060792,0.066020,-0.156001
3.400000,0.227223,0.568193,0.412869,0.527020,0.448977,0.351773,-0.449428,0.028975,0.031864,0.019217,-0.014965,-0.064658,-0.123218,-0.320592,-0.000687,-0.006691,-0.015350,-0.028807,-0.040780,-0.043384,1.117560,5.389883,-19.278939,2.078905,-2.337502,0.060528,0.065632,-0.156523
3.410000,0.227802,0.568829,0.413250,0.526715,0.447675,0.349299,-0.455593,0.028961,0.031730,0.018909,-0.015541,-0.065473,-0.124083,-0.298101,-0.000699,-0.006700,-0.015384,-0.028785,-0.040688,-0.043102,1.132865,5.402084,-19.268586,2.079920,-2.333094,0.060268,0.065245,-0.157009
3.420000,0.228381,0.569462,0.413624,0.526398,0.446356,0.346808,-0.461304,0.028947,0.031596,0.018601,-0.016117,-0.066286,-0.124942,-0.275315,-0.000710,-0.006709,-0.015416,-0.028762,-0.040591,-0.042814,1.147048,5.414201,-19.258307,2.080866,-2.328760,0.060013,0.064860,-0.157460
3.430000,0.228960,0.570092,0.413993,0.526069,0.445022,0.344300,-0.466558,0.028933,0.031462,0.018293,-0.016692,-0.067097,-0.125796,-0.252254,-0.000720,-0.006717,-0.015447,-0.028739,-0.040490,-0.042521,1.160093,5.426233,-19.248100,2.081744,-2.324500,0.059763,0.064478,-0.157876
3.440000,0.229538,0.570720,0.414356,0.525729,0.443671,0.341775,-0.471347,0.028918,0.031327,0.017984,-0.017266,-0.067906,-0.126644,-0.228944,-0.000730,-0.006726,-0.015476,-0.028713,-0.040384,-0.042224,1.171988,5.438181,-19.237968,2.082553,-2.320316,0.059517,0.064098,-0.158258
3.450000,0.230116,0.571345,0.414712,0.525377,0.442304,0.339233,-0.475667,0.028904,0.031193,0.017674,-0.017840,-0.068712,-0.127485,-0.205405,-0.000739,-0.006734,-0.015502,-0.028687,-0.040274,-0.041921,1.182719,5.450045,-19.227909,2.083293,-2.316207,0.059277,0.063720,-0.158607
3.460000,0.230694,0.571968,0.415062,0.525014,0.440921,0.336674,-0.479514,0.028889,0.031058,0.017364,-0.018414,-0.069517,-0.128321,-0.181663,-0.000747,-0.006742,-0.015527,-0.028660,-0.040159,-0.041613,1.192277,5.461825,-19.217925,2.083966,-2.312173,0.059043,0.063346,-0.158923
3.470000,0.231272,0.572587,0.415406,0.524639,0.439522,0.334098,-0.482885,0.028874,0.030923,0.017053,-0.018987,-0.070319,-0.129151,-0.157740,-0.000755,-0.006751,-0.015550,-0.028632,-0.040040,-0.041301,1.200652,5.473520,-19.208015,2.084572,-2.308215,0.058814,0.062974,-0.159207
3.480000,0.231849,0.573204,0.415743,0.524253,0.438107,0.331506,-0.485775,0.028859,0.030788,0.016742,-0.019559,-0.071119,-0.129974,-0.133660,-0.000761,-0.006759,-0.015570,-0.028602,-0.039916,-0.040983,1.207834,5.485131,-19.198180,2.085110,-2.304334,0.058591,0.062606,-0.159459
3.490000,0.232426,0.573819,0.416075,0.523856,0.436675,0.328898,-0.488182,0.028843,0.030653,0.016430,-0.020131,-0.071916,-0.130790,-0.109448,-0.000767,-0.006767,-0.015589,-0.028572,-0.039787,-0.040661,1.213817,5.496658,-19.188421,2.085582,-2.300528,0.058373,0.062240,-0.159679
3.500000,0.233003,0.574430,0.416400,0.523447,0.435228,0.326273,-0.490103,0.028828,0.030517,0.016118,-0.020702,-0.072710,-0.131601,-0.085127,-0.000772,-0.006775,-0.015605,-0.028540,-0.039654,-0.040334,1.218593,5.508101,-19.178737,2.085986,-2.296800,0.058161,0.061877,-0.159869
3.510000,0.233579,0.575039,0.416719,0.523027,0.433765,0.323632,-0.491538,0.028812,0.030382,0.015806,-0.021273,-0.073502,-0.132404,-0.060721,-0.000776,-0.006784,-0.015619,-0.028508,-0.039516,-0.040001,1.222160,5.519460,-19.169128,2.086323,-2.293148,0.057955,0.061517,-0.160028
3.520000,0.234155,0.575645,0.417032,0.522595,0.432287,0.320975,-0.492483,0.028797,0.030246,0.015494,-0.021843,-0.074291,-0.133201,-0.036254,-0.000779,-0.006792,-0.015631,-0.028474,-0.039373,-0.039665,1.224511,5.530734,-19.159596,2.086594,-2.289574,0.057754,0.061159,-0.160156
3.530000,0.234731,0.576249,0.417338,0.522152,0.430792,0.318302,-0.492938,0.028781,0.030110,0.015181,-0.022412,-0.075077,-0.133992,-0.011752,-0.000782,-0.006800,-0.015641,-0.028440,-0.039227,-0.039323,1.225646,5.541923,-19.150140,2.086797,-2.286078,0.057558,0.060804,-0.160254
3.540000,0.235307,0.576849,0.417638,0.521697,0.429282,0.315614,-0.492904,0.028766,0.029974,0.014868,-0.022980,-0.075861,-0.134775,0.012762,-0.000783,-0.006808,-0.015648,-0.028405,-0.039076,-0.038978,1.225563,5.553027,-19.140760,2.086933,-2.282659,0.057368,0.060451,-0.160320
3.550000,0.235882,0.577447,0.417932,0.521232,0.427756,0.312910,-0.492379,0.028750,0.029838,0.014555,-0.023548,-0.076641,-0.135551,0.037264,-0.000784,-0.006816,-0.015654,-0.028369,-0.038920,-0.038628,1.224262,5.564046,-19.131458,2.087002,-2.279319,0.057182,0.060099,-0.160356
3.560000,0.236457,0.578042,0.418220,0.520754,0.426215,0.310190,-0.491365,0.028734,0.029701,0.014242,-0.024115,-0.077418,-0.136321,0.061729,-0.000784,-0.006824,-0.015657,-0.028332,-0.038760,-0.038273,1.221744,5.574979,-19.122233,2.087003,-2.276058,0.057000,0.059750,-0.160361
3.570000,0.237031,0.578635,0.418501,0.520266,0.424658,0.307455,-0.489861,0.028719,0.029565,0.013929,-0.024681,-0.078191,-0.137083,0.086132,-0.000783,-0.006832,-0.015658,-0.028294,-0.038597,-0.037915,1.218012,5.585826,-19.113085,2.086936,-2.272876,0.056823,0.059401,-0.160335
3.580000,0.237605,0.579225,0.418776,0.519766,0.423086,0.304706,-0.487871,0.028703,0.029428,0.013615,-0.025247,-0.078962,-0.137838,0.110450,-0.000781,-0.006840,-0.015657,-0.028256,-0.038429,-0.037553,1.213069,5.596588,-19.104015,2.086801,-2.269773,0.056649,0.059053,-0.160276
3.590000,0.238179,0.579812,0.419045,0.519255,0.421498,0.301941,-0.485396,0.028687,0.029291,0.013302,-0.025812,-0.079729,-0.138586,0.134658,-0.000779,-0.006848,-0.015655,-0.028216,-0.038257,-0.037186,1.206922,5.607262,-19.095023,2.086597,-2.266750,0.056478,0.058706,-0.160186
3.600000,0.238753,0.580396,0.419308,0.518732,0.419895,0.299161,-0.482437,0.028672,0.029154,0.012989,-0.026376,-0.080492,-0.139326,0.158732,-0.000775,-0.006856,-0.015650,-0.028176,-0.038082,-0.036817,1.199575,5.617850,-19.086110,2.086324,-2.263806,0.056310,0.058358,-0.160063
3.610000,0.239326,0.580978,0.419564,0.518199,0.418277,0.296366,-0.478999,0.028656,0.029017,0.012676,-0.026939,-0.081252,-0.140059,0.182648,-0.000771,-0.006864,-0.015644,-0.028136,-0.037903,-0.036444,1.191037,5.628350,-19.077275,2.085981,-2.260943,0.056144,0.058010,-0.159906
3.620000,0.239899,0.581557,0.419814,0.517654,0.416643,0.293557,-0.475085,0.028641,0.028880,0.012364,-0.027501,-0.082009,-0.140785,0.206384,-0.000767,-0.006872,-0.015636,-0.028094,-0.037721,-0.036068,1.181316,5.638763,-19.068519,2.085567,-2.258161,0.055980,0.057661,-0.159716
3.630000,0.240472,0.582133,0.420058,0.517097,0.414995,0.290733,-0.470698,0.028626,0.028742,0.012051,-0.028063,-0.082762,-0.141503,0.229914,-0.000762,-0.006880,-0.015626,-0.028053,-0.037535,-0.035688,1.170422,5.649087,-19.059842,2.085083,-2.255459,0.055817,0.057310,-0.159491
3.640000,0.241044,0.582706,0.420296,0.516530,0.413332,0.287895,-0.465843,0.028610,0.028604,0.011738,-0.028623,-0.083511,-0.142213,0.253216,-0.000756,-0.006888,-0.015615,-0.028010,-0.037346,-0.035307,1.158366,5.659322,-19.051244,2.084527,-2.252839,0.055654,0.056957,-0.159230
3.650000,0.241616,0.583277,0.420527,0.515951,0.411653,0.285043,-0.460525,0.028595,0.028467,0.011426,-0.029183,-0.084256,-0.142916,0.276266,-0.000750,-0.006897,-0.015603,-0.027967,-0.037154,-0.034922,1.145161,5.669467,-19.042726,2.083899,-2.250300,0.055491,0.056602,-0.158932
3.660000,0.242188,0.583844,0.420752,0.515362,0.409960,0.282177,-0.454749,0.028580,0.028328,0.011114,-0.029742,-0.084997,-0.143611,0.299042,-0.000744,-0.006905,-0.015589,-0.027923,-0.036959,-0.034535,1.130820,5.679523,-19.034287,2.083197,-2.247843,0.055327,0.056244,-0.158598
3.670000,0.242759,0.584409,0.420971,0.514761,0.408252,0.279298,-0.448520,0.028566,0.028190,0.010803,-0.030300,-0.085735,-0.144298,0.321521,-0.000737,-0.006914,-0.015574,-0.027879,-0.036762,-0.034146,1.115357,5.689488,-19.025928,2.082422,-2.245468,0.055162,0.055881,-0.158225
3.680000,0.243330,0.584972,0.421183,0.514148,0.406529,0.276404,-0.441845,0.028551,0.028052,0.010491,-0.030857,-0.086468,-0.144977,0.343681,-0.000730,-0.006923,-0.015558,-0.027834,-0.036562,-0.033755,1.098789,5.699362,-19.017648,2.081572,-2.243175,0.054994,0.055515,-0.157812
3.690000,0.243901,0.585531,0.421390,0.513525,0.404792,0.273497,-0.434731,0.028536,0.027913,0.010180,-0.031414,-0.087197,-0.145649,0.365500,-0.000723,-0.006933,-0.015542,-0.027789,-0.036360,-0.033363,1.081133,5.709145,-19.009449,2.080647,-2.240964,0.054823,0.055143,-0.157359
3.700000,0.244472,0.586088,0.421590,0.512891,0.403040,0.270577,-0.427184,0.028522,0.027775,0.009870,-0.031969,-0.087923,-0.146313,0.386956,-0.000715,-0.006942,-0.015524,-0.027744,-0.036156,-0.032969,1.062406,5.718836,-19.001329,2.079646,-2.238836,0.054649,0.054766,-0.156865
3.710000,0.245042,0.586642,0.421784,0.512245,0.401273,0.267643,-0.419213,0.028508,0.027636,0.009559,-0.032523,-0.088644,-0.146968,0.408027,-0.000708,-0.006952,-0.015506,-0.027698,-0.035951,-0.032573,1.042627,5.728433,-18.993290,2.078568,-2.236791,0.054469,0.054384,-0.156329
3.720000,0.245612,0.587193,0.421972,0.511589,0.399493,0.264697,-0.410824,0.028494,0.027497,0.009249,-0.033077,-0.089361,-0.147616,0.428694,-0.000701,-0.006963,-0.015488,-0.027651,-0.035743,-0.032177,1.021817,5.737938,-18.985330,2.077412,-2.234829,0.054285,0.053994,-0.155748
3.730000,0.246182,0.587741,0.422153,0.510921,0.397697,0.261738,-0.402027,0.028480,0.027357,0.008940,-0.033630,-0.090074,-0.148256,0.448936,-0.000693,-0.006973,-0.015469,-0.027604,-0.035534,-0.031780,0.999998,5.747348,-18.977451,2.076177,-2.232950,0.054095,0.053598,-0.155123
3.740000,0.246751,0.588287,0.422329,0.510243,0.395888,0.258765,-0.392830,0.028466,0.027218,0.008631,-0.034181,-0.090783,-0.148888,0.468732,-0.000686,-0.006985,-0.015451,-0.027557,-0.035324,-0.031382,0.977190,5.756665,-18.969651,2.074863,-2.231155,0.053897,0.053194,-0.154453
3.750000,0.247320,0.588830,0.422498,0.509553,0.394065,0.255781,-0.383242,0.028452,0.027078,0.008322,-0.034732,-0.091488,-0.149512,0.488064,-0.000679,-0.006997,-0.015432,-0.027509,-0.035113,-0.030984,0.953417,5.765886,-18.961930,2.073469,-2.229443,0.053693,0.052781,-0.153736
3.760000,0.247889,0.589370,0.422661,0.508852,0.392227,0.252784,-0.373272,0.028439,0.026938,0.008013,-0.035282,-0.092188,-0.150128,0.506911,-0.000673,-0.007009,-0.015414,-0.027461,-0.034901,-0.030586,0.928704,5.775012,-18.954289,2.071994,-2.227815,0.053480,0.052361,-0.152971
3.770000,0.248458,0.589907,0.422818,0.508140,0.390376,0.249775,-0.362931,0.028425,0.026798,0.007705,-0.035831,-0.092884,-0.150737,0.525256,-0.000666,-0.007022,-0.015396,-0.027413,-0.034689,-0.030188,0.903076,5.784041,-18.946728,2.070438,-2.226271,0.053258,0.051931,-0.152158
3.780000,0.249026,0.590442,0.422969,0.507418,0.388511,0.246753,-0.352229,0.028412,0.026657,0.007397,-0.036378,-0.093576,-0.151337,0.543080,-0.000661,-0.007035,-0.015379,-0.027364,-0.034476,-0.029790,0.876558,5.792975,-18.939245,2.068798,-2.224810,0.053026,0.051492,-0.151296
3.790000,0.249594,0.590973,0.423113,0.506684,0.386631,0.243720,-0.341177,0.028399,0.026516,0.007090,-0.036925,-0.094264,-0.151929,0.560366,-0.000655,-0.007049,-0.015362,-0.027314,-0.034263,-0.029393,0.849177,5.801811,-18.931842,2.067076,-2.223434,0.052784,0.051042,-0.150383
3.800000,0.250162,0.591502,0.423252,0.505940,0.384739,0.240675,-0.329784,0.028386,0.026375,0.006783,-0.037471,-0.094947,-0.152513,0.577097,-0.000651,-0.007064,-0.015347,-0.027265,-0.034050,-0.028996,0.820962,5.810550,-18.924516,2.065270,-2.222142,0.052531,0.050583,-0.149420
3.810000,0.250730,0.592028,0.423384,0.505184,0.382832,0.237618,-0.318064,0.028373,0.026234,0.006476,-0.038016,-0.095626,-0.153090,0.593257,-0.000647,-0.007079,-0.015332,-0.027214,-0.033838,-0.028600,0.791940,5.819192,-18.917269,2.063380,-2.220935,0.052266,0.050113,-0.148405
3.820000,0.251297,0.592551,0.423510,0.504418,0.380912,0.234550,-0.306026,0.028360,0.026092,0.006169,-0.038560,-0.096301,-0.153658,0.608829,-0.000643,-0.007095,-0.015319,-0.027164,-0.033626,-0.028205,0.762141,5.827735,-18.910100,2.061405,-2.219811,0.051989,0.049632,-0.147337
3.830000,0.251864,0.593071,0.423630,0.503641,0.378979,0.231471,-0.293684,0.028347,0.025950,0.005863,-0.039102,-0.096971,-0.154219,0.623798,-0.000641,-0.007112,-0.015307,-0.027112,-0.033414,-0.027810,0.731595,5.836179,-18.903008,2.059344,-2.218773,0.051699,0.049140,-0.146218
3.840000,0.252431,0.593589,0.423744,0.502853,0.377032,0.228380,-0.281049,0.028334,0.025807,0.005557,-0.039644,-0.097638,-0.154771,0.638149,-0.000639,-0.007129,-0.015297,-0.027061,-0.033204,-0.027417,0.700333,5.844525,-18.895992,2.057198,-2.217819,0.051395,0.048637,-0.145045
3.850000,0.252998,0.594103,0.423852,0.502054,0.375072,0.225279,-0.268134,0.028322,0.025665,0.005251,-0.040185,-0.098300,-0.155316,0.651870,-0.000638,-0.007147,-0.015288,-0.027008,-0.032994,-0.027025,0.668386,5.852771,-18.889054,2.054965,-2.216949,0.051078,0.048122,-0.143820
3.860000,0.253564,0.594615,0.423953,0.501244,0.373099,0.222167,-0.254952,0.028309,0.025522,0.004946,-0.040725,-0.098958,-0.155853,0.664945,-0.000638,-0.007165,-0.015281,-0.026955,-0.032786,-0.026635,0.635786,5.860918,-18.882191,2.052645,-2.216165,0.050745,0.047596,-0.142541
3.870000,0.254130,0.595124,0.424049,0.500424,0.371112,0.219044,-0.241515,0.028296,0.025378,0.004640,-0.041263,-0.099612,-0.156382,0.677363,-0.000640,-0.007184,-0.015276,-0.026902,-0.032579,-0.026246,0.602567,5.868966,-18.875404,2.050239,-2.215465,0.050398,0.047058,-0.141209
3.880000,0.254696,0.595630,0.424138,0.499593,0.369113,0.215910,-0.227838,0.028283,0.025234,0.004335,-0.041801,-0.100262,-0.156904,0.689111,-0.000642,-0.007203,-0.015273,-0.026847,-0.032373,-0.025858,0.568760,5.876914,-18.868692,2.047746,-2.214850,0.050036,0.046508,-0.139824
3.890000,0.255261,0.596133,0.424222,0.498751,0.367101,0.212767,-0.213933,0.028270,0.025090,0.004029,-0.042337,-0.100907,-0.157417,0.700178,-0.000645,-0.007223,-0.015272,-0.026792,-0.032169,-0.025472,0.534401,5.884762,-18.862054,2.045166,-2.214320,0.049658,0.045946,-0.138386
3.900000,0.255826,0.596633,0.424299,0.497898,0.365076,0.209613,-0.199814,0.028257,0.024945,0.003724,-0.042873,-0.101549,-0.157923,0.710553,-0.000650,-0.007243,-0.015274,-0.026736,-0.031967,-0.025087,0.499522,5.892510,-18.855491,2.042498,-2.213876,0.049264,0.045373,-0.136896
3.910000,0.256391,0.597130,0.424370,0.497035,0.363038,0.206449,-0.185495,0.028244,0.024800,0.003418,-0.043407,-0.102186,-0.158422,0.720226,-0.000656,-0.007263,-0.015278,-0.026679,-0.031766,-0.024704,0.464160,5.900158,-18.849001,2.039744,-2.213516,0.048853,0.044788,-0.135355
3.920000,0.256956,0.597625,0.424435,0.496161,0.360987,0.203275,-0.170991,0.028231,0.024655,0.003113,-0.043940,-0.102820,-0.158912,0.729187,-0.000664,-0.007283,-0.015284,-0.026621,-0.031568,-0.024322,0.428349,5.907706,-18.842584,2.036903,-2.213243,0.048426,0.044192,-0.133763
3.930000,0.257521,0.598116,0.424494,0.495276,0.358924,0.200091,-0.156315,0.028218,0.024509,0.002807,-0.044472,-0.103449,-0.159395,0.737429,-0.000673,-0.007304,-0.015293,-0.026563,-0.031371,-0.023942,0.392124,5.915155,-18.836241,2.033975,-2.213054,0.047983,0.043584,-0.132121
3.940000,0.258085,0.598605,0.424547,0.494381,0.356848,0.196898,-0.141483,0.028204,0.024363,0.002501,-0.045003,-0.104075,-0.159871,0.744942,-0.000683,-0.007324,-0.015304,-0.026503,-0.031176,-0.023563,0.355523,5.922504,-18.829970,2.030961,-2.212952,0.047523,0.042965,-0.130430
3.950000,0.258649,0.599091,0.424593,0.493475,0.354759,0.193696,-0.126508,0.028190,0.024216,0.002195,-0.045532,-0.104697,-0.160339,0.751721,-0.000695,-0.007345,-0.015319,-0.026442,-0.030984,-0.023185,0.318580,5.929753,-18.823771,2.027861,-2.212935,0.047045,0.042335,-0.128692
3.960000,0.259212,0.599573,0.424634,0.492559,0.352659,0.190484,-0.111406,0.028176,0.024069,0.001888,-0.046060,-0.105315,-0.160799,0.757758,-0.000709,-0.007365,-0.015335,-0.026380,-0.030793,-0.022809,0.281332,5.936904,-18.817644,2.024676,-2.213005,0.046551,0.041695,-0.126907
3.970000,0.259776,0.600053,0.424668,0.491632,0.350546,0.187263,-0.096192,0.028162,0.023922,0.001581,-0.046587,-0.105929,-0.161252,0.763047,-0.000724,-0.007384,-0.015355,-0.026317,-0.030605,-0.022434,0.243816,5.943956,-18.811589,2.021406,-2.213161,0.046041,0.041045,-0.125078
3.980000,0.260339,0.600530,0.424697,0.490694,0.348420,0.184033,-0.080880,0.028147,0.023774,0.001274,-0.047113,-0.106539,-0.161697,0.767584,-0.000741,-0.007404,-0.015377,-0.026252,-0.030418,-0.022059,0.206070,5.950910,-18.805605,2.018052,-2.213404,0.045513,0.040384,-0.123206
3.990000,0.260902,0.601004,0.424719,0.489746,0.346283,0.180794,-0.065485,0.028132,0.023625,0.000966,-0.047638,-0.107146,-0.162135,0.771364,-0.000759,-0.007422,-0.015401,-0.026186,-0.030234,-0.021686,0.168130,5.957766,-18.799693,2.014615,-2.213733,0.044969,0.039714,-0.121294
4.000000,0.261464,0.601475,0.424735,0.488788,0.344133,0.177547,-0.050023,0.028117,0.023477,0.000658,-0.048161,-0.107749,-0.162565,0.774384,-0.000780,-0.007440,-0.015429,-0.026119,-0.030051,-0.021313,0.130033,5.964525,-18.793852,2.011096,-2.214150,0.044408,0.039036,-0.119342
4.010000,0.262026,0.601942,0.424744,0.487819,0.341972,0.174291,-0.034510,0.028101,0.023328,0.000349,-0.048682,-0.108348,-0.162988,0.776641,-0.000802,-0.007457,-0.015459,-0.026051,-0.029871,-0.020941,0.091816,5.971188,-18.788083,2.007495,-2.214654,0.043832,0.038348,-0.117354
4.020000,0.262588,0.602407,0.424748,0.486839,0.339798,0.171026,-0.018959,0.028085,0.023179,0.000040,-0.049203,-0.108944,-0.163404,0.778133,-0.000827,-0.007473,-0.015491,-0.025981,-0.029692,-0.020569,0.053518,5.977755,-18.782386,2.003815,-2.215246,0.043239,0.037653,-0.115331
4.030000,0.263150,0.602869,0.424745,0.485849,0.337613,0.167754,-0.003387,0.028068,0.023029,-0.000271,-0.049722,-0.109537,-0.163812,0.778858,-0.000853,-0.007488,-0.015526,-0.025909,-0.029515,-0.020197,0.015176,5.984227,-18.776760,2.000055,-2.215926,0.042631,0.036950,-0.113276
4.040000,0.263711,0.603328,0.424736,0.484849,0.335415,0.164473,0.012191,0.028051,0.022879,-0.000581,-0.050239,-0.110125,-0.164212,0.778817,-0.000881,-0.007501,-0.015564,-0.025836,-0.029339,-0.019825,-0.023174,5.990605,-18.771208,1.996218,-2.216695,0.042008,0.036240,-0.111192
4.050000,0.264272,0.603784,0.424721,0.483839,0.333207,0.161185,0.027759,0.028033,0.022729,-0.000893,-0.050755,-0.110710,-0.164605,0.778008,-0.000912,-0.007513,-0.015603,-0.025762,-0.029166,-0.019454,-0.061492,5.996890,-18.765728,1.992305,-2.217553,0.041370,0.035523,-0.109081
4.060000,0.264832,0.604237,0.424700,0.482818,0.330986,0.157888,0.043304,0.028015,0.022579,-0.001205,-0.051270,-0.111292,-0.164991,0.776434,-0.000944,-0.007524,-0.015645,-0.025686,-0.028993,-0.019081,-0.099744,6.003083,-18.760321,1.988316,-2.218501,0.040718,0.034801,-0.106946
4.070000,0.265392,0.604687,0.424673,0.481787,0.328754,0.154584,0.058808,0.027995,0.022428,-0.001519,-0.051783,-0.111871,-0.165369,0.774096,-0.000978,-0.007533,-0.015690,-0.025608,-0.028822,-0.018708,-0.137890,6.009186,-18.754989,1.984255,-2.219539,0.040052,0.034073,-0.104791
4.080000,0.265952,0.605134,0.424639,0.480746,0.326510,0.151273,0.074257,0.027976,0.022277,-0.001833,-0.052294,-0.112445,-0.165740,0.770995,-0.001014,-0.007540,-0.015736,-0.025529,-0.028651,-0.018335,-0.175893,6.015199,-18.749732,1.980121,-2.220667,0.039372,0.033340,-0.102617
4.090000,0.266511,0.605578,0.424599,0.479694,0.324255,0.147954,0.089636,0.027955,0.022127,-0.002148,-0.052804,-0.113017,-0.166103,0.767137,-0.001053,-0.007545,-0.015784,-0.025448,-0.028482,-0.017960,-0.213718,6.021124,-18.744550,1.975918,-2.221886,0.038681,0.032603,-0.100429
4.100000,0.267070,0.606019,0.424552,0.478633,0.321988,0.144628,0.104929,0.027933,0.021976,-0.002464,-0.053312,-0.113585,-0.166459,0.762524,-0.001093,-0.007549,-0.015833,-0.025366,-0.028313,-0.017584,-0.251327,6.026961,-18.739446,1.971646,-2.223198,0.037976,0.031861,-0.098229
4.110000,0.267628,0.606457,0.424499,0.477561,0.319710,0.141295,0.120121,0.027911,0.021825,-0.002781,-0.053819,-0.114150,-0.166808,0.757160,-0.001135,-0.007550,-0.015884,-0.025282,-0.028145,-0.017207,-0.288684,6.032714,-18.734419,1.967307,-2.224601,0.037261,0.031117,-0.096021
4.120000,0.268186,0.606891,0.424440,0.476479,0.317421,0.137955,0.135199,0.027888,0.021674,-0.003100,-0.054324,-0.114711,-0.167148,0.751053,-0.001179,-0.007549,-0.015937,-0.025197,-0.027977,-0.016828,-0.325752,6.038383,-18.729472,1.962903,-2.226097,0.036534,0.030370,-0.093807
4.130000,0.268744,0.607323,0.424375,0.475387,0.315121,0.134608,0.150146,0.027864,0.021523,-0.003419,-0.054827,-0.115269,-0.167481,0.744206,-0.001225,-0.007547,-0.015990,-0.025111,-0.027810,-0.016447,-0.362495,6.043969,-18.724606,1.958437,-2.227688,0.035798,0.029621,-0.091592
4.140000,0.269301,0.607752,0.424303,0.474285,0.312809,0.131255,0.164948,0.027839,0.021372,-0.003739,-0.055329,-0.115824,-0.167807,0.736628,-0.001273,-0.007542,-0.016045,-0.025022,-0.027642,-0.016064,-0.398878,6.049475,-18.719821,1.953909,-2.229372,0.035052,0.028870,-0.089379
4.150000,0.269857,0.608178,0.424225,0.473173,0.310487,0.127896,0.179590,0.027813,0.021221,-0.004060,-0.055828,-0.116375,-0.168125,0.728326,-0.001322,-0.007534,-0.016101,-0.024933,-0.027475,-0.015679,-0.434866,6.054902,-18.715120,1.949323,-2.231151,0.034297,0.028117,-0.087171
4.160000,0.270413,0.608600,0.424140,0.472051,0.308153,0.124530,0.194059,0.027786,0.021070,-0.004383,-0.056326,-0.116923,-0.168435,0.719308,-0.001373,-0.007525,-0.016157,-0.024842,-0.027307,-0.015291,-0.470423,6.060252,-18.710505,1.944679,-2.233026,0.033534,0.027364,-0.084972
4.170000,0.270969,0.609020,0.424049,0.470919,0.305809,0.121158,0.208339,0.027758,0.020920,-0.004707,-0.056822,-0.117468,-0.168737,0.709583,-0.001426,-0.007513,-0.016213,-0.024750,-0.027138,-0.014901,-0.505516,6.065527,-18.705976,1.939981,-2.234998,0.032763,0.026610,-0.082785
4.180000,0.271524,0.609437,0.423951,0.469777,0.303453,0.117780,0.222417,0.027730,0.020770,-0.005031,-0.057316,-0.118009,-0.169032,0.699160,-0.001480,-0.007500,-0.016270,-0.024656,-0.026969,-0.014508,-0.540110,6.070729,-18.701536,1.935229,-2.237066,0.031986,0.025856,-0.080613
4.190000,0.272078,0.609851,0.423847,0.468625,0.301087,0.114396,0.236279,0.027699,0.020620,-0.005357,-0.057808,-0.118547,-0.169318,0.688051,-0.001535,-0.007484,-0.016327,-0.024562,-0.026799,-0.014113,-0.574171,6.075860,-18.697187,1.930426,-2.239233,0.031203,0.025103,-0.078460
4.200000,0.272632,0.610261,0.423736,0.467463,0.298710,0.111006,0.249912,0.027668,0.020470,-0.005684,-0.058299,-0.119081,-0.169597,0.676265,-0.001592,-0.007466,-0.016384,-0.024466,-0.026628,-0.013714,-0.607667,6.080921,-18.692931,1.925574,-2.241498,0.030414,0.024350,-0.076329
4.210000,0.273185,0.610669,0.423619,0.466292,0.296323,0.107611,0.263301,0.027636,0.020321,-0.006013,-0.058787,-0.119612,-0.169868,0.663815,-0.001649,-0.007446,-0.016440,-0.024369,-0.026456,-0.013313,-0.640565,6.085916,-18.688769,1.920675,-2.243862,0.029621,0.023598,-0.074225
4.220000,0.273737,0.611074,0.423495,0.465111,0.293925,0.104211,0.276434,0.027602,0.020173,-0.006342,-0.059274,-0.120140,-0.170130,0.650712,-0.001708,-0.007424,-0.016496,-0.024271,-0.026283,-0.012908,-0.672832,6.090845,-18.684704,1.915732,-2.246327,0.028824,0.022847,-0.072149
4.230000,0.274289,0.611476,0.423364,0.463920,0.291516,0.100806,0.289298,0.027568,0.020024,-0.006672,-0.059758,-0.120664,-0.170385,0.636970,-0.001767,-0.007400,-0.016552,-0.024173,-0.026108,-0.012500,-0.704439,6.095712,-18.680737,1.910745,-2.248892,0.028024,0.022097,-0.070105
4.240000,0.274840,0.611875,0.423227,0.462720,0.289097,0.097395,0.301881,0.027532,0.019877,-0.007004,-0.060241,-0.121185,-0.170631,0.622601,-0.001827,-0.007374,-0.016606,-0.024073,-0.025932,-0.012088,-0.735353,6.100518,-18.676872,1.905718,-2.251559,0.027221,0.021349,-0.068098
4.250000,0.275390,0.612271,0.423083,0.461510,0.286668,0.093980,0.314169,0.027495,0.019729,-0.007336,-0.060721,-0.121702,-0.170869,0.607621,-0.001887,-0.007347,-0.016659,-0.023973,-0.025754,-0.011673,-0.765545,6.105266,-18.673110,1.900651,-2.254328,0.026417,0.020602,-0.066129
4.260000,0.275939,0.612664,0.422933,0.460290,0.284228,0.090560,0.326151,0.027456,0.019583,-0.007670,-0.061200,-0.122215,-0.171099,0.592044,-0.001948,-0.007318,-0.016711,-0.023872,-0.025574,-0.011255,-0.794985,6.109957,-18.669452,1.895548,-2.257201,0.025612,0.019857,-0.064201
4.270000,0.276488,0.613054,0.422776,0.459061,0.281778,0.087136,0.337815,0.027417,0.019437,-0.008005,-0.061677,-0.122725,-0.171320,0.575885,-0.002008,-0.007287,-0.016762,-0.023771,-0.025393,-0.010833,-0.823645,6.114595,-18.665903,1.890409,-2.260177,0.024806,0.019114,-0.062319
4.280000,0.277036,0.613441,0.422612,0.457822,0.279318,0.083707,0.349150,0.027376,0.019291,-0.008340,-0.062151,-0.123231,-0.171533,0.559160,-0.002069,-0.007256,-0.016811,-0.023669,-0.025209,-0.010408,-0.851497,6.119180,-18.662463,1.885238,-2.263258,0.024000,0.018372,-0.060484
4.290000,0.277583,0.613825,0.422442,0.456574,0.276848,0.080274,0.360144,0.027334,0.019146,-0.008677,-0.062624,-0.123734,-0.171737,0.541886,-0.002130,-0.007223,-0.016859,-0.023567,-0.025024,-0.009979,-0.878513,6.123716,-18.659134,1.880034,-2.266444,0.023195,0.017631,-0.058700
4.300000,0.278129,0.614206,0.422264,0.455316,0.274368,0.076837,0.370787,0.027291,0.019002,-0.009015,-0.063094,-0.124233,-0.171933,0.524079,-0.002190,-0.007189,-0.016905,-0.023464,-0.024837,-0.009547,-0.904667,6.128204,-18.655920,1.874802,-2.269736,0.022391,0.016892,-0.056969
4.310000,0.278675,0.614585,0.422080,0.454049,0.271878,0.073396,0.381068,0.027247,0.018859,-0.009353,-0.063562,-0.124728,-0.172120,0.505757,-0.002249,-0.007155,-0.016949,-0.023361,-0.024647,-0.009112,-0.929933,6.132647,-18.652821,1.869541,-2.273134,0.021590,0.016154,-0.055294
4.320000,0.279219,0.614960,0.421890,0.452773,0.269378,0.069952,0.390976,0.027201,0.018716,-0.009693,-0.064029,-0.125219,-0.172298,0.486937,-0.002308,-0.007119,-0.016991,-0.023258,-0.024456,-0.008674,-0.954287,6.137047,-18.649841,1.864254,-2.276640,0.020791,0.015417,-0.053677
4.330000,0.279762,0.615333,0.421692,0.451487,0.266868,0.066504,0.400504,0.027155,0.018574,-0.010033,-0.064493,-0.125706,-0.172468,0.467639,-0.002367,-0.007084,-0.017030,-0.023155,-0.024262,-0.008232,-0.977704,6.141406,-18.646980,1.858943,-2.280253,0.019995,0.014681,-0.052122
4.340000,0.280305,0.615703,0.421488,0.450192,0.264349,0.063053,0.409640,0.027107,0.018432,-0.010374,-0.064955,-0.126190,-0.172628,0.447881,-0.002424,-0.007048,-0.017068,-0.023052,-0.024067,-0.007787,-1.000162,6.145725,-18.644241,1.853608,-2.283974,0.019203,0.013945,-0.050629
4.350000,0.280847,0.616070,0.421276,0.448888,0.261820,0.059599,0.418376,0.027058,0.018292,-0.010715,-0.065415,-0.126669,-0.172780,0.427683,-0.002480,-0.007012,-0.017104,-0.022949,-0.023869,-0.007339,-1.021638,6.150007,-18.641625,1.848252,-2.287805,0.018415,0.013209,-0.049202
4.360000,0.281387,0.616434,0.421058,0.447575,0.259281,0.056142,0.426704,0.027008,0.018152,-0.011058,-0.065873,-0.127145,-0.172923,0.407065,-0.002535,-0.006976,-0.017137,-0.022847,-0.023670,-0.006889,-1.042112,6.154254,-18.639135,1.842876,-2.291744,0.017632,0.012472,-0.047842
4.370000,0.281927,0.616796,0.420833,0.446252,0.256733,0.052682,0.434614,0.026957,0.018013,-0.011401,-0.066329,-0.127616,-0.173057,0.386046,-0.002588,-0.006941,-0.017167,-0.022744,-0.023468,-0.006436,-1.061562,6.158468,-18.636773,1.837481,-2.295793,0.016853,0.011735,-0.046551
4.380000,0.282465,0.617155,0.420602,0.444920,0.254175,0.049219,0.442100,0.026904,0.017874,-0.011744,-0.066783,-0.128084,-0.173181,0.364647,-0.002640,-0.006906,-0.017196,-0.022642,-0.023265,-0.005980,-1.079971,6.162651,-18.634538,1.832069,-2.299952,0.016081,0.010997,-0.045331
4.390000,0.283003,0.617511,0.420363,0.443580,0.251609,0.045754,0.449155,0.026851,0.017736,-0.012088,-0.067235,-0.128547,-0.173297,0.342890,-0.002690,-0.006871,-0.017222,-0.022540,-0.023059,-0.005522,-1.097319,6.166803,-18.632434,1.826640,-2.304222,0.015314,0.010257,-0.044185
4.400000,0.283539,0.617864,0.420117,0.442230,0.249033,0.042287,0.455770,0.026797,0.017599,-0.012433,-0.067685,-0.129007,-0.173403,0.320795,-0.002738,-0.006838,-0.017245,-0.022439,-0.022852,-0.005062,-1.113590,6.170928,-18.630462,1.821196,-2.308603,0.014554,0.009514,-0.043112
4.410000,0.284075,0.618214,0.419865,0.440872,0.246447,0.038818,0.461940,0.026742,0.017463,-0.012778,-0.068133,-0.129462,-0.173500,0.298385,-0.002785,-0.006805,-0.017267,-0.022338,-0.022643,-0.004600,-1.128767,6.175026,-18.628622,1.815739,-2.313094,0.013801,0.008769,-0.042115
4.420000,0.284609,0.618562,0.419606,0.439504,0.243853,0.035347,0.467658,0.026686,0.017327,-0.013124,-0.068579,-0.129913,-0.173588,0.275681,-0.002829,-0.006774,-0.017285,-0.022238,-0.022433,-0.004137,-1.142835,6.179100,-18.626916,1.810268,-2.317697,0.013054,0.008020,-0.041196
4.430000,0.285142,0.618907,0.419339,0.438127,0.241250,0.031874,0.472920,0.026629,0.017192,-0.013470,-0.069023,-0.130360,-0.173666,0.252706,-0.002871,-0.006744,-0.017301,-0.022139,-0.022221,-0.003672,-1.155781,6.183150,-18.625345,1.804785,-2.322412,0.012316,0.007268,-0.040355
4.440000,0.285674,0.619250,0.419066,0.436742,0.238638,0.028400,0.477719,0.026571,0.017057,-0.013816,-0.069464,-0.130802,-0.173736,0.229482,-0.002912,-0.006716,-0.017315,-0.022040,-0.022008,-0.003205,-1.167592,6.187178,-18.623910,1.799291,-2.327238,0.011586,0.006511,-0.039593
4.450000,0.286205,0.619589,0.418786,0.435348,0.236017,0.024925,0.482051,0.026512,0.016923,-0.014162,-0.069904,-0.131240,-0.173796,0.206032,-0.002949,-0.006689,-0.017327,-0.021942,-0.021793,-0.002738,-1.178255,6.191185,-18.622611,1.793787,-2.332175,0.010863,0.005748,-0.038911
4.460000,0.286734,0.619926,0.418499,0.433945,0.233388,0.021448,0.485911,0.026453,0.016790,-0.014509,-0.070342,-0.131674,-0.173846,0.182380,-0.002985,-0.006664,-0.017336,-0.021845,-0.021577,-0.002270,-1.187760,6.195172,-18.621450,1.788273,-2.337225,0.010150,0.004980,-0.038311
4.470000,0.287263,0.620261,0.418205,0.432533,0.230749,0.017971,0.489297,0.026393,0.016656,-0.014856,-0.070778,-0.132104,-0.173887,0.158548,-0.003018,-0.006641,-0.017343,-0.021749,-0.021360,-0.001801,-1.196098,6.199141,-18.620426,1.782750,-2.342386,0.009446,0.004205,-0.037792
4.480000,0.287790,0.620592,0.417904,0.431113,0.228103,0.014493,0.492204,0.026332,0.016524,-0.015202,-0.071213,-0.132529,-0.173919,0.134559,-0.003049,-0.006619,-0.017347,-0.021654,-0.021142,-0.001333,-1.203260,6.203092,-18.619540,1.777219,-2.347659,0.008751,0.003423,-0.037356
4.490000,0.288316,0.620921,0.417596,0.429684,0.225447,0.011014,0.494631,0.026271,0.016392,-0.015549,-0.071645,-0.132950,-0.173942,0.110438,-0.003078,-0.006601,-0.017350,-0.021559,-0.020924,-0.000864,-1.209240,6.207027,-18.618792,1.771680,-2.353043,0.008066,0.002633,-0.037003
4.500000,0.288841,0.621248,0.417281,0.428246,0.222784,0.007535,0.496573,0.026209,0.016260,-0.015896,-0.072075,-0.133366,-0.173955,0.086208,-0.003104,-0.006584,-0.017350,-0.021466,-0.020704,-0.000395,-1.214031,6.210946,-18.618182,1.766134,-2.358538,0.007391,0.001834,-0.036733
4.510000,0.289364,0.621571,0.416960,0.426800,0.220112,0.004056,0.498030,0.026147,0.016128,-0.016243,-0.072504,-0.133779,-0.173958,0.061893,-0.003127,-0.006570,-0.017348,-0.021374,-0.020484,0.000072,-1.217628,6.214849,-18.617711,1.760581,-2.364145,0.006727,0.001027,-0.036546
4.520000,0.289886,0.621892,0.416631,0.425346,0.217432,0.000577,0.499000,0.026084,0.015997,-0.016590,-0.072930,-0.134186,-0.173953,0.037517,-0.003148,-0.006558,-0.017344,-0.021283,-0.020263,0.000539,-1.220029,6.218738,-18.617377,1.755022,-2.369862,0.006073,0.000210,-0.036443
4.530000,0.290407,0.622211,0.416295,0.423882,0.214744,-0.002902,0.499481,0.026021,0.015866,-0.016937,-0.073355,-0.134590,-0.173938,0.013104,-0.003167,-0.006549,-0.017339,-0.021193,-0.020042,0.001005,-1.221230,6.222613,-18.617181,1.749457,-2.375689,0.005431,-0.000618,-0.036423
4.540000,0.290927,0.622527,0.415953,0.422410,0.212047,-0.006380,0.499475,0.025958,0.015735,-0.017284,-0.073778,-0.134988,-0.173913,-0.011323,-0.003183,-0.006543,-0.017331,-0.021104,-0.019821,0.001470,-1.221230,6.226474,-18.617122,1.743886,-2.381626,0.004800,-0.001456,-0.036487
4.550000,0.291445,0.622840,0.415603,0.420930,0.209343,-0.009858,0.498980,0.025894,0.015604,-0.017630,-0.074199,-0.135383,-0.173880,-0.035738,-0.003196,-0.006539,-0.017321,-0.021017,-0.019599,0.001933,-1.220029,6.230321,-18.617199,1.738309,-2.387673,0.004181,-0.002306,-0.036633
4.560000,0.291963,0.623151,0.415247,0.419442,0.206631,-0.013336,0.497997,0.025830,0.015473,-0.017977,-0.074619,-0.135773,-0.173837,-0.060119,-0.003207,-0.006539,-0.017310,-0.020931,-0.019377,0.002394,-1.217630,6.234155,-18.617412,1.732727,-2.393828,0.003575,-0.003167,-0.036862
4.570000,0.292479,0.623459,0.414883,0.417945,0.203912,-0.016812,0.496527,0.025765,0.015343,-0.018323,-0.075037,-0.136158,-0.173785,-0.084442,-0.003215,-0.006541,-0.017297,-0.020846,-0.019155,0.002852,-1.214033,6.237976,-18.617759,1.727139,-2.400092,0.002981,-0.004041,-0.037173
4.580000,0.292993,0.623764,0.414513,0.416439,0.201184,-0.020287,0.494571,0.025701,0.015212,-0.018669,-0.075453,-0.136539,-0.173724,-0.108681,-0.003221,-0.006546,-0.017282,-0.020763,-0.018933,0.003309,-1.209243,6.241784,-18.618239,1.721547,-2.406462,0.002400,-0.004929,-0.037565
4.590000,0.293506,0.624067,0.414136,0.414926,0.198449,-0.023760,0.492132,0.025637,0.015081,-0.019014,-0.075868,-0.136916,-0.173654,-0.132814,-0.003224,-0.006554,-0.017266,-0.020681,-0.018712,0.003762,-1.203264,6.245578,-18.618852,1.715949,-2.412940,0.001833,-0.005829,-0.038038
4.600000,0.294018,0.624367,0.413752,0.413404,0.195707,-0.027233,0.489211,0.025572,0.014950,-0.019359,-0.076280,-0.137288,-0.173574,-0.156817,-0.003225,-0.006565,-0.017248,-0.020600,-0.018490,0.004213,-1.196102,6.249359,-18.619595,1.710346,-2.419523,0.001279,-0.006743,-0.038591
4.610000,0.294529,0.624665,0.413361,0.411874,0.192957,-0.030703,0.485812,0.025508,0.014818,-0.019704,-0.076692,-0.137656,-0.173486,-0.180666,-0.003224,-0.006579,-0.017228,-0.020521,-0.018268,0.004660,-1.187765,6.253126,-18.620468,1.704738,-2.426211,0.000740,-0.007671,-0.039222
4.620000,0.295039,0.624960,0.412963,0.410335,0.190200,-0.034172,0.481938,0.025443,0.014686,-0.020048,-0.077101,-0.138020,-0.173389,-0.204337,-0.003220,-0.006596,-0.017207,-0.020443,-0.018047,0.005104,-1.178261,6.256879,-18.621468,1.699125,-2.433003,0.000216,-0.008613,-0.039931
4.630000,0.295547,0.625252,0.412558,0.408789,0.187436,-0.037638,0.477593,0.025379,0.014554,-0.020392,-0.077510,-0.138378,-0.173283,-0.227809,-0.003214,-0.006617,-0.017185,-0.020367,-0.017826,0.005545,-1.167599,6.260617,-18.622594,1.693507,-2.439898,-0.000293,-0.009570,-0.040716
