FrankJIE09/Dynamics_identification_Frank/scripts/dynamics_identification_data_pinocchio_zero_friction.csv
time,q0,q1,q2,q3,q4,q5,q6,dq0,dq1,dq2,dq3,dq4,dq5,dq6,ddq0,ddq1,ddq2,ddq3,ddq4,ddq5,ddq6,tau0,tau1,tau2,tau3,tau4,tau5,tau6
0.000000,0.000000,0.000000,0.000000,0.000000,0.000000,0.000000,0.000000,0.090000,0.135000,0.180000,0.250000,0.300000,0.350000,1.570000,-0.000000,-0.000000,-0.000000,-0.000000,-0.000000,-0.000000,-0.000000,0.000103,-0.176291,0.000102,0.316706,-0.000052,-0.035761,-0.001605
0.010000,0.000900,0.001350,0.001800,0.002500,0.003000,0.003500,0.015697,0.090000,0.134999,0.179999,0.249997,0.299995,0.349991,1.569226,-0.000036,-0.000121,-0.000288,-0.000625,-0.001080,-0.001715,-0.154770,0.000330,-0.231240,0.000259,0.288956,-0.000135,-0.037136,-0.004637
0.020000,0.001800,0.002700,0.003600,0.005000,0.006000,0.007000,0.031379,0.089999,0.134998,0.179994,0.249988,0.299978,0.349966,1.566905,-0.000072,-0.000243,-0.000576,-0.001250,-0.002160,-0.003430,-0.309388,0.000569,-0.286261,0.000417,0.261171,-0.000239,-0.038510,-0.007668
0.030000,0.002700,0.004050,0.005400,0.007500,0.009000,0.010499,0.047030,0.089998,0.134995,0.179987,0.249972,0.299951,0.349923,1.563039,-0.000108,-0.000364,-0.000864,-0.001875,-0.003240,-0.005145,-0.463701,0.000821,-0.341347,0.000574,0.233354,-0.000363,-0.039883,-0.010696
0.040000,0.003600,0.005400,0.007200,0.009999,0.011999,0.013998,0.062635,0.089997,0.134990,0.179977,0.249950,0.299914,0.349863,1.557633,-0.000144,-0.000486,-0.001152,-0.002500,-0.004320,-0.006859,-0.617556,0.001085,-0.396492,0.000732,0.205509,-0.000508,-0.041252,-0.013715
0.050000,0.004500,0.006750,0.008999,0.012499,0.014998,0.017496,0.078178,0.089996,0.134985,0.179964,0.249922,0.299865,0.349786,1.550690,-0.000180,-0.000607,-0.001440,-0.003125,-0.005399,-0.008573,-0.770803,0.001361,-0.451689,0.000890,0.177641,-0.000673,-0.042617,-0.016722
0.060000,0.005400,0.008100,0.010799,0.014998,0.017996,0.020994,0.093644,0.089994,0.134978,0.179948,0.249888,0.299806,0.349691,1.542219,-0.000216,-0.000729,-0.001728,-0.003749,-0.006479,-0.010287,-0.923290,0.001647,-0.506931,0.001048,0.149753,-0.000858,-0.043976,-0.019713
0.070000,0.006300,0.009449,0.012598,0.017496,0.020994,0.024490,0.109017,0.089991,0.134970,0.179929,0.249847,0.299735,0.349580,1.532227,-0.000252,-0.000850,-0.002016,-0.004374,-0.007558,-0.012000,-1.074866,0.001944,-0.562210,0.001207,0.121849,-0.001062,-0.045328,-0.022684
0.080000,0.007200,0.010799,0.014398,0.019995,0.023991,0.027985,0.124283,0.089988,0.134961,0.179908,0.249800,0.299654,0.349451,1.520725,-0.000288,-0.000972,-0.002304,-0.004999,-0.008637,-0.013713,-1.225383,0.002251,-0.617519,0.001367,0.093934,-0.001285,-0.046671,-0.025630
0.090000,0.008100,0.012149,0.016197,0.022492,0.026987,0.031479,0.139427,0.089985,0.134951,0.179883,0.249747,0.299563,0.349306,1.507724,-0.000324,-0.001093,-0.002591,-0.005623,-0.009715,-0.015425,-1.374692,0.002567,-0.672851,0.001528,0.066012,-0.001528,-0.048005,-0.028548
0.100000,0.008999,0.013498,0.017995,0.024990,0.029982,0.034971,0.154433,0.089982,0.134939,0.179856,0.249688,0.299460,0.349143,1.493236,-0.000360,-0.001215,-0.002879,-0.006247,-0.010794,-0.017136,-1.522645,0.002892,-0.728198,0.001690,0.038086,-0.001788,-0.049327,-0.031435
0.110000,0.009899,0.014847,0.019794,0.027486,0.032976,0.038462,0.169287,0.089978,0.134926,0.179826,0.249622,0.299347,0.348963,1.477276,-0.000396,-0.001336,-0.003167,-0.006872,-0.011871,-0.018846,-1.669098,0.003226,-0.783554,0.001853,0.010161,-0.002067,-0.050639,-0.034287
0.120000,0.010799,0.016197,0.021592,0.029982,0.035969,0.041951,0.183973,0.089974,0.134913,0.179793,0.249550,0.299223,0.348766,1.459860,-0.000432,-0.001458,-0.003455,-0.007496,-0.012949,-0.020556,-1.813904,0.003567,-0.838911,0.002017,-0.017760,-0.002362,-0.051937,-0.037099
0.130000,0.011699,0.017546,0.023389,0.032477,0.038960,0.045437,0.198479,0.089970,0.134897,0.179757,0.249472,0.299088,0.348552,1.441004,-0.000468,-0.001579,-0.003742,-0.008119,-0.014026,-0.022264,-1.956923,0.003914,-0.894262,0.002183,-0.045672,-0.002675,-0.053221,-0.039869
0.140000,0.012598,0.018894,0.025187,0.034971,0.041951,0.048922,0.212789,0.089965,0.134881,0.179718,0.249388,0.298942,0.348321,1.420727,-0.000504,-0.001700,-0.004030,-0.008743,-0.015102,-0.023972,-2.098012,0.004268,-0.949601,0.002351,-0.073573,-0.003002,-0.054491,-0.042594
0.150000,0.013498,0.020243,0.026984,0.037465,0.044939,0.052404,0.226889,0.089960,0.134863,0.179676,0.249297,0.298786,0.348072,1.399050,-0.000540,-0.001822,-0.004317,-0.009366,-0.016178,-0.025678,-2.237033,0.004628,-1.004920,0.002520,-0.101459,-0.003345,-0.055746,-0.045269
0.160000,0.014398,0.021592,0.028780,0.039957,0.047926,0.055883,0.240765,0.089954,0.134845,0.179631,0.249200,0.298619,0.347807,1.375994,-0.000576,-0.001943,-0.004605,-0.009989,-0.017253,-0.027383,-2.373848,0.004993,-1.060215,0.002692,-0.129326,-0.003702,-0.056984,-0.047893
0.170000,0.015297,0.022940,0.030576,0.042449,0.050912,0.059360,0.254404,0.089948,0.134824,0.179584,0.249097,0.298441,0.347525,1.351581,-0.000612,-0.002065,-0.004892,-0.010612,-0.018328,-0.029086,-2.508323,0.005362,-1.115478,0.002867,-0.157171,-0.004073,-0.058206,-0.050462
0.180000,0.016197,0.024288,0.032372,0.044939,0.053895,0.062833,0.267792,0.089942,0.134803,0.179534,0.248988,0.298252,0.347225,1.325836,-0.000648,-0.002186,-0.005180,-0.011235,-0.019402,-0.030788,-2.640326,0.005734,-1.170704,0.003044,-0.184991,-0.004456,-0.059411,-0.052973
0.190000,0.017096,0.025636,0.034167,0.047429,0.056877,0.066304,0.280917,0.089935,0.134781,0.179480,0.248873,0.298053,0.346909,1.298783,-0.000684,-0.002307,-0.005467,-0.011857,-0.020476,-0.032489,-2.769725,0.006110,-1.225888,0.003224,-0.212783,-0.004850,-0.060599,-0.055425
0.200000,0.017995,0.026984,0.035962,0.049917,0.059856,0.069772,0.293764,0.089928,0.134757,0.179424,0.248751,0.297843,0.346576,1.270451,-0.000720,-0.002429,-0.005754,-0.012479,-0.021548,-0.034188,-2.896393,0.006488,-1.281024,0.003408,-0.240545,-0.005255,-0.061769,-0.057813
0.210000,0.018894,0.028331,0.037756,0.052404,0.062833,0.073236,0.306321,0.089921,0.134732,0.179365,0.248623,0.297622,0.346225,1.240865,-0.000756,-0.002550,-0.006041,-0.013101,-0.022620,-0.035885,-3.020206,0.006869,-1.336107,0.003595,-0.268273,-0.005670,-0.062921,-0.060136
0.220000,0.019794,0.029678,0.039549,0.054889,0.065809,0.076696,0.318577,0.089913,0.134706,0.179303,0.248489,0.297390,0.345858,1.210056,-0.000792,-0.002671,-0.006328,-0.013722,-0.023691,-0.037581,-3.141042,0.007250,-1.391135,0.003787,-0.295967,-0.006093,-0.064056,-0.062393
0.230000,0.020693,0.031025,0.041342,0.057373,0.068781,0.080153,0.330519,0.089905,0.134679,0.179239,0.248349,0.297148,0.345474,1.178055,-0.000828,-0.002792,-0.006615,-0.014343,-0.024761,-0.039275,-3.258780,0.007633,-1.446101,0.003983,-0.323622,-0.006524,-0.065173,-0.064580
0.240000,0.021592,0.032372,0.043134,0.059856,0.071751,0.083605,0.342134,0.089896,0.134650,0.179171,0.248202,0.296895,0.345072,1.144891,-0.000864,-0.002913,-0.006901,-0.014964,-0.025831,-0.040967,-3.373306,0.008016,-1.501004,0.004184,-0.351239,-0.006962,-0.066273,-0.066696
0.250000,0.022491,0.033718,0.044925,0.062337,0.074719,0.087054,0.353413,0.089888,0.134620,0.179101,0.248049,0.296631,0.344654,1.110600,-0.000900,-0.003035,-0.007188,-0.015584,-0.026899,-0.042656,-3.484507,0.008399,-1.555839,0.004390,-0.378815,-0.007405,-0.067355,-0.068739
0.260000,0.023389,0.035064,0.046716,0.064817,0.077684,0.090498,0.364343,0.089878,0.134590,0.179027,0.247890,0.296357,0.344219,1.075213,-0.000936,-0.003156,-0.007475,-0.016204,-0.027966,-0.044344,-3.592272,0.008782,-1.610605,0.004601,-0.406348,-0.007853,-0.068420,-0.070708
0.270000,0.024288,0.036410,0.048506,0.067295,0.080646,0.093938,0.374913,0.089869,0.134557,0.178951,0.247725,0.296072,0.343767,1.038766,-0.000972,-0.003277,-0.007761,-0.016824,-0.029033,-0.046030,-3.696495,0.009164,-1.665298,0.004819,-0.433837,-0.008304,-0.069469,-0.072601
0.280000,0.025187,0.037756,0.050295,0.069772,0.083605,0.097374,0.385114,0.089859,0.134524,0.178872,0.247554,0.295776,0.343299,1.001295,-0.001007,-0.003398,-0.008047,-0.017443,-0.030098,-0.047713,-3.797074,0.009544,-1.719917,0.005043,-0.461282,-0.008758,-0.070503,-0.074417
0.290000,0.026085,0.039101,0.052083,0.072246,0.086562,0.100804,0.394936,0.089849,0.134489,0.178790,0.247376,0.295470,0.342813,0.962837,-0.001043,-0.003519,-0.008333,-0.018062,-0.031162,-0.049394,-3.893910,0.009924,-1.774460,0.005274,-0.488681,-0.009214,-0.071521,-0.076155
0.300000,0.026984,0.040445,0.053870,0.074719,0.089515,0.104230,0.404368,0.089838,0.134454,0.178706,0.247193,0.295153,0.342311,0.923430,-0.001079,-0.003640,-0.008619,-0.018680,-0.032225,-0.051073,-3.986907,0.010301,-1.828926,0.005512,-0.516034,-0.009670,-0.072524,-0.077814
0.310000,0.027882,0.041790,0.055657,0.077190,0.092465,0.107650,0.413401,0.089827,0.134417,0.178618,0.247003,0.294826,0.341792,0.883112,-0.001115,-0.003761,-0.008905,-0.019298,-0.033287,-0.052749,-4.075973,0.010677,-1.883314,0.005759,-0.543340,-0.010125,-0.073514,-0.079393
0.320000,0.028780,0.043134,0.057443,0.079659,0.095411,0.111066,0.422027,0.089816,0.134378,0.178527,0.246807,0.294487,0.341256,0.841924,-0.001151,-0.003882,-0.009191,-0.019915,-0.034348,-0.054422,-4.161021,0.011050,-1.937624,0.006013,-0.570598,-0.010579,-0.074492,-0.080891
0.330000,0.029678,0.044477,0.059228,0.082126,0.098354,0.114476,0.430237,0.089804,0.134339,0.178434,0.246605,0.294139,0.340703,0.799905,-0.001187,-0.004003,-0.009476,-0.020532,-0.035408,-0.056093,-4.241967,0.011420,-1.991854,0.006276,-0.597809,-0.011031,-0.075457,-0.082308
0.340000,0.030576,0.045820,0.061012,0.084591,0.101294,0.117880,0.438023,0.089792,0.134298,0.178338,0.246396,0.293779,0.340134,0.757098,-0.001223,-0.004124,-0.009762,-0.021148,-0.036466,-0.057761,-4.318730,0.011789,-2.046007,0.006548,-0.624973,-0.011479,-0.076412,-0.083642
0.350000,0.031474,0.047163,0.062794,0.087054,0.104230,0.121278,0.445377,0.089780,0.134256,0.178239,0.246182,0.293409,0.339548,0.713545,-0.001259,-0.004245,-0.010047,-0.021764,-0.037523,-0.059426,-4.391236,0.012154,-2.100080,0.006830,-0.652089,-0.011923,-0.077357,-0.084895
0.360000,0.032372,0.048506,0.064576,0.089515,0.107162,0.124671,0.452291,0.089767,0.134213,0.178137,0.245961,0.293029,0.338945,0.669288,-0.001295,-0.004366,-0.010332,-0.022379,-0.038578,-0.061089,-4.459412,0.012516,-2.154077,0.007122,-0.679159,-0.012361,-0.078294,-0.086065
0.370000,0.033270,0.049847,0.066357,0.091973,0.110090,0.128057,0.458760,0.089754,0.134169,0.178032,0.245734,0.292638,0.338326,0.624371,-0.001331,-0.004486,-0.010617,-0.022993,-0.039633,-0.062748,-4.523192,0.012875,-2.207996,0.007424,-0.706181,-0.012794,-0.079223,-0.087153
0.380000,0.034167,0.051189,0.068137,0.094429,0.113015,0.131437,0.464777,0.089740,0.134124,0.177925,0.245501,0.292236,0.337691,0.578839,-0.001367,-0.004607,-0.010902,-0.023607,-0.040685,-0.064404,-4.582513,0.013231,-2.261839,0.007738,-0.733157,-0.013219,-0.080145,-0.088158
0.390000,0.035064,0.052530,0.069916,0.096883,0.115935,0.134811,0.470335,0.089726,0.134077,0.177814,0.245262,0.291824,0.337038,0.532736,-0.001403,-0.004728,-0.011186,-0.024221,-0.041737,-0.066057,-4.637316,0.013584,-2.315608,0.008063,-0.760087,-0.013636,-0.081063,-0.089080
0.400000,0.035962,0.053870,0.071693,0.099335,0.118851,0.138178,0.475430,0.089712,0.134029,0.177701,0.245017,0.291401,0.336369,0.486108,-0.001438,-0.004848,-0.011471,-0.024834,-0.042786,-0.067707,-4.687547,0.013933,-2.369304,0.008400,-0.786972,-0.014044,-0.081976,-0.089919
0.410000,0.036859,0.055211,0.073470,0.101784,0.121763,0.141538,0.480056,0.089698,0.133980,0.177585,0.244765,0.290968,0.335684,0.439000,-0.001474,-0.004969,-0.011755,-0.025446,-0.043835,-0.069354,-4.733157,0.014278,-2.422927,0.008749,-0.813812,-0.014443,-0.082887,-0.090677
0.420000,0.037756,0.056550,0.075245,0.104230,0.124671,0.144891,0.484208,0.089683,0.133930,0.177466,0.244508,0.290525,0.334982,0.391460,-0.001510,-0.005090,-0.012039,-0.026057,-0.044881,-0.070997,-4.774100,0.014620,-2.476481,0.009111,-0.840608,-0.014831,-0.083797,-0.091352
0.430000,0.038652,0.057889,0.077019,0.106674,0.127574,0.148238,0.487884,0.089667,0.133878,0.177344,0.244244,0.290071,0.334264,0.343534,-0.001546,-0.005210,-0.012323,-0.026668,-0.045927,-0.072636,-4.810337,0.014957,-2.529965,0.009486,-0.867360,-0.015208,-0.084706,-0.091945
0.440000,0.039549,0.059228,0.078792,0.109115,0.130472,0.151577,0.491078,0.089652,0.133826,0.177219,0.243974,0.289606,0.333530,0.295269,-0.001582,-0.005330,-0.012607,-0.027279,-0.046970,-0.074273,-4.841831,0.015291,-2.583382,0.009874,-0.894070,-0.015572,-0.085617,-0.092456
0.450000,0.040445,0.060566,0.080563,0.111553,0.133366,0.154908,0.493788,0.089636,0.133772,0.177092,0.243699,0.289131,0.332779,0.246713,-0.001618,-0.005451,-0.012890,-0.027888,-0.048012,-0.075905,-4.868552,0.015620,-2.636734,0.010277,-0.920738,-0.015923,-0.086529,-0.092887
0.460000,0.041342,0.061903,0.082334,0.113989,0.136255,0.158232,0.496011,0.089619,0.133717,0.176962,0.243417,0.288646,0.332012,0.197914,-0.001654,-0.005571,-0.013173,-0.028497,-0.049052,-0.077534,-4.890473,0.015945,-2.690021,0.010694,-0.947365,-0.016260,-0.087445,-0.093237
0.470000,0.042238,0.063240,0.084103,0.116421,0.139139,0.161548,0.497746,0.089603,0.133660,0.176828,0.243129,0.288150,0.331228,0.148920,-0.001690,-0.005692,-0.013456,-0.029105,-0.050090,-0.079159,-4.907573,0.016265,-2.743246,0.011125,-0.973951,-0.016583,-0.088365,-0.093508
0.480000,0.043134,0.064576,0.085870,0.118851,0.142018,0.164857,0.498989,0.089586,0.133603,0.176692,0.242834,0.287644,0.330428,0.099779,-0.001725,-0.005812,-0.013739,-0.029713,-0.051126,-0.080780,-4.919834,0.016581,-2.796409,0.011572,-1.000497,-0.016890,-0.089291,-0.093699
0.490000,0.044029,0.065912,0.087636,0.121278,0.144891,0.168157,0.499741,0.089568,0.133544,0.176554,0.242534,0.287128,0.329612,0.050540,-0.001761,-0.005932,-0.014022,-0.030320,-0.052161,-0.082397,-4.927245,0.016891,-2.849512,0.012034,-1.027003,-0.017181,-0.090224,-0.093811
0.500000,0.044925,0.067247,0.089401,0.123702,0.147760,0.171449,0.500000,0.089550,0.133484,0.176412,0.242228,0.286601,0.328780,0.001250,-0.001797,-0.006052,-0.014304,-0.030925,-0.053194,-0.084010,-4.929798,0.017195,-2.902556,0.012511,-1.053470,-0.017454,-0.091164,-0.093845
0.510000,0.045820,0.068582,0.091165,0.126123,0.150623,0.174732,0.499766,0.089532,0.133423,0.176268,0.241916,0.286064,0.327932,-0.048040,-0.001833,-0.006172,-0.014586,-0.031531,-0.054224,-0.085619,-4.927492,0.017494,-2.955541,0.013005,-1.079898,-0.017710,-0.092112,-0.093802
0.520000,0.046716,0.069916,0.092927,0.128540,0.153481,0.178007,0.499039,0.089514,0.133361,0.176120,0.241597,0.285516,0.327068,-0.097283,-0.001869,-0.006292,-0.014868,-0.032135,-0.055253,-0.087224,-4.920327,0.017786,-3.008468,0.013514,-1.106288,-0.017948,-0.093070,-0.093683
0.530000,0.047611,0.071249,0.094687,0.130955,0.156334,0.181274,0.497821,0.089495,0.133297,0.175970,0.241273,0.284959,0.326188,-0.146431,-0.001904,-0.006412,-0.015150,-0.032739,-0.056280,-0.088824,-4.908311,0.018071,-3.061338,0.014040,-1.132638,-0.018165,-0.094038,-0.093487
0.540000,0.048506,0.072582,0.096446,0.133366,0.159180,0.184531,0.496111,0.089476,0.133232,0.175817,0.240943,0.284391,0.325292,-0.195433,-0.001940,-0.006532,-0.015431,-0.033341,-0.057305,-0.090420,-4.891457,0.018349,-3.114150,0.014583,-1.158950,-0.018363,-0.095017,-0.093217
0.550000,0.049400,0.073914,0.098203,0.135773,0.162022,0.187780,0.493912,0.089456,0.133166,0.175662,0.240606,0.283813,0.324379,-0.244244,-0.001976,-0.006652,-0.015713,-0.033943,-0.058328,-0.092012,-4.869780,0.018619,-3.166905,0.015143,-1.185223,-0.018540,-0.096007,-0.092873
0.560000,0.050295,0.075245,0.099959,0.138178,0.164857,0.191019,0.491227,0.089436,0.133099,0.175503,0.240264,0.283224,0.323451,-0.292813,-0.002012,-0.006772,-0.015993,-0.034544,-0.059348,-0.093599,-4.843302,0.018881,-3.219601,0.015719,-1.211457,-0.018695,-0.097009,-0.092456
0.570000,0.051189,0.076576,0.101713,0.140579,0.167686,0.194249,0.488057,0.089416,0.133031,0.175342,0.239915,0.282626,0.322507,-0.341094,-0.002048,-0.006892,-0.016274,-0.035145,-0.060367,-0.095182,-4.812049,0.019133,-3.272239,0.016313,-1.237651,-0.018828,-0.098024,-0.091966
0.580000,0.052083,0.077905,0.103466,0.142976,0.170509,0.197469,0.484406,0.089395,0.132962,0.175178,0.239561,0.282017,0.321548,-0.389038,-0.002083,-0.007011,-0.016555,-0.035744,-0.061383,-0.096760,-4.776052,0.019376,-3.324816,0.016924,-1.263804,-0.018937,-0.099052,-0.091406
0.590000,0.052977,0.079235,0.105217,0.145370,0.173326,0.200679,0.480278,0.089374,0.132891,0.175011,0.239201,0.281398,0.320572,-0.436599,-0.002119,-0.007131,-0.016835,-0.036342,-0.062397,-0.098333,-4.735346,0.019608,-3.377331,0.017552,-1.289916,-0.019022,-0.100092,-0.090775
0.600000,0.053870,0.080563,0.106966,0.147760,0.176137,0.203880,0.475676,0.089353,0.132819,0.174841,0.238834,0.280769,0.319581,-0.483730,-0.002155,-0.007251,-0.017115,-0.036940,-0.063409,-0.099901,-4.689972,0.019828,-3.429783,0.018198,-1.315985,-0.019083,-0.101146,-0.090075
0.610000,0.054764,0.081891,0.108714,0.150147,0.178942,0.207071,0.470605,0.089331,0.132746,0.174668,0.238462,0.280130,0.318574,-0.530383,-0.002191,-0.007370,-0.017394,-0.037537,-0.064419,-0.101465,-4.639974,0.020037,-3.482168,0.018862,-1.342011,-0.019118,-0.102214,-0.089307
0.620000,0.055657,0.083218,0.110460,0.152529,0.181740,0.210252,0.465070,0.089309,0.132671,0.174493,0.238083,0.279481,0.317552,-0.576514,-0.002226,-0.007490,-0.017674,-0.038132,-0.065426,-0.103023,-4.585402,0.020233,-3.534485,0.019543,-1.367991,-0.019127,-0.103294,-0.088471
0.630000,0.056550,0.084545,0.112204,0.154908,0.184531,0.213422,0.459076,0.089287,0.132596,0.174315,0.237699,0.278821,0.316514,-0.622076,-0.002262,-0.007609,-0.017953,-0.038727,-0.066431,-0.104577,-4.526309,0.020414,-3.586730,0.020241,-1.393924,-0.019109,-0.104388,-0.087570
0.640000,0.057443,0.085870,0.113946,0.157283,0.187316,0.216582,0.452630,0.089264,0.132519,0.174134,0.237309,0.278152,0.315460,-0.667025,-0.002298,-0.007728,-0.018231,-0.039321,-0.067434,-0.106125,-4.462754,0.020581,-3.638899,0.020958,-1.419809,-0.019064,-0.105495,-0.086605
0.650000,0.058335,0.087195,0.115686,0.159654,0.190094,0.219731,0.445738,0.089241,0.132441,0.173950,0.236913,0.277473,0.314391,-0.711317,-0.002333,-0.007848,-0.018510,-0.039914,-0.068434,-0.107668,-4.394799,0.020733,-3.690988,0.021691,-1.445642,-0.018990,-0.106614,-0.085576
0.660000,0.059228,0.088519,0.117425,0.162022,0.192865,0.222870,0.438406,0.089217,0.132362,0.173764,0.236511,0.276783,0.313307,-0.754907,-0.002369,-0.007967,-0.018788,-0.040505,-0.069432,-0.109206,-4.322511,0.020867,-3.742994,0.022443,-1.471422,-0.018887,-0.107744,-0.084485
0.670000,0.060120,0.089842,0.119162,0.164385,0.195630,0.225997,0.430642,0.089193,0.132282,0.173574,0.236103,0.276084,0.312207,-0.797753,-0.002405,-0.008086,-0.019066,-0.041096,-0.070427,-0.110739,-4.245961,0.020984,-3.794912,0.023212,-1.497146,-0.018754,-0.108887,-0.083333
0.680000,0.061012,0.091165,0.120896,0.166744,0.198387,0.229114,0.422454,0.089169,0.132201,0.173382,0.235689,0.275375,0.311092,-0.839812,-0.002440,-0.008205,-0.019343,-0.041686,-0.071419,-0.112266,-4.165226,0.021083,-3.846736,0.023998,-1.522812,-0.018592,-0.110039,-0.082122
0.690000,0.061903,0.092486,0.122629,0.169098,0.201137,0.232219,0.413849,0.089144,0.132118,0.173188,0.235269,0.274656,0.309962,-0.881043,-0.002476,-0.008324,-0.019621,-0.042275,-0.072409,-0.113787,-4.080384,0.021162,-3.898462,0.024802,-1.548416,-0.018398,-0.111202,-0.080853
0.700000,0.062794,0.093807,0.124360,0.171449,0.203880,0.235313,0.404836,0.089119,0.132034,0.172990,0.234843,0.273927,0.308817,-0.921406,-0.002512,-0.008443,-0.019898,-0.042862,-0.073397,-0.115303,-3.991520,0.021220,-3.950082,0.025623,-1.573955,-0.018173,-0.112373,-0.079528
0.710000,0.063685,0.095127,0.126089,0.173795,0.206616,0.238395,0.395424,0.089094,0.131949,0.172790,0.234412,0.273188,0.307656,-0.960861,-0.002547,-0.008561,-0.020174,-0.043449,-0.074382,-0.116814,-3.898720,0.021257,-4.001592,0.026461,-1.599426,-0.017915,-0.113552,-0.078148
0.720000,0.064576,0.096446,0.127816,0.176137,0.209344,0.241466,0.385622,0.089068,0.131863,0.172586,0.233974,0.272439,0.306480,-0.999368,-0.002583,-0.008680,-0.020451,-0.044034,-0.075364,-0.118318,-3.802077,0.021272,-4.052985,0.027316,-1.624826,-0.017626,-0.114737,-0.076714
0.730000,0.065467,0.097764,0.129541,0.178475,0.212065,0.244525,0.375440,0.089042,0.131776,0.172381,0.233531,0.271681,0.305290,-1.036890,-0.002619,-0.008799,-0.020727,-0.044619,-0.076343,-0.119817,-3.701685,0.021264,-4.104254,0.028188,-1.650151,-0.017303,-0.115928,-0.075229
0.740000,0.066357,0.099081,0.131263,0.180808,0.214778,0.247572,0.364887,0.089016,0.131687,0.172172,0.233082,0.270912,0.304084,-1.073389,-0.002654,-0.008917,-0.021002,-0.045202,-0.077320,-0.121310,-3.597644,0.021232,-4.155393,0.029078,-1.675397,-0.016947,-0.117123,-0.073694
0.750000,0.067247,0.100398,0.132984,0.183136,0.217483,0.250607,0.353975,0.088989,0.131597,0.171961,0.232627,0.270134,0.302863,-1.108831,-0.002690,-0.009036,-0.021277,-0.045784,-0.078294,-0.122797,-3.490056,0.021176,-4.206393,0.029984,-1.700560,-0.016558,-0.118320,-0.072112
0.760000,0.068137,0.101713,0.134703,0.185460,0.220180,0.253629,0.342714,0.088962,0.131506,0.171746,0.232166,0.269346,0.301628,-1.143179,-0.002725,-0.009154,-0.021552,-0.046365,-0.079265,-0.124278,-3.379028,0.021093,-4.257249,0.030907,-1.725636,-0.016134,-0.119518,-0.070483
0.770000,0.069026,0.103028,0.136419,0.187780,0.222870,0.256639,0.331116,0.088935,0.131414,0.171530,0.231700,0.268549,0.300378,-1.176400,-0.002761,-0.009273,-0.021827,-0.046945,-0.080233,-0.125753,-3.264668,0.020985,-4.307952,0.031846,-1.750621,-0.015676,-0.120715,-0.068810
0.780000,0.069916,0.104342,0.138133,0.190094,0.225551,0.259636,0.319190,0.088907,0.131321,0.171310,0.231227,0.267742,0.299113,-1.208462,-0.002797,-0.009391,-0.022101,-0.047524,-0.081198,-0.127222,-3.147089,0.020851,-4.358494,0.032802,-1.775511,-0.015184,-0.121910,-0.067094
0.790000,0.070805,0.105654,0.139845,0.192404,0.228224,0.262621,0.306950,0.088879,0.131226,0.171087,0.230749,0.266925,0.297833,-1.239332,-0.002832,-0.009509,-0.022375,-0.048101,-0.082161,-0.128684,-3.026408,0.020689,-4.408870,0.033774,-1.800301,-0.014657,-0.123100,-0.065339
0.800000,0.071693,0.106966,0.141555,0.194709,0.230890,0.265593,0.294408,0.088850,0.131131,0.170862,0.230265,0.266098,0.296539,-1.268980,-0.002868,-0.009627,-0.022649,-0.048677,-0.083120,-0.130141,-2.902743,0.020501,-4.459070,0.034763,-1.824987,-0.014096,-0.124285,-0.063546
0.810000,0.072582,0.108277,0.143262,0.197009,0.233546,0.268552,0.281575,0.088822,0.131034,0.170635,0.229776,0.265262,0.295231,-1.297377,-0.002903,-0.009745,-0.022922,-0.049252,-0.084077,-0.131590,-2.776216,0.020284,-4.509087,0.035768,-1.849564,-0.013501,-0.125461,-0.061717
0.820000,0.073470,0.109587,0.144968,0.199305,0.236195,0.271498,0.268465,0.088792,0.130936,0.170404,0.229280,0.264417,0.293908,-1.324495,-0.002939,-0.009863,-0.023195,-0.049826,-0.085030,-0.133034,-2.646953,0.020040,-4.558913,0.036789,-1.874029,-0.012871,-0.126628,-0.059854
0.830000,0.074357,0.110896,0.146671,0.201595,0.238835,0.274430,0.255089,0.088763,0.130837,0.170171,0.228779,0.263562,0.292570,-1.350307,-0.002974,-0.009981,-0.023467,-0.050399,-0.085980,-0.134471,-2.515079,0.019769,-4.608542,0.037827,-1.898377,-0.012207,-0.127782,-0.057960
0.840000,0.075245,0.112204,0.148371,0.203880,0.241466,0.277349,0.241463,0.088733,0.130736,0.169935,0.228272,0.262697,0.291218,-1.374788,-0.003010,-0.010098,-0.023739,-0.050970,-0.086928,-0.135901,-2.380727,0.019470,-4.657966,0.038881,-1.922603,-0.011510,-0.128923,-0.056037
0.850000,0.076132,0.113510,0.150069,0.206160,0.244089,0.280254,0.227598,0.088703,0.130635,0.169696,0.227760,0.261823,0.289852,-1.397914,-0.003045,-0.010216,-0.024011,-0.051540,-0.087872,-0.137325,-2.244027,0.019143,-4.707178,0.039951,-1.946704,-0.010779,-0.130048,-0.054088
0.860000,0.077019,0.114816,0.151765,0.208435,0.246702,0.283146,0.213509,0.088672,0.130532,0.169454,0.227241,0.260940,0.288472,-1.419662,-0.003081,-0.010333,-0.024282,-0.052109,-0.088813,-0.138742,-2.105114,0.018789,-4.756172,0.041037,-1.970674,-0.010015,-0.131155,-0.052115
0.870000,0.077905,0.116121,0.153458,0.210705,0.249307,0.286024,0.199210,0.088641,0.130428,0.169210,0.226718,0.260047,0.287077,-1.440009,-0.003116,-0.010451,-0.024553,-0.052676,-0.089751,-0.140152,-1.964127,0.018409,-4.804940,0.042139,-1.994511,-0.009219,-0.132242,-0.050120
0.880000,0.078792,0.117425,0.155149,0.212970,0.251903,0.288888,0.184714,0.088610,0.130323,0.168963,0.226188,0.259145,0.285669,-1.458938,-0.003152,-0.010568,-0.024824,-0.053242,-0.090685,-0.141555,-1.821203,0.018003,-4.853477,0.043258,-2.018210,-0.008391,-0.133307,-0.048107
0.890000,0.079678,0.118728,0.156838,0.215229,0.254490,0.291737,0.170036,0.088578,0.130217,0.168714,0.225653,0.258233,0.284246,-1.476427,-0.003187,-0.010685,-0.025094,-0.053807,-0.091616,-0.142951,-1.676483,0.017572,-4.901778,0.044393,-2.041767,-0.007532,-0.134348,-0.046077
0.900000,0.080563,0.120029,0.158523,0.217483,0.257068,0.294572,0.155190,0.088546,0.130109,0.168461,0.225112,0.257313,0.282810,-1.492462,-0.003223,-0.010803,-0.025364,-0.054371,-0.092544,-0.144340,-1.530111,0.017117,-4.949836,0.045545,-2.065179,-0.006643,-0.135364,-0.044033
0.910000,0.081449,0.121330,0.160207,0.219731,0.259636,0.297393,0.140191,0.088514,0.130000,0.168206,0.224565,0.256383,0.281359,-1.507025,-0.003258,-0.010920,-0.025633,-0.054933,-0.093469,-0.145723,-1.382230,0.016638,-4.997647,0.046714,-2.088443,-0.005725,-0.136352,-0.041979
0.920000,0.082334,0.122629,0.161888,0.221974,0.262196,0.300200,0.125054,0.088481,0.129891,0.167949,0.224013,0.255443,0.279895,-1.520102,-0.003293,-0.011037,-0.025902,-0.055494,-0.094390,-0.147098,-1.232986,0.016138,-5.045208,0.047899,-2.111555,-0.004779,-0.137310,-0.039917
0.930000,0.083218,0.123928,0.163566,0.224211,0.264745,0.302991,0.109794,0.088448,0.129780,0.167688,0.223455,0.254495,0.278417,-1.531680,-0.003329,-0.011153,-0.026171,-0.056053,-0.095308,-0.148466,-1.082527,0.015616,-5.092514,0.049101,-2.134513,-0.003806,-0.138238,-0.037848
0.940000,0.084103,0.125225,0.165241,0.226443,0.267285,0.305768,0.094426,0.088414,0.129668,0.167425,0.222892,0.253537,0.276926,-1.541749,-0.003364,-0.011270,-0.026439,-0.056611,-0.096223,-0.149826,-0.931001,0.015075,-5.139562,0.050321,-2.157314,-0.002807,-0.139132,-0.035778
0.950000,0.084987,0.126521,0.166914,0.228669,0.269816,0.308530,0.078964,0.088380,0.129554,0.167160,0.222323,0.252570,0.275421,-1.550297,-0.003399,-0.011387,-0.026706,-0.057167,-0.097134,-0.151179,-0.778557,0.014516,-5.186349,0.051558,-2.179956,-0.001784,-0.139992,-0.033707
0.960000,0.085870,0.127816,0.168584,0.230890,0.272337,0.311276,0.063425,0.088346,0.129440,0.166891,0.221749,0.251594,0.273902,-1.557317,-0.003435,-0.011503,-0.026974,-0.057722,-0.098041,-0.152525,-0.625345,0.013941,-5.232874,0.052812,-2.202437,-0.000737,-0.140817,-0.031638
0.970000,0.086753,0.129110,0.170252,0.233104,0.274848,0.314008,0.047823,0.088312,0.129324,0.166620,0.221169,0.250609,0.272370,-1.562802,-0.003470,-0.011620,-0.027240,-0.058276,-0.098945,-0.153864,-0.471517,0.013351,-5.279136,0.054084,-2.224755,0.000331,-0.141604,-0.029576
0.980000,0.087636,0.130402,0.171917,0.235313,0.277349,0.316724,0.032174,0.088277,0.129207,0.166346,0.220583,0.249616,0.270825,-1.566746,-0.003505,-0.011736,-0.027507,-0.058828,-0.099846,-0.155195,-0.317224,0.012748,-5.325134,0.055374,-2.246908,0.001420,-0.142353,-0.027521
0.990000,0.088519,0.131694,0.173579,0.237516,0.279840,0.319424,0.016493,0.088242,0.129090,0.166070,0.219992,0.248613,0.269267,-1.569146,-0.003541,-0.011852,-0.027773,-0.059379,-0.100742,-0.156518,-0.162618,0.012134,-5.370867,0.056683,-2.268897,0.002527,-0.143063,-0.025477
1.000000,0.089401,0.132984,0.175238,0.239713,0.282321,0.322109,0.000796,0.088206,0.128970,0.165791,0.219396,0.247601,0.267695,-1.569998,-0.003576,-0.011969,-0.028038,-0.059928,-0.101636,-0.157833,-0.007851,0.011510,-5.416337,0.058010,-2.290720,0.003652,-0.143733,-0.023447
1.010000,0.090283,0.134273,0.176895,0.241904,0.284792,0.324778,-0.014901,0.088170,0.128850,0.165509,0.218794,0.246580,0.266110,-1.569303,-0.003611,-0.012085,-0.028303,-0.060476,-0.102525,-0.159141,0.146922,0.010880,-5.461544,0.059356,-2.312377,0.004792,-0.144361,-0.021433
1.020000,0.091165,0.135561,0.178548,0.244089,0.287253,0.327431,-0.030585,0.088134,0.128729,0.165225,0.218186,0.245550,0.264512,-1.567060,-0.003647,-0.012200,-0.028568,-0.061022,-0.103411,-0.160441,0.301552,0.010244,-5.506491,0.060721,-2.333868,0.005946,-0.144948,-0.019438
1.030000,0.092046,0.136848,0.180199,0.246267,0.289703,0.330068,-0.046238,0.088097,0.128606,0.164938,0.217573,0.244512,0.262901,-1.563273,-0.003682,-0.012316,-0.028832,-0.061567,-0.104293,-0.161733,0.455883,0.009604,-5.551181,0.062105,-2.355193,0.007112,-0.145492,-0.017464
1.040000,0.092927,0.138133,0.181847,0.248440,0.292143,0.332689,-0.061845,0.088060,0.128482,0.164648,0.216955,0.243464,0.261277,-1.557944,-0.003717,-0.012432,-0.029096,-0.062110,-0.105171,-0.163018,0.609766,0.008964,-5.595616,0.063509,-2.376354,0.008289,-0.145994,-0.015515
1.050000,0.093807,0.139417,0.183492,0.250607,0.294572,0.335294,-0.077391,0.088023,0.128358,0.164356,0.216331,0.242408,0.259641,-1.551079,-0.003752,-0.012548,-0.029359,-0.062652,-0.106046,-0.164294,0.763047,0.008324,-5.639801,0.064932,-2.397351,0.009474,-0.146453,-0.013592
1.060000,0.094687,0.140700,0.185134,0.252767,0.296991,0.337882,-0.092861,0.087985,0.128231,0.164061,0.215702,0.241343,0.257991,-1.542685,-0.003787,-0.012663,-0.029621,-0.063192,-0.106917,-0.165562,0.915576,0.007686,-5.683739,0.066376,-2.418185,0.010666,-0.146870,-0.011697
1.070000,0.095567,0.141982,0.186773,0.254921,0.299399,0.340453,-0.108240,0.087947,0.128104,0.163764,0.215067,0.240270,0.256330,-1.532771,-0.003823,-0.012778,-0.029884,-0.063730,-0.107784,-0.166822,1.067202,0.007054,-5.727436,0.067841,-2.438860,0.011863,-0.147244,-0.009834
1.080000,0.096446,0.143262,0.188410,0.257068,0.301797,0.343008,-0.123512,0.087909,0.127976,0.163463,0.214427,0.239188,0.254655,-1.521345,-0.003858,-0.012894,-0.030146,-0.064267,-0.108647,-0.168074,1.217776,0.006428,-5.770896,0.069325,-2.459376,0.013064,-0.147576,-0.008005
1.090000,0.097325,0.144542,0.190043,0.259209,0.304183,0.345546,-0.138662,0.087870,0.127846,0.163161,0.213782,0.238097,0.252968,-1.508419,-0.003893,-0.013009,-0.030407,-0.064802,-0.109506,-0.169318,1.367150,0.005810,-5.814127,0.070831,-2.479736,0.014265,-0.147866,-0.006212
1.100000,0.098203,0.145819,0.191673,0.261344,0.306558,0.348068,-0.153675,0.087831,0.127716,0.162855,0.213131,0.236998,0.251269,-1.494006,-0.003928,-0.013124,-0.030668,-0.065336,-0.110361,-0.170553,1.515176,0.005202,-5.857133,0.072357,-2.499943,0.015467,-0.148116,-0.004456
1.110000,0.099081,0.147096,0.193300,0.263472,0.308923,0.350572,-0.168537,0.087791,0.127584,0.162547,0.212475,0.235890,0.249557,-1.478121,-0.003963,-0.013239,-0.030928,-0.065868,-0.111212,-0.171780,1.661708,0.004606,-5.899922,0.073905,-2.519999,0.016667,-0.148325,-0.002741
1.120000,0.099959,0.148371,0.194924,0.265593,0.311276,0.353059,-0.183233,0.087752,0.127451,0.162237,0.211814,0.234773,0.247833,-1.460778,-0.003998,-0.013353,-0.031188,-0.066398,-0.112059,-0.172999,1.806601,0.004024,-5.942501,0.075474,-2.539909,0.017863,-0.148495,-0.001067
1.130000,0.100836,0.149645,0.196545,0.267708,0.313618,0.355528,-0.197748,0.087711,0.127317,0.161924,0.211147,0.233649,0.246097,-1.441995,-0.004033,-0.013468,-0.031447,-0.066927,-0.112903,-0.174209,1.949714,0.003456,-5.984877,0.077064,-2.559675,0.019054,-0.148627,0.000562
1.140000,0.101713,0.150917,0.198162,0.269816,0.315949,0.357981,-0.212068,0.087671,0.127182,0.161608,0.210475,0.232515,0.244349,-1.421790,-0.004069,-0.013583,-0.031706,-0.067454,-0.113742,-0.175411,2.090904,0.002905,-6.027057,0.078676,-2.579301,0.020237,-0.148722,0.002145
1.150000,0.102590,0.152189,0.199777,0.271917,0.318269,0.360415,-0.226179,0.087630,0.127045,0.161289,0.209798,0.231374,0.242589,-1.400183,-0.004104,-0.013697,-0.031964,-0.067979,-0.114577,-0.176604,2.230034,0.002372,-6.069050,0.080310,-2.598792,0.021413,-0.148782,0.003681
1.160000,0.103466,0.153458,0.201388,0.274012,0.320577,0.362832,-0.240067,0.087589,0.126908,0.160969,0.209116,0.230224,0.240817,-1.377196,-0.004139,-0.013811,-0.032222,-0.068503,-0.115408,-0.177788,2.366964,0.001857,-6.110863,0.081965,-2.618150,0.022578,-0.148808,0.005168
1.170000,0.104342,0.154727,0.202996,0.276100,0.322873,0.365232,-0.253718,0.087547,0.126769,0.160645,0.208428,0.229066,0.239033,-1.352852,-0.004174,-0.013925,-0.032479,-0.069025,-0.116234,-0.178963,2.501561,0.001362,-6.152504,0.083641,-2.637381,0.023731,-0.148801,0.006604
1.180000,0.105217,0.155994,0.204601,0.278181,0.325158,0.367613,-0.267120,0.087505,0.126629,0.160319,0.207735,0.227899,0.237238,-1.327173,-0.004209,-0.014039,-0.032736,-0.069545,-0.117057,-0.180130,2.633692,0.000888,-6.193981,0.085339,-2.656489,0.024872,-0.148765,0.007987
1.190000,0.106092,0.157259,0.206202,0.280254,0.327431,0.369976,-0.280257,0.087463,0.126488,0.159990,0.207037,0.226725,0.235431,-1.300187,-0.004244,-0.014153,-0.032992,-0.070064,-0.117875,-0.181288,2.763226,0.000435,-6.235304,0.087059,-2.675478,0.025999,-0.148699,0.009317
1.200000,0.106966,0.158523,0.207801,0.282321,0.329692,0.372322,-0.293119,0.087420,0.126346,0.159659,0.206334,0.225542,0.233612,-1.271918,-0.004279,-0.014267,-0.033248,-0.070580,-0.118689,-0.182438,2.890036,0.000005,-6.276479,0.088800,-2.694352,0.027110,-0.148607,0.010591
1.210000,0.107840,0.159786,0.209396,0.284381,0.331942,0.374649,-0.305692,0.087377,0.126203,0.159325,0.205626,0.224351,0.231782,-1.242395,-0.004314,-0.014381,-0.033503,-0.071095,-0.119499,-0.183578,3.013997,-0.000403,-6.317514,0.090562,-2.713117,0.028204,-0.148491,0.011810
1.220000,0.108714,0.161047,0.210987,0.286434,0.334179,0.376957,-0.317963,0.087334,0.126058,0.158989,0.204912,0.223152,0.229940,-1.211648,-0.004349,-0.014494,-0.033758,-0.071608,-0.120305,-0.184709,3.134986,-0.000789,-6.358419,0.092346,-2.731777,0.029280,-0.148352,0.012971
1.230000,0.109587,0.162307,0.212575,0.288479,0.336405,0.379247,-0.329921,0.087290,0.125913,0.158650,0.204193,0.221945,0.228088,-1.179706,-0.004383,-0.014608,-0.034012,-0.072120,-0.121106,-0.185831,3.252885,-0.001151,-6.399200,0.094150,-2.750336,0.030338,-0.148193,0.014073
1.240000,0.110460,0.163566,0.214160,0.290518,0.338618,0.381519,-0.341553,0.087246,0.125766,0.158309,0.203470,0.220730,0.226224,-1.146601,-0.004418,-0.014721,-0.034266,-0.072629,-0.121903,-0.186944,3.367577,-0.001490,-6.439866,0.095975,-2.768800,0.031376,-0.148016,0.015116
1.250000,0.111332,0.164823,0.215741,0.292549,0.340819,0.383772,-0.352849,0.087202,0.125619,0.157965,0.202741,0.219507,0.224349,-1.112366,-0.004453,-0.014834,-0.034519,-0.073137,-0.122695,-0.188048,3.478948,-0.001807,-6.480424,0.097820,-2.787172,0.032392,-0.147823,0.016099
1.260000,0.112204,0.166078,0.217319,0.294572,0.343008,0.386006,-0.363797,0.087157,0.125470,0.157618,0.202007,0.218276,0.222463,-1.077033,-0.004488,-0.014947,-0.034771,-0.073643,-0.123483,-0.189143,3.586890,-0.002100,-6.520881,0.099686,-2.805459,0.033387,-0.147617,0.017021
1.270000,0.113075,0.167332,0.218894,0.296589,0.345185,0.388221,-0.374386,0.087112,0.125320,0.157269,0.201268,0.217037,0.220566,-1.040640,-0.004523,-0.015060,-0.035023,-0.074147,-0.124267,-0.190228,3.691296,-0.002371,-6.561244,0.101571,-2.823663,0.034360,-0.147399,0.017881
1.280000,0.113946,0.168584,0.220465,0.298598,0.347349,0.390417,-0.384606,0.087067,0.125168,0.156918,0.200524,0.215790,0.218658,-1.003220,-0.004558,-0.015173,-0.035274,-0.074649,-0.125046,-0.191304,3.792062,-0.002620,-6.601521,0.103476,-2.841790,0.035309,-0.147173,0.018679
1.290000,0.114816,0.169835,0.222032,0.300599,0.349501,0.392594,-0.394447,0.087021,0.125016,0.156564,0.199775,0.214536,0.216740,-0.964811,-0.004593,-0.015285,-0.035525,-0.075150,-0.125820,-0.192371,3.889090,-0.002848,-6.641717,0.105400,-2.859844,0.036235,-0.146941,0.019413
1.300000,0.115686,0.171085,0.223596,0.302593,0.351640,0.394752,-0.403899,0.086975,0.124863,0.156207,0.199021,0.213274,0.214811,-0.925451,-0.004627,-0.015398,-0.035775,-0.075648,-0.126590,-0.193428,3.982284,-0.003055,-6.681840,0.107342,-2.877830,0.037136,-0.146705,0.020084
1.310000,0.116556,0.172333,0.225156,0.304580,0.353766,0.396890,-0.412953,0.086929,0.124708,0.155848,0.198262,0.212004,0.212871,-0.885178,-0.004662,-0.015510,-0.036025,-0.076145,-0.127356,-0.194476,4.071552,-0.003242,-6.721895,0.109303,-2.895751,0.038013,-0.146467,0.020691
1.320000,0.117425,0.173579,0.226713,0.306558,0.355880,0.399009,-0.421600,0.086882,0.124553,0.155487,0.197498,0.210727,0.210922,-0.844033,-0.004697,-0.015622,-0.036274,-0.076640,-0.128117,-0.195515,4.156805,-0.003410,-6.761887,0.111282,-2.913612,0.038864,-0.146230,0.021234
1.330000,0.118293,0.174824,0.228266,0.308530,0.357981,0.401109,-0.429831,0.086835,0.124396,0.155123,0.196729,0.209442,0.208961,-0.802056,-0.004732,-0.015734,-0.036523,-0.077132,-0.128873,-0.196543,4.237961,-0.003560,-6.801824,0.113279,-2.931417,0.039689,-0.145996,0.021712
1.340000,0.119162,0.176067,0.229815,0.310493,0.360069,0.403188,-0.437638,0.086787,0.124238,0.154757,0.195955,0.208150,0.206991,-0.759288,-0.004766,-0.015846,-0.036770,-0.077623,-0.129625,-0.197562,4.314938,-0.003692,-6.841708,0.115292,-2.949169,0.040489,-0.145767,0.022125
1.350000,0.120029,0.177308,0.231361,0.312449,0.362144,0.405248,-0.445014,0.086739,0.124079,0.154388,0.195177,0.206850,0.205010,-0.715771,-0.004801,-0.015958,-0.037018,-0.078112,-0.130372,-0.198572,4.387662,-0.003808,-6.881546,0.117322,-2.966872,0.041262,-0.145545,0.022474
1.360000,0.120896,0.178548,0.232903,0.314397,0.364206,0.407289,-0.451951,0.086691,0.123919,0.154016,0.194393,0.205542,0.203019,-0.671549,-0.004836,-0.016069,-0.037265,-0.078599,-0.131114,-0.199571,4.456059,-0.003909,-6.921341,0.119368,-2.984530,0.042008,-0.145332,0.022757
1.370000,0.121763,0.179787,0.234442,0.316337,0.366254,0.409309,-0.458443,0.086643,0.123757,0.153642,0.193605,0.204227,0.201019,-0.626665,-0.004871,-0.016181,-0.037511,-0.079084,-0.131852,-0.200561,4.520064,-0.003996,-6.961099,0.121429,-3.002145,0.042727,-0.145131,0.022974
1.380000,0.122629,0.181024,0.235976,0.318269,0.368290,0.411309,-0.464483,0.086594,0.123595,0.153266,0.192812,0.202905,0.199008,-0.581162,-0.004905,-0.016292,-0.037756,-0.079567,-0.132584,-0.201541,4.579612,-0.004070,-7.000822,0.123506,-3.019722,0.043420,-0.144943,0.023127
1.390000,0.123495,0.182259,0.237507,0.320193,0.370312,0.413289,-0.470064,0.086545,0.123432,0.152887,0.192013,0.201576,0.196988,-0.535087,-0.004940,-0.016403,-0.038001,-0.080048,-0.133312,-0.202512,4.634646,-0.004133,-7.040515,0.125598,-3.037264,0.044085,-0.144771,0.023214
1.400000,0.124360,0.183492,0.239034,0.322109,0.372322,0.415249,-0.475183,0.086495,0.123267,0.152506,0.191211,0.200239,0.194958,-0.488485,-0.004974,-0.016514,-0.038245,-0.080527,-0.134036,-0.203472,4.685110,-0.004184,-7.080181,0.127704,-3.054772,0.044723,-0.144615,0.023236
1.410000,0.125225,0.184724,0.240557,0.324017,0.374317,0.417188,-0.479832,0.086445,0.123101,0.152122,0.190403,0.198895,0.192918,-0.441401,-0.005009,-0.016625,-0.038489,-0.081004,-0.134754,-0.204422,4.730955,-0.004226,-7.119824,0.129824,-3.072251,0.045334,-0.144478,0.023192
1.420000,0.126089,0.185954,0.242076,0.325917,0.376299,0.419107,-0.484009,0.086395,0.122935,0.151736,0.189590,0.197544,0.190869,-0.393881,-0.005044,-0.016736,-0.038732,-0.081479,-0.135468,-0.205362,4.772136,-0.004260,-7.159445,0.131957,-3.089702,0.045917,-0.144361,0.023084
1.430000,0.126953,0.187183,0.243592,0.327809,0.378268,0.421005,-0.487709,0.086344,0.122767,0.151348,0.188773,0.196186,0.188811,-0.345974,-0.005078,-0.016846,-0.038975,-0.081952,-0.136177,-0.206293,4.808613,-0.004286,-7.199048,0.134104,-3.107127,0.046472,-0.144266,0.022911
1.440000,0.127816,0.188410,0.245103,0.329692,0.380223,0.422883,-0.490927,0.086293,0.122598,0.150957,0.187951,0.194820,0.186744,-0.297725,-0.005113,-0.016957,-0.039217,-0.082423,-0.136880,-0.207213,4.840348,-0.004306,-7.238635,0.136263,-3.124530,0.047001,-0.144194,0.022674
1.450000,0.128679,0.189635,0.246611,0.331568,0.382164,0.424740,-0.493662,0.086242,0.122427,0.150563,0.187125,0.193448,0.184667,-0.249182,-0.005147,-0.017067,-0.039458,-0.082892,-0.137579,-0.208123,4.867312,-0.004320,-7.278208,0.138434,-3.141912,0.047501,-0.144146,0.022372
1.460000,0.129541,0.190858,0.248114,0.333435,0.384092,0.426577,-0.495910,0.086190,0.122256,0.150167,0.186294,0.192069,0.182581,-0.200395,-0.005182,-0.017177,-0.039698,-0.083359,-0.138273,-0.209022,4.889477,-0.004330,-7.317770,0.140617,-3.159275,0.047974,-0.144123,0.022007
1.470000,0.130402,0.192080,0.249614,0.335294,0.386006,0.428392,-0.497669,0.086138,0.122084,0.149769,0.185458,0.190683,0.180487,-0.151409,-0.005216,-0.017287,-0.039938,-0.083823,-0.138962,-0.209912,4.906822,-0.004337,-7.357323,0.142812,-3.176620,0.048419,-0.144126,0.021578
1.480000,0.131263,0.193300,0.251110,0.337144,0.387906,0.430186,-0.498938,0.086086,0.121910,0.149369,0.184617,0.189289,0.178383,-0.102274,-0.005251,-0.017397,-0.040178,-0.084286,-0.139646,-0.210791,4.919329,-0.004340,-7.396867,0.145018,-3.193950,0.048836,-0.144157,0.021086
1.490000,0.132124,0.194518,0.252601,0.338986,0.389792,0.431960,-0.499715,0.086033,0.121736,0.148966,0.183772,0.187890,0.176271,-0.053039,-0.005285,-0.017507,-0.040416,-0.084746,-0.140325,-0.211660,4.926986,-0.004341,-7.436405,0.147235,-3.211265,0.049226,-0.144215,0.020531
1.500000,0.132984,0.195734,0.254089,0.340819,0.391663,0.433712,-0.499999,0.085980,0.121560,0.148560,0.182922,0.186483,0.174150,-0.003751,-0.005319,-0.017616,-0.040654,-0.085205,-0.140999,-0.212519,4.929786,-0.004341,-7.475937,0.149463,-3.228566,0.049587,-0.144301,0.019914
1.510000,0.133844,0.196949,0.255573,0.342644,0.393521,0.435442,-0.499790,0.085927,0.121384,0.148153,0.182068,0.185070,0.172020,0.045541,-0.005354,-0.017725,-0.040892,-0.085661,-0.141668,-0.213367,4.927726,-0.004340,-7.515466,0.151701,-3.245856,0.049921,-0.144417,0.019235
1.520000,0.134703,0.198162,0.257052,0.344461,0.395365,0.437152,-0.499088,0.085873,0.121206,0.147743,0.181209,0.183650,0.169883,0.094788,-0.005388,-0.017835,-0.041128,-0.086115,-0.142331,-0.214204,4.920807,-0.004338,-7.554992,0.153950,-3.263134,0.050227,-0.144562,0.018496
1.530000,0.135561,0.199373,0.258528,0.346268,0.397194,0.438840,-0.497894,0.085819,0.121027,0.147330,0.180346,0.182223,0.167736,0.143941,-0.005422,-0.017944,-0.041364,-0.086567,-0.142990,-0.215032,4.909037,-0.004336,-7.594515,0.156209,-3.280402,0.050505,-0.144735,0.017696
1.540000,0.136419,0.200583,0.259999,0.348068,0.399009,0.440507,-0.496210,0.085765,0.120847,0.146915,0.179478,0.180790,0.165582,0.192952,-0.005457,-0.018052,-0.041600,-0.087017,-0.143643,-0.215848,4.892428,-0.004334,-7.634038,0.158478,-3.297660,0.050754,-0.144939,0.016836
1.550000,0.137276,0.201790,0.261466,0.349858,0.400810,0.442152,-0.494036,0.085710,0.120666,0.146498,0.178605,0.179350,0.163419,0.241773,-0.005491,-0.018161,-0.041835,-0.087465,-0.144292,-0.216654,4.870995,-0.004331,-7.673560,0.160757,-3.314908,0.050975,-0.145171,0.015917
1.560000,0.138133,0.202996,0.262929,0.351640,0.402596,0.443775,-0.491375,0.085655,0.120484,0.146079,0.177728,0.177904,0.161249,0.290356,-0.005525,-0.018270,-0.042069,-0.087910,-0.144935,-0.217450,4.844760,-0.004330,-7.713082,0.163046,-3.332146,0.051168,-0.145433,0.014940
1.570000,0.138989,0.204200,0.264387,0.353413,0.404368,0.445377,-0.488230,0.085600,0.120301,0.145657,0.176847,0.176452,0.159070,0.338653,-0.005560,-0.018378,-0.042302,-0.088353,-0.145572,-0.218235,4.813748,-0.004328,-7.752605,0.165344,-3.349375,0.051332,-0.145724,0.013906
1.580000,0.139845,0.205402,0.265842,0.355177,0.406125,0.446956,-0.484603,0.085544,0.120116,0.145233,0.175961,0.174993,0.156884,0.386615,-0.005594,-0.018486,-0.042535,-0.088794,-0.146205,-0.219009,4.777991,-0.004326,-7.792128,0.167653,-3.366594,0.051467,-0.146042,0.012815
1.590000,0.140700,0.206602,0.267292,0.356932,0.407868,0.448514,-0.480499,0.085488,0.119931,0.144806,0.175071,0.173527,0.154690,0.434197,-0.005628,-0.018594,-0.042767,-0.089233,-0.146832,-0.219772,4.737524,-0.004323,-7.831651,0.169971,-3.383804,0.051573,-0.146388,0.011669
1.600000,0.141555,0.207801,0.268738,0.358678,0.409596,0.450050,-0.475920,0.085431,0.119744,0.144377,0.174177,0.172056,0.152489,0.481350,-0.005662,-0.018702,-0.042998,-0.089670,-0.147454,-0.220525,4.692385,-0.004320,-7.871175,0.172299,-3.401003,0.051650,-0.146762,0.010468
1.610000,0.142409,0.208997,0.270180,0.360415,0.411309,0.451564,-0.470873,0.085374,0.119557,0.143946,0.173278,0.170578,0.150280,0.528029,-0.005696,-0.018810,-0.043229,-0.090104,-0.148071,-0.221266,4.642621,-0.004316,-7.910699,0.174637,-3.418191,0.051698,-0.147161,0.009214
1.620000,0.143262,0.210192,0.271617,0.362144,0.413007,0.453056,-0.465362,0.085317,0.119368,0.143513,0.172375,0.169095,0.148064,0.574187,-0.005730,-0.018917,-0.043459,-0.090536,-0.148683,-0.221997,4.588279,-0.004310,-7.950222,0.176984,-3.435367,0.051716,-0.147585,0.007907
1.630000,0.144115,0.211384,0.273050,0.363863,0.414691,0.454525,-0.459391,0.085260,0.119178,0.143077,0.171467,0.167605,0.145840,0.619780,-0.005765,-0.019025,-0.043688,-0.090966,-0.149289,-0.222717,4.529414,-0.004302,-7.989744,0.179342,-3.452530,0.051704,-0.148033,0.006550
1.640000,0.144968,0.212575,0.274478,0.365573,0.416359,0.455973,-0.452968,0.085202,0.118988,0.142639,0.170555,0.166109,0.143609,0.664761,-0.005799,-0.019132,-0.043917,-0.091393,-0.149889,-0.223427,4.466084,-0.004290,-8.029264,0.181710,-3.469679,0.051662,-0.148504,0.005143
1.650000,0.145819,0.213764,0.275903,0.367274,0.418013,0.457397,-0.446098,0.085144,0.118796,0.142199,0.169639,0.164607,0.141371,0.709087,-0.005833,-0.019239,-0.044144,-0.091818,-0.150485,-0.224125,4.398350,-0.004275,-8.068781,0.184089,-3.486812,0.051590,-0.148996,0.003687
1.660000,0.146671,0.214951,0.277322,0.368966,0.419652,0.458800,-0.438789,0.085085,0.118603,0.141756,0.168719,0.163099,0.139127,0.752713,-0.005867,-0.019346,-0.044372,-0.092241,-0.151075,-0.224812,4.326280,-0.004255,-8.108293,0.186478,-3.503929,0.051487,-0.149508,0.002185
1.670000,0.147521,0.216136,0.278738,0.370648,0.421275,0.460180,-0.431046,0.085026,0.118409,0.141311,0.167794,0.161585,0.136875,0.795598,-0.005901,-0.019452,-0.044598,-0.092662,-0.151659,-0.225488,4.249946,-0.004229,-8.147799,0.188877,-3.521026,0.051353,-0.150038,0.000636
1.680000,0.148371,0.217319,0.280149,0.372322,0.422883,0.461537,-0.422879,0.084967,0.118214,0.140864,0.166866,0.160066,0.134617,0.837698,-0.005935,-0.019559,-0.044824,-0.093080,-0.152238,-0.226153,4.169421,-0.004196,-8.187296,0.191287,-3.538102,0.051188,-0.150585,-0.000956
1.690000,0.149220,0.218501,0.281555,0.373986,0.424476,0.462872,-0.414295,0.084908,0.118018,0.140415,0.165933,0.158541,0.132352,0.878973,-0.005969,-0.019665,-0.045049,-0.093496,-0.152811,-0.226807,4.084785,-0.004156,-8.226783,0.193708,-3.555155,0.050991,-0.151147,-0.002590
1.700000,0.150069,0.219680,0.282957,0.375640,0.426054,0.464184,-0.405303,0.084848,0.117821,0.139963,0.164996,0.157010,0.130081,0.919381,-0.006003,-0.019771,-0.045273,-0.093910,-0.153379,-0.227450,3.996123,-0.004107,-8.266257,0.196140,-3.572183,0.050763,-0.151722,-0.004265
1.710000,0.150917,0.220857,0.284354,0.377285,0.427616,0.465474,-0.395911,0.084788,0.117622,0.139509,0.164055,0.155473,0.127803,0.958882,-0.006037,-0.019877,-0.045497,-0.094321,-0.153942,-0.228082,3.903521,-0.004048,-8.305715,0.198584,-3.589182,0.050503,-0.152309,-0.005979
1.720000,0.151765,0.222032,0.285747,0.378921,0.429163,0.466741,-0.386128,0.084727,0.117423,0.139053,0.163109,0.153931,0.125519,0.997438,-0.006071,-0.019983,-0.045720,-0.094730,-0.154499,-0.228703,3.807070,-0.003977,-8.345154,0.201038,-3.606150,0.050211,-0.152905,-0.007730
1.730000,0.152612,0.223205,0.287135,0.380548,0.430695,0.467984,-0.375965,0.084666,0.117223,0.138595,0.162160,0.152383,0.123229,1.035011,-0.006104,-0.020088,-0.045942,-0.095137,-0.155050,-0.229312,3.706866,-0.003895,-8.384570,0.203505,-3.623084,0.049887,-0.153508,-0.009516
1.740000,0.153458,0.224377,0.288519,0.382164,0.432211,0.469205,-0.365431,0.084605,0.117021,0.138134,0.161207,0.150830,0.120933,1.071563,-0.006138,-0.020194,-0.046163,-0.095541,-0.155596,-0.229910,3.603008,-0.003799,-8.423960,0.205983,-3.639981,0.049530,-0.154116,-0.011335
1.750000,0.154304,0.225546,0.289898,0.383772,0.433712,0.470403,-0.354537,0.084544,0.116819,0.137672,0.160249,0.149271,0.118631,1.107059,-0.006172,-0.020299,-0.046384,-0.095943,-0.156136,-0.230497,3.495597,-0.003689,-8.463318,0.208472,-3.656838,0.049140,-0.154728,-0.013185
1.760000,0.155149,0.226713,0.291272,0.385369,0.435197,0.471578,-0.343294,0.084482,0.116615,0.137207,0.159288,0.147707,0.116323,1.141464,-0.006206,-0.020404,-0.046604,-0.096342,-0.156671,-0.231073,3.384740,-0.003564,-8.502642,0.210974,-3.673650,0.048718,-0.155341,-0.015063
1.770000,0.155994,0.227878,0.292642,0.386957,0.436666,0.472729,-0.331712,0.084419,0.116411,0.136740,0.158322,0.146138,0.114010,1.174743,-0.006240,-0.020509,-0.046823,-0.096739,-0.157200,-0.231637,3.270547,-0.003421,-8.541925,0.213488,-3.690415,0.048263,-0.155952,-0.016969
1.780000,0.156838,0.229041,0.294007,0.388536,0.438119,0.473858,-0.319803,0.084357,0.116205,0.136270,0.157353,0.144563,0.111691,1.206864,-0.006274,-0.020614,-0.047041,-0.097134,-0.157723,-0.232190,3.153129,-0.003261,-8.581163,0.216013,-3.707127,0.047775,-0.156560,-0.018899
1.790000,0.157681,0.230202,0.295367,0.390105,0.439557,0.474963,-0.307579,0.084294,0.115998,0.135799,0.156380,0.142983,0.109366,1.237795,-0.006307,-0.020718,-0.047259,-0.097526,-0.158241,-0.232732,3.032602,-0.003083,-8.620349,0.218551,-3.723784,0.047255,-0.157163,-0.020851
1.800000,0.158523,0.231361,0.296723,0.391663,0.440979,0.476045,-0.295051,0.084231,0.115791,0.135325,0.155402,0.141399,0.107036,1.267506,-0.006341,-0.020823,-0.047476,-0.097916,-0.158752,-0.233262,2.909085,-0.002885,-8.659479,0.221100,-3.740380,0.046702,-0.157758,-0.022823
1.810000,0.159365,0.232518,0.298074,0.393213,0.442385,0.477104,-0.282233,0.084167,0.115582,0.134849,0.154421,0.139808,0.104701,1.295967,-0.006375,-0.020927,-0.047692,-0.098303,-0.159259,-0.233781,2.782701,-0.002666,-8.698544,0.223662,-3.756912,0.046116,-0.158342,-0.024812
1.820000,0.160207,0.233673,0.299420,0.394752,0.443775,0.478139,-0.269136,0.084103,0.115372,0.134371,0.153436,0.138213,0.102360,1.323151,-0.006408,-0.021031,-0.047907,-0.098688,-0.159759,-0.234288,2.653573,-0.002427,-8.737539,0.226235,-3.773375,0.045498,-0.158915,-0.026816
1.830000,0.161047,0.234825,0.300761,0.396281,0.445149,0.479151,-0.255774,0.084039,0.115161,0.133891,0.152448,0.136613,0.100015,1.349030,-0.006442,-0.021134,-0.048122,-0.099070,-0.160254,-0.234784,2.521829,-0.002166,-8.776457,0.228820,-3.789764,0.044847,-0.159473,-0.028833
1.840000,0.161888,0.235976,0.302098,0.397801,0.446507,0.480139,-0.242160,0.083974,0.114949,0.133409,0.151455,0.135008,0.097665,1.373579,-0.006476,-0.021238,-0.048336,-0.099450,-0.160743,-0.235268,2.387599,-0.001882,-8.815290,0.231417,-3.806074,0.044165,-0.160014,-0.030860
1.850000,0.162727,0.237124,0.303430,0.399310,0.447849,0.481104,-0.228307,0.083909,0.114737,0.132924,0.150459,0.133398,0.095310,1.396774,-0.006509,-0.021341,-0.048549,-0.099828,-0.161226,-0.235741,2.251015,-0.001576,-8.854031,0.234025,-3.822302,0.043451,-0.160537,-0.032894
1.860000,0.163566,0.238271,0.304756,0.400810,0.449175,0.482046,-0.214229,0.083844,0.114523,0.132438,0.149458,0.131784,0.092950,1.418592,-0.006543,-0.021444,-0.048761,-0.100202,-0.161703,-0.236202,2.112211,-0.001246,-8.892672,0.236644,-3.838440,0.042707,-0.161039,-0.034933
1.870000,0.164404,0.239415,0.306078,0.402300,0.450485,0.482963,-0.199940,0.083779,0.114308,0.131949,0.148455,0.130164,0.090586,1.439011,-0.006576,-0.021547,-0.048973,-0.100575,-0.162175,-0.236652,1.971326,-0.000893,-8.931204,0.239274,-3.854486,0.041931,-0.161519,-0.036974
1.880000,0.165241,0.240557,0.307395,0.403779,0.451779,0.483857,-0.185453,0.083713,0.114092,0.131458,0.147447,0.128540,0.088217,1.458012,-0.006610,-0.021650,-0.049183,-0.100945,-0.162640,-0.237090,1.828496,-0.000516,-8.969620,0.241915,-3.870434,0.041126,-0.161974,-0.039015
1.890000,0.166078,0.241697,0.308707,0.405248,0.453056,0.484728,-0.170784,0.083646,0.113875,0.130965,0.146436,0.126912,0.085844,1.475575,-0.006643,-0.021753,-0.049393,-0.101312,-0.163100,-0.237517,1.683865,-0.000116,-9.007911,0.244565,-3.886278,0.040291,-0.162403,-0.041054
1.900000,0.166914,0.242834,0.310015,0.406708,0.454317,0.485574,-0.155947,0.083580,0.113657,0.130470,0.145421,0.125278,0.083467,1.491684,-0.006677,-0.021855,-0.049602,-0.101677,-0.163554,-0.237931,1.537573,0.000308,-9.046069,0.247225,-3.902014,0.039428,-0.162803,-0.043087
1.910000,0.167750,0.243970,0.311317,0.408157,0.455561,0.486397,-0.140955,0.083513,0.113438,0.129973,0.144402,0.123641,0.081085,1.506322,-0.006710,-0.021957,-0.049811,-0.102039,-0.164002,-0.238335,1.389765,0.000754,-9.084085,0.249895,-3.917637,0.038538,-0.163175,-0.045113
1.920000,0.168584,0.245103,0.312614,0.409596,0.456790,0.487196,-0.125825,0.083446,0.113217,0.129474,0.143380,0.121998,0.078700,1.519475,-0.006743,-0.022059,-0.050018,-0.102399,-0.164444,-0.238726,1.240587,0.001224,-9.121950,0.252573,-3.933142,0.037620,-0.163514,-0.047128
1.930000,0.169419,0.246234,0.313906,0.411024,0.458001,0.487971,-0.110571,0.083378,0.112996,0.128973,0.142354,0.120352,0.076311,1.531129,-0.006777,-0.022161,-0.050225,-0.102756,-0.164880,-0.239106,1.090186,0.001716,-9.159656,0.255259,-3.948524,0.036676,-0.163822,-0.049131
1.940000,0.170252,0.247363,0.315194,0.412443,0.459197,0.488722,-0.095208,0.083310,0.112774,0.128470,0.141325,0.118701,0.073918,1.541275,-0.006810,-0.022263,-0.050431,-0.103111,-0.165311,-0.239474,0.938710,0.002229,-9.197194,0.257953,-3.963779,0.035708,-0.164095,-0.051119
1.950000,0.171085,0.248490,0.316476,0.413851,0.460375,0.489449,-0.079751,0.083242,0.112551,0.127964,0.140292,0.117046,0.071521,1.549900,-0.006843,-0.022364,-0.050636,-0.103463,-0.165735,-0.239830,0.786309,0.002763,-9.234555,0.260654,-3.978902,0.034716,-0.164334,-0.053089
1.960000,0.171917,0.249614,0.317753,0.415249,0.461537,0.490153,-0.064215,0.083173,0.112327,0.127457,0.139256,0.115386,0.069121,1.556998,-0.006877,-0.022465,-0.050840,-0.103812,-0.166153,-0.240175,0.633132,0.003317,-9.271732,0.263362,-3.993889,0.033701,-0.164537,-0.055040
1.970000,0.172748,0.250736,0.319025,0.416636,0.462683,0.490832,-0.048616,0.083104,0.112102,0.126948,0.138216,0.113722,0.066718,1.562561,-0.006910,-0.022566,-0.051044,-0.104159,-0.166566,-0.240508,0.479332,0.003890,-9.308716,0.266075,-4.008735,0.032665,-0.164703,-0.056968
1.980000,0.173579,0.251856,0.320292,0.418013,0.463812,0.491487,-0.032969,0.083035,0.111876,0.126436,0.137172,0.112055,0.064311,1.566583,-0.006943,-0.022667,-0.051247,-0.104503,-0.166972,-0.240829,0.325058,0.004480,-9.345498,0.268793,-4.023436,0.031609,-0.164831,-0.058873
1.990000,0.174409,0.252974,0.321554,0.419379,0.464924,0.492118,-0.017289,0.082965,0.111648,0.125923,0.136126,0.110383,0.061901,1.569061,-0.006976,-0.022768,-0.051449,-0.104845,-0.167373,-0.241138,0.170465,0.005087,-9.382072,0.271516,-4.037989,0.030534,-0.164922,-0.060751
2.000000,0.175238,0.254089,0.322810,0.420735,0.466020,0.492725,-0.001593,0.082895,0.111420,0.125407,0.135076,0.108707,0.059489,1.569992,-0.007010,-0.022868,-0.051650,-0.105184,-0.167767,-0.241435,0.015703,0.005709,-9.418430,0.274243,-4.052390,0.029443,-0.164974,-0.062602
2.010000,0.176067,0.255202,0.324062,0.422081,0.467098,0.493308,0.014105,0.082825,0.111191,0.124890,0.134022,0.107028,0.057073,1.569375,-0.007043,-0.022968,-0.051850,-0.105520,-0.168155,-0.241721,-0.139074,0.006344,-9.454564,0.276973,-4.066635,0.028335,-0.164987,-0.064423
2.020000,0.176895,0.256313,0.325308,0.423416,0.468160,0.493866,0.029790,0.082755,0.110961,0.124370,0.132965,0.105344,0.054654,1.567211,-0.007076,-0.023068,-0.052049,-0.105854,-0.168538,-0.241994,-0.293714,0.006992,-9.490469,0.279705,-4.080722,0.027214,-0.164961,-0.066211
2.030000,0.177722,0.257421,0.326549,0.424740,0.469205,0.494401,0.045445,0.082684,0.110730,0.123849,0.131905,0.103657,0.052233,1.563502,-0.007109,-0.023168,-0.052248,-0.106185,-0.168914,-0.242256,-0.448065,0.007651,-9.526137,0.282439,-4.094648,0.026080,-0.164897,-0.067967
2.040000,0.178548,0.258528,0.327785,0.426054,0.470233,0.494911,0.061055,0.082612,0.110498,0.123325,0.130841,0.101966,0.049809,1.558251,-0.007142,-0.023267,-0.052446,-0.106514,-0.169284,-0.242506,-0.601974,0.008318,-9.561564,0.285174,-4.108411,0.024936,-0.164794,-0.069687
2.050000,0.179374,0.259631,0.329016,0.427357,0.471244,0.495397,0.076604,0.082541,0.110264,0.122800,0.129775,0.100271,0.047383,1.551464,-0.007175,-0.023367,-0.052642,-0.106839,-0.169648,-0.242744,-0.755289,0.008992,-9.596743,0.287909,-4.122008,0.023783,-0.164654,-0.071372
2.060000,0.180199,0.260733,0.330241,0.428649,0.472239,0.495859,0.092079,0.082469,0.110030,0.122272,0.128705,0.098573,0.044954,1.543148,-0.007208,-0.023466,-0.052839,-0.107162,-0.170006,-0.242971,-0.907860,0.009672,-9.631671,0.290644,-4.135437,0.022622,-0.164475,-0.073018
2.070000,0.181024,0.261832,0.331461,0.429931,0.473216,0.496296,0.107462,0.082397,0.109795,0.121743,0.127631,0.096871,0.042523,1.533310,-0.007241,-0.023565,-0.053034,-0.107483,-0.170358,-0.243185,-1.059536,0.010356,-9.666342,0.293378,-4.148698,0.021456,-0.164260,-0.074626
2.080000,0.181847,0.262929,0.332676,0.431202,0.474176,0.496709,0.122740,0.082324,0.109559,0.121212,0.126555,0.095166,0.040091,1.521961,-0.007274,-0.023664,-0.053228,-0.107801,-0.170703,-0.243387,-1.210167,0.011042,-9.700753,0.296111,-4.161788,0.020286,-0.164009,-0.076193
2.090000,0.182670,0.264023,0.333885,0.432462,0.475119,0.497098,0.137897,0.082251,0.109322,0.120678,0.125475,0.093457,0.037656,1.509111,-0.007307,-0.023762,-0.053422,-0.108116,-0.171043,-0.243578,-1.359605,0.011727,-9.734901,0.298841,-4.174708,0.019114,-0.163723,-0.077720
2.100000,0.183492,0.265115,0.335089,0.433712,0.476045,0.497462,0.152917,0.082178,0.109084,0.120143,0.124393,0.091745,0.035219,1.494773,-0.007340,-0.023860,-0.053614,-0.108428,-0.171376,-0.243756,-1.507702,0.012411,-9.768784,0.301569,-4.187456,0.017942,-0.163403,-0.079204
2.110000,0.184314,0.266205,0.336288,0.434950,0.476954,0.497802,0.167787,0.082104,0.108845,0.119606,0.123307,0.090030,0.032781,1.478962,-0.007373,-0.023958,-0.053806,-0.108738,-0.171703,-0.243923,-1.654314,0.013092,-9.802400,0.304294,-4.200033,0.016772,-0.163051,-0.080646
2.120000,0.185134,0.267292,0.337482,0.436178,0.477846,0.498118,0.182492,0.082031,0.108605,0.119067,0.122218,0.088311,0.030341,1.461692,-0.007405,-0.024056,-0.053997,-0.109044,-0.172024,-0.244078,-1.799294,0.013767,-9.835747,0.307015,-4.212439,0.015606,-0.162668,-0.082045
2.130000,0.185954,0.268377,0.338669,0.437394,0.478720,0.498409,0.197016,0.081956,0.108363,0.118526,0.121126,0.086589,0.027899,1.442982,-0.007438,-0.024154,-0.054187,-0.109349,-0.172339,-0.244220,-1.942500,0.014435,-9.868825,0.309733,-4.224675,0.014445,-0.162255,-0.083401
2.140000,0.186773,0.269459,0.339852,0.438600,0.479578,0.498676,0.211346,0.081882,0.108121,0.117983,0.120031,0.084864,0.025456,1.422849,-0.007471,-0.024251,-0.054376,-0.109650,-0.172648,-0.244351,-2.083792,0.015095,-9.901633,0.312446,-4.236741,0.013292,-0.161815,-0.084712
2.150000,0.187592,0.270539,0.341029,0.439795,0.480418,0.498918,0.225468,0.081807,0.107878,0.117439,0.118933,0.083136,0.023012,1.401313,-0.007504,-0.024349,-0.054565,-0.109949,-0.172950,-0.244470,-2.223029,0.015745,-9.934173,0.315155,-4.248639,0.012148,-0.161348,-0.085979
2.160000,0.188410,0.271617,0.342201,0.440979,0.481240,0.499136,0.239368,0.081732,0.107634,0.116892,0.117832,0.081405,0.020567,1.378395,-0.007536,-0.024446,-0.054752,-0.110245,-0.173246,-0.244577,-2.360074,0.016383,-9.966445,0.317859,-4.260370,0.011014,-0.160858,-0.087202
2.170000,0.189226,0.272692,0.343367,0.442152,0.482046,0.499329,0.253032,0.081656,0.107390,0.116344,0.116728,0.079671,0.018121,1.354119,-0.007569,-0.024542,-0.054939,-0.110538,-0.173536,-0.244671,-2.494792,0.017007,-9.998451,0.320557,-4.271937,0.009893,-0.160345,-0.088381
2.180000,0.190043,0.273765,0.344528,0.443313,0.482834,0.499498,0.266446,0.081580,0.107144,0.115793,0.115621,0.077935,0.015673,1.328508,-0.007602,-0.024639,-0.055124,-0.110828,-0.173820,-0.244754,-2.627051,0.017617,-10.030194,0.323251,-4.283341,0.008787,-0.159812,-0.089516
2.190000,0.190858,0.274835,0.345683,0.444464,0.483604,0.499643,0.279598,0.081504,0.106897,0.115241,0.114512,0.076195,0.013226,1.301587,-0.007634,-0.024735,-0.055309,-0.111116,-0.174098,-0.244825,-2.756720,0.018211,-10.061675,0.325939,-4.294585,0.007697,-0.159261,-0.090606
2.200000,0.191673,0.275903,0.346832,0.445604,0.484358,0.499763,0.292473,0.081428,0.106649,0.114687,0.113399,0.074453,0.010777,1.273382,-0.007667,-0.024831,-0.055493,-0.111401,-0.174369,-0.244884,-2.883672,0.018788,-10.092898,0.328623,-4.305671,0.006625,-0.158695,-0.091653
2.210000,0.192487,0.276968,0.347977,0.446732,0.485093,0.499858,0.305061,0.081351,0.106400,0.114131,0.112284,0.072708,0.008328,1.243923,-0.007699,-0.024927,-0.055676,-0.111683,-0.174634,-0.244931,-3.007780,0.019346,-10.123867,0.331300,-4.316603,0.005572,-0.158115,-0.092657
2.220000,0.193300,0.278031,0.349115,0.447849,0.485812,0.499929,0.317348,0.081274,0.106150,0.113574,0.111165,0.070960,0.005878,1.213237,-0.007732,-0.025023,-0.055858,-0.111962,-0.174892,-0.244965,-3.128923,0.019885,-10.154586,0.333973,-4.327384,0.004541,-0.157524,-0.093618
2.230000,0.194112,0.279091,0.350248,0.448955,0.486513,0.499976,0.329322,0.081196,0.105900,0.113014,0.110044,0.069210,0.003429,1.181354,-0.007764,-0.025118,-0.056040,-0.112239,-0.175145,-0.244988,-3.246981,0.020403,-10.185060,0.336640,-4.338017,0.003532,-0.156924,-0.094537
2.240000,0.194924,0.280149,0.351375,0.450050,0.487196,0.499998,0.340971,0.081118,0.105648,0.112453,0.108921,0.067457,0.000979,1.148308,-0.007797,-0.025213,-0.056220,-0.112513,-0.175391,-0.244999,-3.361838,0.020901,-10.215292,0.339303,-4.348505,0.002547,-0.156318,-0.095415
2.250000,0.195734,0.281204,0.352497,0.451134,0.487862,0.499996,0.352284,0.081040,0.105395,0.111890,0.107794,0.065702,-0.001471,1.114129,-0.007829,-0.025308,-0.056400,-0.112783,-0.175630,-0.244998,-3.473381,0.021376,-10.245290,0.341961,-4.358852,0.001588,-0.155707,-0.096252
2.260000,0.196545,0.282256,0.353613,0.452206,0.488510,0.499969,0.363250,0.080962,0.105142,0.111325,0.106665,0.063945,-0.003921,1.078851,-0.007862,-0.025403,-0.056578,-0.113052,-0.175864,-0.244985,-3.581499,0.021828,-10.275057,0.344614,-4.369063,0.000656,-0.155095,-0.097049
2.270000,0.197354,0.283307,0.354724,0.453267,0.489141,0.499917,0.373858,0.080883,0.104887,0.110758,0.105533,0.062185,-0.006371,1.042511,-0.007894,-0.025498,-0.056756,-0.113317,-0.176091,-0.244959,-3.686087,0.022258,-10.304600,0.347263,-4.379140,-0.000248,-0.154484,-0.097808
2.280000,0.198162,0.284354,0.355828,0.454317,0.489754,0.499841,0.384097,0.080804,0.104632,0.110190,0.104399,0.060423,-0.008820,1.005142,-0.007926,-0.025592,-0.056933,-0.113579,-0.176311,-0.244922,-3.787040,0.022663,-10.333924,0.349908,-4.389088,-0.001122,-0.153876,-0.098528
2.290000,0.198970,0.285399,0.356927,0.455355,0.490349,0.499741,0.393957,0.080724,0.104376,0.109620,0.103262,0.058659,-0.011269,0.966782,-0.007959,-0.025686,-0.057108,-0.113839,-0.176526,-0.244873,-3.884260,0.023044,-10.363036,0.352549,-4.398911,-0.001966,-0.153273,-0.099211
2.300000,0.199777,0.286442,0.358021,0.456382,0.490927,0.499616,0.403429,0.080645,0.104118,0.109048,0.102122,0.056892,-0.013718,0.927469,-0.007991,-0.025780,-0.057283,-0.114095,-0.176734,-0.244812,-3.977651,0.023401,-10.391941,0.355188,-4.408613,-0.002777,-0.152678,-0.099858
2.310000,0.200583,0.287482,0.359108,0.457397,0.491487,0.499466,0.412504,0.080565,0.103860,0.108474,0.100980,0.055124,-0.016166,0.887242,-0.008023,-0.025873,-0.057457,-0.114349,-0.176935,-0.244739,-4.067120,0.023733,-10.420646,0.357823,-4.418198,-0.003555,-0.152093,-0.100469
2.320000,0.201388,0.288519,0.360190,0.458402,0.492029,0.499293,0.421171,0.080484,0.103601,0.107898,0.099835,0.053354,-0.018613,0.846140,-0.008056,-0.025967,-0.057630,-0.114600,-0.177131,-0.244653,-4.152579,0.024039,-10.449158,0.360456,-4.427670,-0.004299,-0.151520,-0.101047
2.330000,0.202192,0.289554,0.361266,0.459394,0.492554,0.499094,0.429424,0.080404,0.103341,0.107321,0.098688,0.051581,-0.021059,0.804204,-0.008088,-0.026060,-0.057803,-0.114849,-0.177319,-0.244556,-4.233944,0.024321,-10.477481,0.363087,-4.437033,-0.005008,-0.150962,-0.101592
2.340000,0.202996,0.290586,0.362337,0.460375,0.493061,0.498871,0.437253,0.080323,0.103080,0.106742,0.097538,0.049807,-0.023504,0.761475,-0.008120,-0.026153,-0.057974,-0.115094,-0.177502,-0.244447,-4.311136,0.024577,-10.505623,0.365717,-4.446292,-0.005681,-0.150420,-0.102105
2.350000,0.203799,0.291615,0.363401,0.461345,0.493550,0.498624,0.444651,0.080241,0.102818,0.106162,0.096386,0.048031,-0.025947,0.717996,-0.008152,-0.026245,-0.058144,-0.115336,-0.177678,-0.244326,-4.384077,0.024808,-10.533590,0.368345,-4.455449,-0.006316,-0.149896,-0.102587
2.360000,0.204601,0.292642,0.364460,0.462303,0.494021,0.498352,0.451610,0.080159,0.102555,0.105580,0.095231,0.046254,-0.028390,0.673808,-0.008184,-0.026338,-0.058314,-0.115576,-0.177848,-0.244193,-4.452695,0.025014,-10.561386,0.370973,-4.464508,-0.006914,-0.149393,-0.103039
2.370000,0.205402,0.293666,0.365513,0.463250,0.494475,0.498056,0.458125,0.080077,0.102291,0.104996,0.094074,0.044474,-0.030831,0.628956,-0.008216,-0.026430,-0.058482,-0.115812,-0.178011,-0.244048,-4.516924,0.025194,-10.589019,0.373600,-4.473474,-0.007473,-0.148912,-0.103463
2.380000,0.206202,0.294688,0.366560,0.464184,0.494911,0.497736,0.464187,0.079995,0.102026,0.104410,0.092915,0.042693,-0.033271,0.583485,-0.008248,-0.026522,-0.058650,-0.116046,-0.178168,-0.243891,-4.576700,0.025349,-10.616493,0.376228,-4.482350,-0.007992,-0.148455,-0.103859
2.390000,0.207002,0.295707,0.367601,0.465108,0.495329,0.497391,0.469792,0.079913,0.101760,0.103823,0.091753,0.040911,-0.035709,0.537437,-0.008280,-0.026614,-0.058816,-0.116277,-0.178318,-0.243722,-4.631964,0.025478,-10.643814,0.378856,-4.491139,-0.008471,-0.148023,-0.104228
2.400000,0.207801,0.296723,0.368636,0.466020,0.495729,0.497022,0.474934,0.079830,0.101494,0.103234,0.090589,0.039127,-0.038145,0.490861,-0.008312,-0.026705,-0.058982,-0.116505,-0.178463,-0.243541,-4.682661,0.025583,-10.670987,0.381484,-4.499844,-0.008910,-0.147619,-0.104571
2.410000,0.208599,0.297737,0.369666,0.466920,0.496112,0.496628,0.479608,0.079746,0.101226,0.102643,0.089423,0.037342,-0.040580,0.443800,-0.008344,-0.026796,-0.059146,-0.116730,-0.178600,-0.243348,-4.728742,0.025662,-10.698016,0.384114,-4.508469,-0.009307,-0.147243,-0.104890
2.420000,0.209396,0.298748,0.370689,0.467808,0.496476,0.496210,0.483809,0.079663,0.100958,0.102051,0.088255,0.035555,-0.043012,0.396301,-0.008376,-0.026887,-0.059310,-0.116952,-0.178731,-0.243143,-4.770161,0.025716,-10.724906,0.386745,-4.517016,-0.009662,-0.146896,-0.105185
2.430000,0.210192,0.299756,0.371707,0.468685,0.496823,0.495768,0.487533,0.079579,0.100689,0.101457,0.087084,0.033767,-0.045443,0.348412,-0.008408,-0.026978,-0.059473,-0.117171,-0.178856,-0.242926,-4.806876,0.025745,-10.751660,0.389378,-4.525488,-0.009975,-0.146581,-0.105457
2.440000,0.210987,0.300761,0.372718,0.469550,0.497151,0.495301,0.490776,0.079495,0.100418,0.100861,0.085911,0.031978,-0.047871,0.300179,-0.008439,-0.027069,-0.059635,-0.117387,-0.178974,-0.242698,-4.838853,0.025750,-10.778283,0.392013,-4.533887,-0.010245,-0.146298,-0.105707
2.450000,0.211782,0.301764,0.373724,0.470403,0.497462,0.494810,0.493535,0.079410,0.100147,0.100264,0.084736,0.030188,-0.050297,0.251651,-0.008471,-0.027159,-0.059796,-0.117601,-0.179086,-0.242457,-4.866060,0.025729,-10.804777,0.394650,-4.542216,-0.010471,-0.146047,-0.105935
2.460000,0.212575,0.302764,0.374723,0.471244,0.497755,0.494295,0.495808,0.079325,0.099875,0.099665,0.083559,0.028396,-0.052720,0.202874,-0.008503,-0.027249,-0.059956,-0.117811,-0.179192,-0.242205,-4.888469,0.025683,-10.831145,0.397289,-4.550476,-0.010654,-0.145831,-0.106142
2.470000,0.213368,0.303762,0.375717,0.472074,0.498030,0.493756,0.497592,0.079240,0.099602,0.099065,0.082380,0.026604,-0.055141,0.153898,-0.008535,-0.027339,-0.060115,-0.118019,-0.179291,-0.241940,-4.906058,0.025613,-10.857390,0.399931,-4.558668,-0.010793,-0.145648,-0.106330
2.480000,0.214160,0.304756,0.376705,0.472892,0.498287,0.493192,0.498885,0.079154,0.099328,0.098463,0.081199,0.024811,-0.057559,0.104769,-0.008566,-0.027428,-0.060273,-0.118223,-0.179383,-0.241664,-4.918811,0.025517,-10.883513,0.402574,-4.566795,-0.010887,-0.145501,-0.106498
2.490000,0.214951,0.305748,0.377686,0.473698,0.498526,0.492605,0.499687,0.079069,0.099054,0.097859,0.080016,0.023016,-0.059974,0.055538,-0.008598,-0.027517,-0.060430,-0.118425,-0.179469,-0.241376,-4.926715,0.025396,-10.909515,0.405221,-4.574857,-0.010937,-0.145388,-0.106646
2.500000,0.215741,0.306737,0.378662,0.474492,0.498747,0.491993,0.499996,0.078982,0.098778,0.097254,0.078831,0.021221,-0.062386,0.006251,-0.008630,-0.027606,-0.060586,-0.118623,-0.179549,-0.241077,-4.929761,0.025249,-10.935398,0.407869,-4.582855,-0.010942,-0.145312,-0.106777
2.510000,0.216531,0.307724,0.379631,0.475275,0.498951,0.491357,0.499812,0.078896,0.098501,0.096648,0.077643,0.019425,-0.064795,-0.043041,-0.008661,-0.027695,-0.060741,-0.118819,-0.179622,-0.240765,-4.927947,0.025077,-10.961162,0.410519,-4.590790,-0.010901,-0.145271,-0.106888
2.520000,0.217319,0.308707,0.380595,0.476045,0.499136,0.490697,0.499135,0.078809,0.098224,0.096040,0.076454,0.017629,-0.067201,-0.092292,-0.008693,-0.027784,-0.060895,-0.119011,-0.179689,-0.240442,-4.921275,0.024879,-10.986807,0.413172,-4.598663,-0.010816,-0.145265,-0.106982
2.530000,0.218107,0.309688,0.381552,0.476804,0.499303,0.490013,0.497967,0.078722,0.097946,0.095430,0.075263,0.015832,-0.069604,-0.141451,-0.008724,-0.027872,-0.061048,-0.119201,-0.179749,-0.240106,-4.909751,0.024655,-11.012333,0.415826,-4.606472,-0.010685,-0.145295,-0.107059
2.540000,0.218894,0.310666,0.382503,0.477550,0.499453,0.489305,0.496307,0.078635,0.097667,0.094819,0.074070,0.014034,-0.072003,-0.190470,-0.008756,-0.027960,-0.061201,-0.119388,-0.179803,-0.239759,-4.893387,0.024404,-11.037738,0.418482,-4.614218,-0.010509,-0.145360,-0.107117
2.550000,0.219680,0.311642,0.383449,0.478285,0.499584,0.488573,0.494158,0.078547,0.097387,0.094206,0.072875,0.012236,-0.074399,-0.239302,-0.008787,-0.028048,-0.061352,-0.119571,-0.179850,-0.239401,-4.872198,0.024127,-11.063021,0.421138,-4.621900,-0.010288,-0.145460,-0.107158
2.560000,0.220465,0.312614,0.384388,0.479008,0.499697,0.487817,0.491522,0.078459,0.097106,0.093592,0.071679,0.010437,-0.076791,-0.287898,-0.008819,-0.028135,-0.061502,-0.119752,-0.179891,-0.239030,-4.846206,0.023823,-11.088180,0.423796,-4.629518,-0.010021,-0.145594,-0.107181
2.570000,0.221249,0.313584,0.385320,0.479719,0.499793,0.487037,0.488401,0.078371,0.096824,0.092976,0.070480,0.008638,-0.079180,-0.336211,-0.008850,-0.028223,-0.061651,-0.119930,-0.179925,-0.238648,-4.815436,0.023491,-11.113213,0.426453,-4.637071,-0.009708,-0.145761,-0.107187
2.580000,0.222032,0.314551,0.386247,0.480418,0.499870,0.486233,0.484798,0.078282,0.096541,0.092359,0.069280,0.006838,-0.081564,-0.384191,-0.008881,-0.028310,-0.061800,-0.120104,-0.179953,-0.238254,-4.779919,0.023131,-11.138116,0.429110,-4.644556,-0.009351,-0.145961,-0.107175
2.590000,0.222815,0.315515,0.387168,0.481104,0.499929,0.485406,0.480718,0.078193,0.096258,0.091740,0.068078,0.005039,-0.083945,-0.431793,-0.008913,-0.028396,-0.061947,-0.120276,-0.179975,-0.237849,-4.739689,0.022743,-11.162888,0.431767,-4.651973,-0.008948,-0.146193,-0.107145
2.600000,0.223596,0.316476,0.388082,0.481779,0.499971,0.484555,0.476164,0.078104,0.095973,0.091120,0.066875,0.003239,-0.086321,-0.478970,-0.008944,-0.028483,-0.062093,-0.120445,-0.179990,-0.237432,-4.694786,0.022325,-11.187523,0.434421,-4.659320,-0.008500,-0.146455,-0.107097
2.610000,0.224377,0.317434,0.388990,0.482442,0.499994,0.483679,0.471140,0.078014,0.095688,0.090498,0.065669,0.001439,-0.088693,-0.525674,-0.008975,-0.028569,-0.062238,-0.120610,-0.179998,-0.237003,-4.645255,0.021879,-11.212018,0.437074,-4.666595,-0.008007,-0.146746,-0.107030
2.620000,0.225156,0.318389,0.389892,0.483092,0.500000,0.482781,0.465652,0.077924,0.095402,0.089875,0.064463,-0.000361,-0.091061,-0.571859,-0.009006,-0.028655,-0.062383,-0.120773,-0.180000,-0.236563,-4.591145,0.021403,-11.236369,0.439724,-4.673795,-0.007469,-0.147066,-0.106944
2.630000,0.225935,0.319342,0.390787,0.483731,0.499987,0.481858,0.459705,0.077834,0.095115,0.089250,0.063254,-0.002161,-0.093425,-0.617481,-0.009037,-0.028741,-0.062526,-0.120933,-0.179995,-0.236111,-4.532508,0.020897,-11.260570,0.442371,-4.680919,-0.006887,-0.147412,-0.106839
2.640000,0.226713,0.320292,0.391677,0.484358,0.499956,0.480912,0.453305,0.077743,0.094827,0.088624,0.062044,-0.003961,-0.095784,-0.662495,-0.009069,-0.028826,-0.062668,-0.121089,-0.179984,-0.235647,-4.469402,0.020361,-11.284618,0.445013,-4.687962,-0.006262,-0.147783,-0.106714
2.650000,0.227490,0.321239,0.392560,0.484972,0.499908,0.479943,0.446457,0.077653,0.094538,0.087997,0.060832,-0.005761,-0.098138,-0.706855,-0.009100,-0.028911,-0.062810,-0.121243,-0.179967,-0.235172,-4.401891,0.019794,-11.308506,0.447650,-4.694923,-0.005592,-0.148178,-0.106568
2.660000,0.228266,0.322183,0.393437,0.485574,0.499841,0.478949,0.439170,0.077561,0.094249,0.087368,0.059619,-0.007560,-0.100487,-0.750518,-0.009131,-0.028996,-0.062950,-0.121394,-0.179943,-0.234685,-4.330039,0.019196,-11.332229,0.450282,-4.701799,-0.004880,-0.148594,-0.106401
2.670000,0.229041,0.323124,0.394307,0.486164,0.499757,0.477933,0.431449,0.077470,0.093959,0.086738,0.058404,-0.009360,-0.102831,-0.793441,-0.009162,-0.029081,-0.063089,-0.121541,-0.179912,-0.234187,-4.253919,0.018567,-11.355781,0.452907,-4.708586,-0.004125,-0.149030,-0.106212
2.680000,0.229815,0.324062,0.395172,0.486742,0.499654,0.476893,0.423304,0.077378,0.093667,0.086106,0.057188,-0.011159,-0.105171,-0.835582,-0.009193,-0.029166,-0.063227,-0.121686,-0.179875,-0.233678,-4.173605,0.017907,-11.379157,0.455524,-4.715281,-0.003328,-0.149484,-0.106000
2.690000,0.230589,0.324997,0.396029,0.487308,0.499533,0.475830,0.414741,0.077286,0.093375,0.085473,0.055971,-0.012957,-0.107505,-0.876900,-0.009224,-0.029250,-0.063365,-0.121827,-0.179832,-0.233156,-4.089176,0.017216,-11.402350,0.458134,-4.721881,-0.002490,-0.149954,-0.105766
2.700000,0.231361,0.325929,0.396881,0.487862,0.499395,0.474743,0.405769,0.077194,0.093082,0.084839,0.054752,-0.014755,-0.109834,-0.917352,-0.009254,-0.029334,-0.063501,-0.121965,-0.179782,-0.232624,-4.000715,0.016493,-11.425354,0.460734,-4.728382,-0.001611,-0.150438,-0.105507
2.710000,0.232133,0.326859,0.397726,0.488403,0.499238,0.473633,0.396397,0.077101,0.092789,0.084203,0.053531,-0.016553,-0.112157,-0.956901,-0.009285,-0.029417,-0.063636,-0.122101,-0.179726,-0.232080,-3.908311,0.015739,-11.448163,0.463324,-4.734781,-0.000693,-0.150933,-0.105224
2.720000,0.232903,0.327785,0.398565,0.488932,0.499064,0.472500,0.386634,0.077008,0.092494,0.083566,0.052310,-0.018350,-0.114475,-0.995506,-0.009316,-0.029501,-0.063770,-0.122233,-0.179663,-0.231525,-3.812053,0.014954,-11.470772,0.465904,-4.741074,0.000265,-0.151438,-0.104916
2.730000,0.233673,0.328708,0.399398,0.489449,0.498871,0.471343,0.376490,0.076915,0.092199,0.082928,0.051087,-0.020146,-0.116788,-1.033129,-0.009347,-0.029584,-0.063904,-0.122362,-0.179594,-0.230958,-3.712037,0.014139,-11.493173,0.468472,-4.747257,0.001261,-0.151950,-0.104581
2.740000,0.234442,0.329629,0.400224,0.489954,0.498661,0.470164,0.365974,0.076821,0.091902,0.082288,0.049862,-0.021941,-0.119094,-1.069734,-0.009378,-0.029667,-0.064036,-0.122489,-0.179518,-0.230380,-3.608362,0.013293,-11.515361,0.471027,-4.753327,0.002294,-0.152467,-0.104219
2.750000,0.235209,0.330547,0.401043,0.490447,0.498433,0.468961,0.355098,0.076727,0.091605,0.081647,0.048637,-0.023736,-0.121395,-1.105285,-0.009408,-0.029749,-0.064167,-0.122612,-0.179436,-0.229791,-3.501129,0.012418,-11.537329,0.473570,-4.759281,0.003363,-0.152987,-0.103829
2.760000,0.235976,0.331461,0.401857,0.490927,0.498186,0.467736,0.343872,0.076633,0.091307,0.081005,0.047410,-0.025530,-0.123690,-1.139745,-0.009439,-0.029831,-0.064297,-0.122732,-0.179347,-0.229191,-3.390444,0.011515,-11.559073,0.476099,-4.765114,0.004468,-0.153508,-0.103410
2.770000,0.236742,0.332373,0.402663,0.491395,0.497922,0.466488,0.332307,0.076538,0.091009,0.080361,0.046182,-0.027323,-0.125979,-1.173082,-0.009470,-0.029914,-0.064426,-0.122849,-0.179252,-0.228579,-3.276417,0.010583,-11.580587,0.478613,-4.770824,0.005606,-0.154026,-0.102962
2.780000,0.237507,0.333281,0.403464,0.491850,0.497640,0.465217,0.320415,0.076444,0.090709,0.079716,0.044953,-0.029115,-0.128262,-1.205263,-0.009500,-0.029995,-0.064554,-0.122963,-0.179150,-0.227956,-3.159160,0.009625,-11.601865,0.481112,-4.776406,0.006777,-0.154540,-0.102485
2.790000,0.238271,0.334187,0.404258,0.492294,0.497340,0.463922,0.308206,0.076348,0.090409,0.079070,0.043723,-0.030906,-0.130538,-1.236255,-0.009531,-0.030077,-0.064681,-0.123073,-0.179042,-0.227322,-3.038788,0.008640,-11.622903,0.483595,-4.781858,0.007979,-0.155047,-0.101976
2.800000,0.239034,0.335089,0.405045,0.492725,0.497022,0.462606,0.295694,0.076253,0.090107,0.078423,0.042492,-0.032696,-0.132808,-1.266029,-0.009561,-0.030158,-0.064807,-0.123181,-0.178928,-0.226677,-2.915420,0.007632,-11.643696,0.486062,-4.787177,0.009211,-0.155545,-0.101436
2.810000,0.239796,0.335989,0.405826,0.493144,0.496686,0.461266,0.282890,0.076157,0.089805,0.077774,0.041259,-0.034485,-0.135072,-1.294554,-0.009592,-0.030239,-0.064932,-0.123286,-0.178807,-0.226021,-2.789178,0.006600,-11.664241,0.488511,-4.792359,0.010471,-0.156032,-0.100864
2.820000,0.240557,0.336886,0.406601,0.493550,0.496332,0.459904,0.269807,0.076061,0.089503,0.077124,0.040026,-0.036272,-0.137328,-1.321803,-0.009622,-0.030320,-0.065056,-0.123388,-0.178679,-0.225353,-2.660187,0.005547,-11.684532,0.490943,-4.797402,0.011759,-0.156506,-0.100259
2.830000,0.241317,0.337779,0.407369,0.493944,0.495960,0.458520,0.256458,0.075965,0.089199,0.076473,0.038792,-0.038058,-0.139579,-1.347749,-0.009653,-0.030400,-0.065179,-0.123486,-0.178546,-0.224675,-2.528572,0.004474,-11.704568,0.493357,-4.802304,0.013071,-0.156964,-0.099622
2.840000,0.242076,0.338669,0.408130,0.494326,0.495571,0.457113,0.242856,0.075868,0.088895,0.075821,0.037556,-0.039843,-0.141822,-1.372366,-0.009683,-0.030480,-0.065301,-0.123581,-0.178405,-0.223985,-2.394465,0.003384,-11.724345,0.495753,-4.807061,0.014408,-0.157404,-0.098951
2.850000,0.242834,0.339557,0.408885,0.494695,0.495163,0.455683,0.229015,0.075771,0.088589,0.075167,0.036320,-0.041626,-0.144058,-1.395631,-0.009713,-0.030560,-0.065422,-0.123674,-0.178259,-0.223285,-2.257997,0.002277,-11.743861,0.498130,-4.811673,0.015767,-0.157824,-0.098246
2.860000,0.243592,0.340441,0.409633,0.495052,0.494738,0.454232,0.214948,0.075674,0.088283,0.074512,0.035083,-0.043408,-0.146288,-1.417519,-0.009744,-0.030640,-0.065541,-0.123763,-0.178106,-0.222574,-2.119303,0.001156,-11.763115,0.500487,-4.816136,0.017146,-0.158222,-0.097506
2.870000,0.244348,0.341323,0.410375,0.495397,0.494295,0.452758,0.200669,0.075576,0.087977,0.073856,0.033845,-0.045188,-0.148510,-1.438010,-0.009774,-0.030719,-0.065660,-0.123849,-0.177946,-0.221851,-1.978520,0.000024,-11.782105,0.502825,-4.820450,0.018544,-0.158597,-0.096733
2.880000,0.245103,0.342201,0.411111,0.495729,0.493834,0.451261,0.186193,0.075478,0.087669,0.073199,0.032606,-0.046967,-0.150725,-1.457083,-0.009804,-0.030798,-0.065778,-0.123932,-0.177780,-0.221118,-1.835786,-0.001117,-11.800832,0.505144,-4.824614,0.019958,-0.158946,-0.095925
2.890000,0.245857,0.343076,0.411839,0.496049,0.493356,0.449743,0.171532,0.075380,0.087361,0.072541,0.031366,-0.048744,-0.152932,-1.474719,-0.009834,-0.030877,-0.065894,-0.124012,-0.177608,-0.220374,-1.691242,-0.002266,-11.819294,0.507443,-4.828626,0.021387,-0.159267,-0.095082
2.900000,0.246611,0.343948,0.412561,0.496356,0.492860,0.448203,0.156703,0.075282,0.087052,0.071881,0.030126,-0.050519,-0.155132,-1.490902,-0.009864,-0.030955,-0.066010,-0.124089,-0.177429,-0.219619,-1.545030,-0.003419,-11.837495,0.509722,-4.832486,0.022830,-0.159560,-0.094205
2.910000,0.247363,0.344817,0.413277,0.496652,0.492346,0.446641,0.141719,0.075183,0.086742,0.071220,0.028884,-0.052293,-0.157324,-1.505615,-0.009895,-0.031034,-0.066124,-0.124163,-0.177244,-0.218854,-1.397296,-0.004575,-11.855434,0.511981,-4.836194,0.024283,-0.159822,-0.093293
2.920000,0.248114,0.345683,0.413986,0.496934,0.491814,0.445056,0.126596,0.075084,0.086431,0.070559,0.027642,-0.054064,-0.159509,-1.518843,-0.009925,-0.031111,-0.066238,-0.124234,-0.177053,-0.218078,-1.248184,-0.005729,-11.873113,0.514221,-4.839750,0.025745,-0.160052,-0.092348
2.930000,0.248865,0.346546,0.414688,0.497204,0.491264,0.443450,0.111347,0.074984,0.086119,0.069896,0.026400,-0.055834,-0.161686,-1.530574,-0.009955,-0.031189,-0.066350,-0.124301,-0.176855,-0.217291,-1.097842,-0.006881,-11.890537,0.516440,-4.843153,0.027214,-0.160250,-0.091369
2.940000,0.249614,0.347405,0.415384,0.497462,0.490697,0.441823,0.095989,0.074885,0.085807,0.069232,0.025156,-0.057601,-0.163855,-1.540797,-0.009985,-0.031266,-0.066461,-0.124366,-0.176651,-0.216493,-0.946417,-0.008028,-11.907707,0.518639,-4.846406,0.028689,-0.160414,-0.090356
2.950000,0.250362,0.348262,0.416073,0.497708,0.490112,0.440173,0.080537,0.074785,0.085494,0.068566,0.023912,-0.059367,-0.166016,-1.549500,-0.010014,-0.031344,-0.066572,-0.124427,-0.176440,-0.215685,-0.794059,-0.009166,-11.924628,0.520819,-4.849509,0.030166,-0.160542,-0.089310
2.960000,0.251110,0.349115,0.416755,0.497940,0.489510,0.438502,0.065004,0.074684,0.085180,0.067900,0.022668,-0.061130,-0.168169,-1.556675,-0.010044,-0.031420,-0.066681,-0.124485,-0.176224,-0.214866,-0.640918,-0.010293,-11.941304,0.522978,-4.852464,0.031645,-0.160635,-0.088233
2.970000,0.251856,0.349965,0.417431,0.498161,0.488890,0.436810,0.049408,0.074584,0.084866,0.067233,0.021423,-0.062891,-0.170313,-1.562316,-0.010074,-0.031497,-0.066789,-0.124540,-0.176000,-0.214037,-0.487145,-0.011407,-11.957742,0.525119,-4.855272,0.033122,-0.160692,-0.087124
2.980000,0.252601,0.350812,0.418100,0.498369,0.488252,0.435096,0.033763,0.074483,0.084550,0.066564,0.020177,-0.064650,-0.172449,-1.566416,-0.010104,-0.031573,-0.066896,-0.124592,-0.175771,-0.213197,-0.332892,-0.012506,-11.973945,0.527239,-4.857935,0.034597,-0.160712,-0.085985
2.990000,0.253346,0.351656,0.418762,0.498564,0.487597,0.433361,0.018085,0.074382,0.084234,0.065895,0.018931,-0.066406,-0.174577,-1.568973,-0.010134,-0.031649,-0.067002,-0.124641,-0.175535,-0.212347,-0.178311,-0.013586,-11.989922,0.529341,-4.860456,0.036066,-0.160695,-0.084816
3.000000,0.254089,0.352497,0.419418,0.498747,0.486924,0.431605,0.002389,0.074280,0.083917,0.065224,0.017684,-0.068161,-0.176696,-1.569982,-0.010164,-0.031725,-0.067107,-0.124687,-0.175293,-0.211486,-0.023554,-0.014646,-12.005677,0.531423,-4.862839,0.037529,-0.160641,-0.083619
3.010000,0.254831,0.353335,0.420066,0.498918,0.486233,0.429827,-0.013309,0.074178,0.083600,0.064553,0.016437,-0.069912,-0.178807,-1.569444,-0.010193,-0.031800,-0.067211,-0.124730,-0.175044,-0.210615,0.131226,-0.015683,-12.021219,0.533486,-4.865085,0.038983,-0.160550,-0.082395
3.020000,0.255573,0.354169,0.420709,0.499076,0.485526,0.428029,-0.028995,0.074076,0.083281,0.063880,0.015190,-0.071661,-0.180908,-1.567358,-0.010223,-0.031875,-0.067313,-0.124769,-0.174789,-0.209734,0.285877,-0.016695,-12.036555,0.535531,-4.867198,0.040426,-0.160422,-0.081144
3.030000,0.256313,0.355000,0.421344,0.499222,0.484800,0.426209,-0.044651,0.073974,0.082962,0.063207,0.013942,-0.073408,-0.183001,-1.563727,-0.010253,-0.031950,-0.067415,-0.124805,-0.174528,-0.208842,0.440245,-0.017681,-12.051694,0.537556,-4.869182,0.041857,-0.160258,-0.079869
3.040000,0.257052,0.355828,0.421973,0.499355,0.484057,0.424369,-0.060264,0.073871,0.082642,0.062532,0.012694,-0.075152,-0.185085,-1.558555,-0.010282,-0.032025,-0.067516,-0.124839,-0.174261,-0.207941,0.594180,-0.018638,-12.066642,0.539564,-4.871040,0.043274,-0.160057,-0.078571
3.050000,0.257790,0.356653,0.422595,0.499476,0.483297,0.422507,-0.075817,0.073768,0.082322,0.061856,0.011445,-0.076893,-0.187160,-1.551845,-0.010312,-0.032099,-0.067615,-0.124869,-0.173987,-0.207029,0.747529,-0.019565,-12.081410,0.541553,-4.872778,0.044674,-0.159821,-0.077252
3.060000,0.258528,0.357475,0.423210,0.499584,0.482520,0.420625,-0.091296,0.073665,0.082000,0.061180,0.010196,-0.078632,-0.189226,-1.543606,-0.010341,-0.032173,-0.067714,-0.124896,-0.173707,-0.206106,0.900142,-0.020460,-12.096005,0.543524,-4.874398,0.046057,-0.159550,-0.075913
3.070000,0.259264,0.358293,0.423818,0.499680,0.481725,0.418723,-0.106684,0.073561,0.081678,0.060502,0.008947,-0.080367,-0.191282,-1.533846,-0.010371,-0.032246,-0.067811,-0.124920,-0.173421,-0.205174,1.051866,-0.021322,-12.110437,0.545477,-4.875906,0.047421,-0.159246,-0.074555
3.080000,0.259999,0.359108,0.424420,0.499763,0.480912,0.416800,-0.121968,0.073458,0.081355,0.059823,0.007698,-0.082100,-0.193329,-1.522573,-0.010400,-0.032320,-0.067907,-0.124941,-0.173128,-0.204232,1.202554,-0.022150,-12.124714,0.547412,-4.877306,0.048764,-0.158909,-0.073181
3.090000,0.260733,0.359920,0.425015,0.499834,0.480083,0.414856,-0.137131,0.073354,0.081032,0.059144,0.006448,-0.083830,-0.195367,-1.509798,-0.010429,-0.032393,-0.068002,-0.124958,-0.172830,-0.203280,1.352056,-0.022943,-12.138847,0.549329,-4.878603,0.050084,-0.158541,-0.071793
3.100000,0.261466,0.360729,0.425603,0.499892,0.479236,0.412892,-0.152159,0.073249,0.080708,0.058463,0.005199,-0.085557,-0.197395,-1.495536,-0.010459,-0.032466,-0.068096,-0.124973,-0.172525,-0.202317,1.500225,-0.023699,-12.152844,0.551229,-4.879801,0.051381,-0.158143,-0.070392
3.110000,0.262198,0.361534,0.426184,0.499938,0.478371,0.410908,-0.167037,0.073144,0.080383,0.057782,0.003949,-0.087280,-0.199413,-1.479799,-0.010488,-0.032538,-0.068189,-0.124984,-0.172214,-0.201345,1.646915,-0.024419,-12.166714,0.553110,-4.880907,0.052652,-0.157717,-0.068981
3.120000,0.262929,0.362337,0.426758,0.499971,0.477490,0.408904,-0.181750,0.073039,0.080057,0.057100,0.002699,-0.089001,-0.201422,-1.462603,-0.010517,-0.032610,-0.068281,-0.124993,-0.171896,-0.200363,1.791982,-0.025103,-12.180466,0.554973,-4.881925,0.053897,-0.157264,-0.067562
3.130000,0.263659,0.363136,0.427326,0.499992,0.476591,0.406880,-0.196284,0.072934,0.079730,0.056416,0.001449,-0.090718,-0.203420,-1.443965,-0.010546,-0.032682,-0.068372,-0.124998,-0.171573,-0.199371,1.935282,-0.025749,-12.194111,0.556819,-4.882859,0.055115,-0.156786,-0.066136
3.140000,0.264387,0.363931,0.427887,0.500000,0.475676,0.404836,-0.210625,0.072828,0.079403,0.055732,0.000199,-0.092432,-0.205409,-1.423904,-0.010575,-0.032754,-0.068462,-0.125000,-0.171243,-0.198370,2.076673,-0.026358,-12.207655,0.558646,-4.883716,0.056304,-0.156284,-0.064705
3.150000,0.265115,0.364724,0.428441,0.499996,0.474743,0.402772,-0.224757,0.072722,0.079075,0.055047,-0.001051,-0.094143,-0.207388,-1.402438,-0.010605,-0.032825,-0.068551,-0.124999,-0.170907,-0.197358,2.216018,-0.026930,-12.221109,0.560455,-4.884501,0.057463,-0.155761,-0.063273
3.160000,0.265842,0.365513,0.428988,0.499979,0.473793,0.400688,-0.238669,0.072616,0.078747,0.054361,-0.002301,-0.095851,-0.209356,-1.379591,-0.010634,-0.032896,-0.068638,-0.124995,-0.170565,-0.196337,2.353178,-0.027466,-12.234481,0.562245,-4.885218,0.058592,-0.155219,-0.061841
3.170000,0.266567,0.366299,0.429528,0.499950,0.472826,0.398585,-0.252345,0.072510,0.078417,0.053674,-0.003551,-0.097554,-0.211314,-1.355383,-0.010663,-0.032967,-0.068724,-0.124987,-0.170217,-0.195307,2.488017,-0.027966,-12.247779,0.564016,-4.885872,0.059689,-0.154659,-0.060412
3.180000,0.267292,0.367081,0.430061,0.499908,0.471842,0.396462,-0.265772,0.072403,0.078087,0.052987,-0.004801,-0.099255,-0.213262,-1.329838,-0.010692,-0.033037,-0.068810,-0.124977,-0.169863,-0.194266,2.620404,-0.028431,-12.261010,0.565768,-4.886469,0.060754,-0.154085,-0.058987
3.190000,0.268016,0.367860,0.430588,0.499854,0.470841,0.394320,-0.278937,0.072296,0.077757,0.052298,-0.006050,-0.100952,-0.215200,-1.302983,-0.010721,-0.033107,-0.068894,-0.124963,-0.169503,-0.193217,2.750208,-0.028863,-12.274184,0.567501,-4.887014,0.061786,-0.153497,-0.057569
3.200000,0.268738,0.368636,0.431107,0.499787,0.469823,0.392158,-0.291827,0.072189,0.077425,0.051609,-0.007300,-0.102645,-0.217127,-1.274843,-0.010750,-0.033177,-0.068977,-0.124947,-0.169136,-0.192157,2.877300,-0.029261,-12.287306,0.569214,-4.887511,0.062784,-0.152898,-0.056160
3.210000,0.269459,0.369409,0.431620,0.499708,0.468788,0.389977,-0.304430,0.072081,0.077093,0.050919,-0.008549,-0.104334,-0.219043,-1.245447,-0.010778,-0.033247,-0.069059,-0.124927,-0.168764,-0.191089,3.001555,-0.029627,-12.300384,0.570906,-4.887965,0.063747,-0.152291,-0.054763
3.220000,0.270180,0.370178,0.432126,0.499616,0.467736,0.387777,-0.316732,0.071973,0.076760,0.050228,-0.009798,-0.106020,-0.220948,-1.214822,-0.010807,-0.033316,-0.069140,-0.124904,-0.168385,-0.190011,3.122852,-0.029963,-12.313425,0.572578,-4.888381,0.064676,-0.151677,-0.053379
3.230000,0.270899,0.370944,0.432624,0.499512,0.466667,0.385558,-0.328722,0.071865,0.076427,0.049536,-0.011047,-0.107702,-0.222843,-1.183000,-0.010836,-0.033385,-0.069220,-0.124878,-0.168000,-0.188924,3.241069,-0.030271,-12.326434,0.574229,-4.888764,0.065570,-0.151059,-0.052011
3.240000,0.271617,0.371707,0.433116,0.499395,0.465582,0.383320,-0.340388,0.071756,0.076093,0.048843,-0.012296,-0.109380,-0.224727,-1.150011,-0.010865,-0.033454,-0.069299,-0.124849,-0.167610,-0.187827,3.356091,-0.030551,-12.339418,0.575857,-4.889116,0.066428,-0.150439,-0.050662
3.250000,0.272334,0.372466,0.433601,0.499266,0.464480,0.381064,-0.351719,0.071648,0.075758,0.048150,-0.013544,-0.111054,-0.226599,-1.115889,-0.010893,-0.033522,-0.069376,-0.124816,-0.167213,-0.186721,3.467805,-0.030806,-12.352381,0.577463,-4.889444,0.067250,-0.149820,-0.049332
3.260000,0.273050,0.373222,0.434079,0.499124,0.463361,0.378788,-0.362702,0.071538,0.075422,0.047456,-0.014792,-0.112724,-0.228461,-1.080667,-0.010922,-0.033590,-0.069453,-0.124781,-0.166810,-0.185606,3.576100,-0.031038,-12.365329,0.579047,-4.889751,0.068036,-0.149204,-0.048025
3.270000,0.273765,0.373974,0.434550,0.498970,0.462225,0.376494,-0.373328,0.071429,0.075086,0.046761,-0.016040,-0.114390,-0.230312,-1.044379,-0.010951,-0.033658,-0.069528,-0.124742,-0.166401,-0.184482,3.680869,-0.031248,-12.378267,0.580606,-4.890039,0.068785,-0.148592,-0.046742
3.280000,0.274478,0.374723,0.435014,0.498803,0.461073,0.374182,-0.383586,0.071319,0.074749,0.046065,-0.017287,-0.116052,-0.232151,-1.007061,-0.010979,-0.033725,-0.069602,-0.124701,-0.165986,-0.183349,3.782009,-0.031438,-12.391199,0.582141,-4.890315,0.069497,-0.147988,-0.045486
3.290000,0.275191,0.375469,0.435472,0.498624,0.459904,0.371852,-0.393466,0.071210,0.074411,0.045369,-0.018534,-0.117710,-0.233979,-0.968751,-0.011008,-0.033792,-0.069675,-0.124656,-0.165566,-0.182207,3.879421,-0.031610,-12.404128,0.583652,-4.890579,0.070172,-0.147393,-0.044258
3.300000,0.275903,0.376212,0.435922,0.498433,0.458719,0.369503,-0.402958,0.071099,0.074073,0.044672,-0.019780,-0.119364,-0.235795,-0.929486,-0.011036,-0.033859,-0.069747,-0.124608,-0.165139,-0.181056,3.973008,-0.031767,-12.417058,0.585136,-4.890837,0.070811,-0.146810,-0.043061
3.310000,0.276613,0.376951,0.436365,0.498228,0.457517,0.367136,-0.412053,0.070989,0.073734,0.043974,-0.021026,-0.121013,-0.237600,-0.889304,-0.011065,-0.033926,-0.069818,-0.124557,-0.164706,-0.179896,4.062678,-0.031910,-12.429992,0.586595,-4.891090,0.071412,-0.146240,-0.041896
3.320000,0.277322,0.377686,0.436801,0.498012,0.456299,0.364751,-0.420741,0.070878,0.073395,0.043275,-0.022271,-0.122658,-0.239393,-0.848246,-0.011093,-0.033992,-0.069888,-0.124503,-0.164268,-0.178728,4.148342,-0.032041,-12.442933,0.588026,-4.891342,0.071975,-0.145685,-0.040766
3.330000,0.278031,0.378419,0.437231,0.497783,0.455064,0.362348,-0.429015,0.070767,0.073054,0.042576,-0.023516,-0.124298,-0.241174,-0.806351,-0.011121,-0.034058,-0.069957,-0.124446,-0.163823,-0.177550,4.229917,-0.032163,-12.455883,0.589430,-4.891595,0.072502,-0.145148,-0.039671
3.340000,0.278738,0.379147,0.437653,0.497542,0.453813,0.359927,-0.436866,0.070656,0.072713,0.041876,-0.024760,-0.125934,-0.242944,-0.763661,-0.011150,-0.034123,-0.070024,-0.124385,-0.163373,-0.176364,4.307322,-0.032277,-12.468844,0.590805,-4.891852,0.072991,-0.144631,-0.038614
3.350000,0.279444,0.379873,0.438068,0.497288,0.452545,0.357489,-0.444286,0.070544,0.072372,0.041176,-0.026004,-0.127566,-0.244701,-0.720218,-0.011178,-0.034189,-0.070091,-0.124322,-0.162916,-0.175170,4.380480,-0.032385,-12.481818,0.592151,-4.892114,0.073442,-0.144134,-0.037597
3.360000,0.280149,0.380595,0.438476,0.497022,0.451261,0.355033,-0.451268,0.070432,0.072030,0.040474,-0.027247,-0.129193,-0.246447,-0.676066,-0.011206,-0.034254,-0.070156,-0.124255,-0.162454,-0.173966,4.449320,-0.032489,-12.494806,0.593467,-4.892385,0.073856,-0.143660,-0.036620
3.370000,0.280852,0.381313,0.438878,0.496743,0.449961,0.352560,-0.457805,0.070320,0.071687,0.039772,-0.028489,-0.130815,-0.248181,-0.631247,-0.011234,-0.034318,-0.070220,-0.124186,-0.161986,-0.172754,4.513773,-0.032591,-12.507810,0.594753,-4.892666,0.074232,-0.143210,-0.035686
3.380000,0.281555,0.382029,0.439272,0.496452,0.448645,0.350070,-0.463891,0.070207,0.071343,0.039070,-0.029730,-0.132432,-0.249902,-0.585805,-0.011262,-0.034383,-0.070283,-0.124113,-0.161512,-0.171534,4.573776,-0.032693,-12.520831,0.596008,-4.892957,0.074570,-0.142787,-0.034796
3.390000,0.282256,0.382740,0.439659,0.496148,0.447313,0.347562,-0.469519,0.070095,0.070999,0.038367,-0.030971,-0.134045,-0.251611,-0.539786,-0.011290,-0.034447,-0.070345,-0.124037,-0.161033,-0.170305,4.629270,-0.032795,-12.533869,0.597231,-4.893262,0.074871,-0.142390,-0.033951
3.400000,0.282957,0.383449,0.440039,0.495832,0.445964,0.345037,-0.474685,0.069982,0.070654,0.037663,-0.032211,-0.135653,-0.253308,-0.493235,-0.011318,-0.034510,-0.070406,-0.123958,-0.160547,-0.169068,4.680201,-0.032900,-12.546925,0.598421,-4.893581,0.075133,-0.142022,-0.033152
3.410000,0.283656,0.384153,0.440412,0.495504,0.444600,0.342496,-0.479382,0.069868,0.070309,0.036959,-0.033450,-0.137256,-0.254993,-0.446198,-0.011346,-0.034574,-0.070466,-0.123876,-0.160056,-0.167823,4.726516,-0.033008,-12.559999,0.599579,-4.893915,0.075358,-0.141684,-0.032401
3.420000,0.284354,0.384855,0.440778,0.495163,0.443219,0.339938,-0.483607,0.069755,0.069963,0.036254,-0.034689,-0.138854,-0.256665,-0.398720,-0.011374,-0.034637,-0.070525,-0.123791,-0.159559,-0.166569,4.768173,-0.033121,-12.573092,0.600703,-4.894264,0.075545,-0.141376,-0.031699
3.430000,0.285051,0.385553,0.441137,0.494810,0.441823,0.337363,-0.487355,0.069641,0.069616,0.035548,-0.035926,-0.140447,-0.258324,-0.350850,-0.011402,-0.034700,-0.070582,-0.123703,-0.159056,-0.165308,4.805128,-0.033240,-12.586203,0.601793,-4.894631,0.075693,-0.141100,-0.031047
3.440000,0.285747,0.386247,0.441489,0.494445,0.440410,0.334771,-0.490623,0.069527,0.069269,0.034842,-0.037163,-0.142035,-0.259971,-0.302633,-0.011430,-0.034762,-0.070638,-0.123611,-0.158548,-0.164038,4.837346,-0.033367,-12.599334,0.602848,-4.895015,0.075803,-0.140856,-0.030446
3.450000,0.286442,0.386938,0.441834,0.494067,0.438982,0.332163,-0.493407,0.069412,0.068921,0.034135,-0.038398,-0.143618,-0.261605,-0.254119,-0.011458,-0.034824,-0.070693,-0.123517,-0.158034,-0.162760,4.864795,-0.033500,-12.612482,0.603868,-4.895416,0.075874,-0.140646,-0.029896
3.460000,0.287135,0.387626,0.442172,0.493677,0.437538,0.329539,-0.495704,0.069297,0.068572,0.033428,-0.039633,-0.145196,-0.263226,-0.205354,-0.011485,-0.034886,-0.070748,-0.123419,-0.157514,-0.161474,4.887448,-0.033642,-12.625649,0.604852,-4.895836,0.075907,-0.140469,-0.029399
3.470000,0.287828,0.388310,0.442503,0.493274,0.436078,0.326899,-0.497513,0.069182,0.068223,0.032720,-0.040867,-0.146768,-0.264834,-0.156386,-0.011513,-0.034948,-0.070800,-0.123319,-0.156988,-0.160180,4.905282,-0.033792,-12.638834,0.605800,-4.896273,0.075900,-0.140327,-0.028955
3.480000,0.288519,0.388990,0.442826,0.492860,0.434603,0.324243,-0.498832,0.069067,0.067873,0.032012,-0.042099,-0.148335,-0.266430,-0.107264,-0.011541,-0.035009,-0.070852,-0.123215,-0.156457,-0.158879,4.918281,-0.033951,-12.652036,0.606712,-4.896728,0.075854,-0.140219,-0.028566
3.490000,0.289209,0.389667,0.443143,0.492432,0.433111,0.321570,-0.499658,0.068952,0.067523,0.031303,-0.043331,-0.149897,-0.268012,-0.058036,-0.011568,-0.035070,-0.070903,-0.123108,-0.155920,-0.157569,4.926431,-0.034119,-12.665255,0.607587,-4.897200,0.075768,-0.140145,-0.028230
3.500000,0.289898,0.390340,0.443452,0.491993,0.431605,0.318882,-0.499992,0.068836,0.067172,0.030594,-0.044562,-0.151454,-0.269581,-0.008752,-0.011596,-0.035131,-0.070952,-0.122998,-0.155378,-0.156252,4.929723,-0.034296,-12.678491,0.608425,-4.897689,0.075643,-0.140107,-0.027950
3.510000,0.290586,0.391010,0.443755,0.491541,0.430082,0.316179,-0.499833,0.068720,0.066820,0.029884,-0.045791,-0.153005,-0.271137,0.040542,-0.011623,-0.035191,-0.071001,-0.122885,-0.154830,-0.154928,4.928156,-0.034481,-12.691742,0.609226,-4.898194,0.075476,-0.140103,-0.027725
3.520000,0.291272,0.391677,0.444050,0.491077,0.428545,0.313460,-0.499182,0.068603,0.066468,0.029174,-0.047019,-0.154550,-0.272679,0.089795,-0.011651,-0.035251,-0.071048,-0.122769,-0.154276,-0.153595,4.921730,-0.034673,-12.705009,0.609989,-4.898715,0.075269,-0.140133,-0.027556
3.530000,0.291958,0.392340,0.444338,0.490601,0.426991,0.310725,-0.498038,0.068487,0.066115,0.028463,-0.048246,-0.156090,-0.274209,0.138960,-0.011678,-0.035311,-0.071094,-0.122650,-0.153717,-0.152255,4.910452,-0.034873,-12.718290,0.610715,-4.899251,0.075021,-0.140198,-0.027443
3.540000,0.292642,0.392999,0.444619,0.490112,0.425423,0.307976,-0.496403,0.068370,0.065762,0.027752,-0.049472,-0.157625,-0.275725,0.187988,-0.011706,-0.035370,-0.071139,-0.122528,-0.153152,-0.150908,4.894333,-0.035079,-12.731585,0.611402,-4.899800,0.074730,-0.140297,-0.027386
3.550000,0.293325,0.393655,0.444893,0.489611,0.423839,0.305211,-0.494279,0.068253,0.065408,0.027041,-0.050697,-0.159153,-0.277227,0.236831,-0.011733,-0.035429,-0.071183,-0.122403,-0.152582,-0.149553,4.873388,-0.035291,-12.744892,0.612052,-4.900361,0.074398,-0.140429,-0.027385
3.560000,0.294007,0.394307,0.445160,0.489098,0.422240,0.302431,-0.491667,0.068135,0.065053,0.026329,-0.051920,-0.160676,-0.278716,0.285440,-0.011760,-0.035488,-0.071226,-0.122275,-0.152006,-0.148191,4.847639,-0.035506,-12.758212,0.612663,-4.900933,0.074023,-0.140593,-0.027441
3.570000,0.294688,0.394956,0.445420,0.488573,0.420625,0.299636,-0.488571,0.068017,0.064698,0.025616,-0.053142,-0.162194,-0.280191,0.333768,-0.011788,-0.035546,-0.071267,-0.122143,-0.151425,-0.146822,4.817111,-0.035724,-12.771542,0.613237,-4.901514,0.073605,-0.140788,-0.027553
3.580000,0.295367,0.395601,0.445672,0.488035,0.418996,0.296827,-0.484993,0.067899,0.064343,0.024903,-0.054363,-0.163705,-0.281652,0.381766,-0.011815,-0.035604,-0.071308,-0.122009,-0.150839,-0.145445,4.781834,-0.035943,-12.784882,0.613772,-4.902103,0.073143,-0.141015,-0.027721
3.590000,0.296046,0.396243,0.445918,0.487486,0.417351,0.294004,-0.480937,0.067781,0.063986,0.024190,-0.055583,-0.165210,-0.283100,0.429389,-0.011842,-0.035662,-0.071347,-0.121871,-0.150246,-0.144062,4.741842,-0.036162,-12.798230,0.614269,-4.902698,0.072637,-0.141271,-0.027945
3.600000,0.296723,0.396881,0.446156,0.486924,0.415692,0.291165,-0.476406,0.067663,0.063629,0.023476,-0.056801,-0.166710,-0.284533,0.476588,-0.011869,-0.035719,-0.071385,-0.121731,-0.149649,-0.142671,4.697176,-0.036378,-12.811586,0.614728,-4.903297,0.072086,-0.141555,-0.028224
3.610000,0.297399,0.397516,0.446387,0.486350,0.414017,0.288313,-0.471406,0.067544,0.063272,0.022762,-0.058017,-0.168203,-0.285953,0.523317,-0.011896,-0.035776,-0.071422,-0.121587,-0.149046,-0.141273,4.647878,-0.036591,-12.824947,0.615148,-4.903897,0.071490,-0.141867,-0.028559
3.620000,0.298074,0.398146,0.446612,0.485763,0.412328,0.285446,-0.465942,0.067425,0.062914,0.022048,-0.059232,-0.169691,-0.287359,0.569530,-0.011923,-0.035833,-0.071458,-0.121441,-0.148438,-0.139869,4.593999,-0.036796,-12.838313,0.615531,-4.904496,0.070848,-0.142205,-0.028949
3.630000,0.298748,0.398774,0.446828,0.485165,0.410623,0.282566,-0.460018,0.067305,0.062555,0.021333,-0.060446,-0.171172,-0.288750,0.615182,-0.011950,-0.035890,-0.071493,-0.121291,-0.147824,-0.138457,4.535590,-0.036994,-12.851681,0.615876,-4.905092,0.070160,-0.142566,-0.029393
