FrankJIE09/Dynamics_identification_Frank/build_outputs/dynamics_identification_data copy.csv
time,q0,q1,q2,q3,q4,q5,q6,dq0,dq1,dq2,dq3,dq4,dq5,dq6,ddq0,ddq1,ddq2,ddq3,ddq4,ddq5,ddq6,tau0,tau1,tau2,tau3,tau4,tau5,tau6
0.001000,-0.262077,-0.958759,-0.056956,1.424528,0.102927,-0.478459,0.199053,0.000000,0.000000,-0.001047,0.000000,0.000000,-0.000000,0.000000,-0.000000,0.000000,-1.103046,-0.002017,-0.000276,-0.000005,-0.779373,2.801186,-17.385113,-2.268061,-5.822340,0.051844,-0.413038,0.000684
0.011000,-0.261999,-0.958618,-0.056844,1.424584,0.102870,-0.478654,0.198711,0.051487,0.085521,0.070162,0.035605,-0.034558,-0.130900,-0.216770,17.893006,23.783452,18.996267,12.472136,-8.985183,-46.805234,-61.780285,4.299386,-15.006889,-1.242197,-5.491825,0.040733,-0.770478,-0.269226
0.021000,-0.261400,-0.957761,-0.056084,1.424908,0.102424,-0.480279,0.196252,0.043633,0.049742,0.055501,0.016755,-0.038746,-0.124617,0.012566,-4.560542,-8.505005,-3.024570,-3.902278,1.297652,14.312640,117.597108,1.060035,-11.316541,-3.112889,-3.328457,-0.081490,-0.781309,0.249832
0.031000,-0.261094,-0.957452,-0.055736,1.425026,0.102109,-0.481210,0.196653,0.014835,0.020071,0.016755,0.008378,-0.021991,-0.059690,-0.064926,-2.646418,-1.716777,-3.726575,-2.354975,1.863023,5.281879,-18.975643,4.947257,-18.451213,-1.634439,-6.513416,-0.003712,-0.867961,-0.113509
0.041000,-0.260996,-0.957271,-0.055628,1.425106,0.101938,-0.481664,0.195100,0.006981,0.016581,0.007330,0.005236,-0.012566,-0.032463,-0.229336,-0.740875,-0.651463,0.518956,-0.813246,-0.851627,2.293812,-5.389370,1.788889,-21.936541,-3.354269,-8.256129,-0.092601,-0.954613,-0.134271
0.051000,-0.260949,-0.957130,-0.055585,1.425140,0.101840,-0.481933,0.192469,0.001745,0.009599,0.000000,-0.001047,-0.008378,-0.020944,-0.305782,-0.105391,-0.886358,-0.032765,-1.717226,-1.556598,0.926086,-25.586480,3.772992,-19.476310,-1.212025,-6.303088,-0.014823,-0.792141,-0.227702
0.061000,-0.260928,-0.957073,-0.055574,1.425123,0.101765,-0.482101,0.189297,0.001745,0.000000,0.000000,-0.001047,-0.005236,-0.011519,-0.357094,0.000004,-0.963789,-0.886737,0.109027,0.260513,-0.421652,-33.338522,2.963154,-14.268819,-2.569785,-4.981030,-0.059267,-0.694657,-0.155034
0.071000,-0.260919,-0.957075,-0.055564,1.425098,0.101701,-0.482204,0.185896,0.000000,0.000000,0.000000,-0.002094,-0.006283,-0.007330,-0.329867,-0.012480,0.000032,-0.000050,0.003751,-0.333710,0.815183,29.168788,3.044138,-17.016078,-2.328406,-4.770702,-0.025934,-0.781309,-0.175796
0.081000,-0.260912,-0.957055,-0.055563,1.425097,0.101647,-0.482276,0.182357,0.000000,0.003491,0.000000,0.001047,-0.005236,-0.005236,-0.380133,-0.738884,0.115921,0.886660,0.017069,-0.195608,-0.533352,-23.465673,3.125121,-20.542410,-2.117198,-7.625147,-0.114823,-0.878793,-0.155034
0.091000,-0.260903,-0.957006,-0.055565,1.425101,0.101603,-0.482332,0.178773,0.000000,0.004363,0.000000,-0.001047,-0.004189,-0.004189,-0.359189,-0.663404,-0.752610,-0.107005,-0.903421,0.012398,0.137031,-7.674867,3.246597,-20.583414,-1.905991,-7.114352,-0.048156,-0.824635,-0.134271
0.101000,-0.260899,-0.956983,-0.055567,1.425084,0.101563,-0.482385,0.175113,0.000873,-0.000873,0.000000,-0.003142,-0.003142,-0.005236,-0.345575,0.663671,-0.768997,-0.000282,-0.893083,-0.672358,-0.767247,29.299436,2.396267,-15.703954,-2.237888,-5.191357,-0.081490,-0.770478,-0.134271
0.111000,-0.260894,-0.957012,-0.055577,1.425040,0.101525,-0.482436,0.171412,0.000000,-0.003491,-0.001047,-0.002094,-0.004189,-0.005236,-0.373850,-0.000000,0.647493,0.106972,1.027495,-0.901076,-0.903371,3.601374,3.003646,-13.243722,-1.513750,-4.440188,-0.037045,-0.705488,-0.175796
0.121000,-0.260891,-0.957052,-0.055580,1.425010,0.101487,-0.482483,0.167700,0.000000,-0.002618,0.000000,0.000000,-0.003142,-0.005236,-0.398982,-0.663403,0.014234,0.000000,1.119773,-0.762659,-0.901360,-31.122913,2.760694,-16.483028,-2.358578,-5.491825,-0.037045,-0.759646,-0.134271
0.131000,-0.260892,-0.957059,-0.055586,1.425006,0.101450,-0.482529,0.163977,0.000000,0.000873,0.000000,0.000000,-0.003142,-0.005236,-0.385369,-0.000000,0.752851,0.014416,-0.016433,0.092322,-0.919848,-23.187596,3.084630,-19.107275,-2.207716,-6.513416,-0.014823,-0.857130,-0.144652
0.141000,-0.260892,-0.957047,-0.055584,1.425005,0.101414,-0.482573,0.160228,0.000000,0.000873,0.000000,0.000000,-0.002094,-0.004189,-0.357094,0.089175,0.000004,-0.000005,-0.121741,0.888723,0.010305,19.253752,3.530040,-19.230286,-2.298233,-6.363182,-0.048156,-0.889624,-0.134271
0.151000,-0.260895,-0.957042,-0.055592,1.424991,0.101378,-0.482617,0.156463,0.000000,0.000000,0.000000,-0.002094,-0.002094,-0.004189,-0.353953,0.000004,-0.000032,0.017025,0.655049,0.230811,-0.980948,34.731785,2.882170,-16.688047,-2.328406,-5.371638,-0.014823,-0.824635,-0.144652
0.161000,-0.260897,-0.957049,-0.055597,1.424967,0.101342,-0.482661,0.152673,0.000000,0.000000,-0.001047,-0.002094,-0.003142,-0.004189,-0.375944,0.000000,0.740569,-0.901397,-0.777633,-0.014726,-1.466474,14.156177,3.449057,-17.139089,-2.237888,-5.491825,-0.081490,-0.737983,-0.134271
0.171000,-0.260899,-0.957047,-0.055602,1.424957,0.101307,-0.482702,0.148886,0.000000,0.000000,0.000000,0.000000,-0.002094,-0.003142,-0.393746,0.000000,0.000000,0.107010,0.808803,0.995417,0.029109,-15.850336,2.963154,-18.779244,-2.479268,-6.453322,-0.081490,-0.878793,-0.134271
0.181000,-0.260900,-0.957042,-0.055611,1.424953,0.101274,-0.482738,0.145078,0.000000,0.000000,-0.001047,-0.001047,-0.003142,-0.003142,-0.412596,0.000000,-0.089176,-0.779412,-0.901316,-0.000244,-0.685349,-40.880965,2.963154,-18.861252,-2.117198,-6.513416,-0.081490,-0.824635,-0.155034
0.191000,-0.260900,-0.957042,-0.055622,1.424941,0.101246,-0.482767,0.141652,0.000000,-0.000873,0.000000,-0.001047,-0.003142,-0.004189,-0.357094,0.000000,-0.103368,0.779412,1.663690,-0.105309,-1.885983,35.811690,2.963154,-16.852062,-2.207716,-5.912480,-0.059267,-0.835467,-0.134271
0.201000,-0.260899,-0.957056,-0.055632,1.424913,0.101213,-0.482798,0.137823,0.000000,-0.001745,0.000000,-0.003142,-0.003142,-0.002094,-0.363378,0.000000,-0.663635,0.903100,-0.121709,-0.000001,-0.075047,31.264356,2.720202,-14.801869,-2.147371,-4.920936,-0.048156,-0.824635,-0.113509
0.211000,-0.260899,-0.957081,-0.055645,1.424885,0.101181,-0.482831,0.133993,0.000000,-0.001745,0.000000,-0.001047,-0.003142,-0.002094,-0.371755,-0.089175,0.089406,1.695420,0.246060,-0.107012,1.653163,19.201320,2.841678,-16.113993,-2.026681,-5.461778,-0.037045,-0.835467,-0.144652
0.221000,-0.260897,-0.957094,-0.055655,1.424873,0.101151,-0.482862,0.130147,0.000000,0.000000,0.000000,0.000000,-0.003142,-0.000000,-0.386416,-0.000231,0.014194,0.014737,0.916048,-0.903376,0.843349,2.488499,2.882170,-17.631136,-2.056854,-6.273042,-0.014823,-0.889624,-0.165415
0.231000,-0.260898,-0.957089,-0.055662,1.424869,0.101119,-0.482892,0.126297,0.000000,0.000000,0.000000,0.000000,-0.002094,-0.002094,-0.402124,-0.000000,-0.651191,0.016721,0.779374,0.888478,-0.779379,-15.837217,3.125121,-18.492217,-2.237888,-6.273042,-0.048156,-0.889624,-0.103128
0.241000,-0.260897,-0.957084,-0.055668,1.424858,0.101087,-0.482921,0.122437,0.000000,0.000000,0.000000,-0.002094,-0.003142,-0.002094,-0.406313,-0.000000,-0.000000,0.107010,-1.012480,-0.901396,0.134059,-23.047956,3.287089,-17.590132,-2.177543,-6.002620,-0.081490,-0.900456,-0.123890
0.251000,-0.260898,-0.957083,-0.055675,1.424842,0.101055,-0.482951,0.118577,0.000000,0.000000,0.000000,-0.001047,-0.003142,-0.002094,-0.409454,-0.000000,-0.000000,0.029386,0.792011,-0.000315,0.794377,-31.359395,3.084630,-17.221097,-2.177543,-5.942527,-0.025934,-0.770478,-0.123890
0.261000,-0.260899,-0.957081,-0.055681,1.424828,0.101024,-0.482982,0.114709,0.000000,0.000000,0.000000,-0.001047,-0.002094,-0.002094,-0.408407,-0.000000,-0.649478,0.000010,-0.092040,0.108989,0.766905,-33.498930,3.206105,-18.041174,-2.298233,-5.972574,-0.081490,-0.824635,-0.134271
0.271000,-0.260900,-0.957076,-0.055686,1.424817,0.100995,-0.483011,0.110817,0.000000,0.000000,-0.001047,-0.001047,-0.002094,-0.002094,-0.414690,-0.000000,-0.000004,-0.888682,0.657671,0.674942,-0.566815,-34.337116,3.246597,-18.205190,-2.237888,-6.122808,-0.114823,-0.813804,-0.123890
0.281000,-0.260900,-0.957074,-0.055695,1.424804,0.100965,-0.483041,0.106923,0.000000,0.000000,-0.001047,0.000000,-0.002094,-0.002094,-0.412596,-0.000000,-0.000000,-0.874024,0.916089,0.888716,-0.764642,-33.233543,2.882170,-17.180093,-2.147371,-5.762246,-0.125934,-0.835467,-0.134271
0.291000,-0.260901,-0.957080,-0.055706,1.424782,0.100935,-0.483070,0.103032,0.000000,-0.000873,0.000000,-0.001047,-0.004189,-0.002094,-0.404218,-0.000000,-0.661989,0.779417,0.796442,-0.918385,-1.453510,-30.148280,3.044138,-16.237004,-2.207716,-5.281498,-0.048156,-0.802972,-0.103128
0.301000,-0.260901,-0.957089,-0.055714,1.424759,0.100907,-0.483097,0.099127,0.000000,0.000000,0.000000,-0.001047,-0.003142,-0.002094,-0.401077,-0.000000,0.663670,0.214065,0.107335,-0.016433,-0.672043,-24.065872,3.084630,-16.606039,-2.237888,-5.762246,-0.059267,-0.846298,-0.134271
0.311000,-0.260901,-0.957094,-0.055722,1.424746,0.100879,-0.483124,0.095216,0.000000,0.000000,0.000000,-0.002094,-0.002094,-0.002094,-0.396888,-0.000000,0.000004,0.214097,-1.012448,0.109028,0.655654,-17.243412,3.044138,-17.672140,-2.388751,-6.152854,-0.081490,-0.835467,-0.092747
0.321000,-0.260901,-0.957093,-0.055731,1.424738,0.100850,-0.483149,0.091291,0.000000,0.000000,0.000000,-0.001047,-0.003142,-0.000000,-0.400029,-0.000004,0.000000,1.665757,0.659646,-1.683064,1.989451,-17.563653,2.801186,-18.246194,-2.328406,-6.423275,-0.081490,-0.813804,-0.123890
0.331000,-0.260902,-0.957091,-0.055737,1.424728,0.100822,-0.483175,0.087369,0.000000,0.000000,-0.001047,0.000000,-0.002094,-0.003142,-0.394793,-0.000000,0.000000,-2.554478,0.017269,0.014660,-0.918107,-15.587486,3.044138,-17.959167,-2.268061,-6.062714,-0.059267,-0.857130,-0.092747
0.341000,-0.260902,-0.957092,-0.055744,1.424714,0.100792,-0.483200,0.083436,0.000000,0.000000,0.000000,-0.001047,-0.003142,-0.002094,-0.397935,-0.000000,0.000000,0.014464,-0.779091,0.900793,-0.000516,-15.999936,3.125121,-17.549128,-2.177543,-5.942527,-0.070379,-0.759646,-0.103128
0.351000,-0.260902,-0.957093,-0.055754,1.424701,0.100761,-0.483224,0.079488,0.000000,0.000000,-0.002094,0.000000,-0.003142,-0.002094,-0.403171,-0.000000,0.000000,-1.548753,1.669798,0.010609,-0.107325,-19.664608,3.003646,-17.713144,-2.358578,-6.032667,-0.048156,-0.878793,-0.082365
0.361000,-0.260902,-0.957095,-0.055765,1.424688,0.100730,-0.483248,0.075541,0.000000,0.000000,-0.003142,-0.001047,-0.002094,-0.002094,-0.406313,-0.000000,0.000000,-2.907590,-0.792054,1.681004,-0.092318,-22.493232,3.003646,-17.262101,-2.328406,-6.212948,-0.037045,-0.824635,-0.123890
0.371000,-0.260902,-0.957101,-0.055772,1.424674,0.100697,-0.483272,0.071603,0.000000,-0.000873,-0.001047,-0.001047,-0.003142,-0.002094,-0.405265,-0.000000,-0.752846,-0.104765,0.685322,-0.123754,-0.079642,-24.078839,3.084630,-17.057082,-2.449095,-5.942527,-0.070379,-0.792141,-0.113509
0.381000,-0.260902,-0.957113,-0.055781,1.424656,0.100667,-0.483296,0.067652,0.000000,-0.000873,0.000000,-0.001047,-0.001047,-0.001047,-0.413643,-0.000000,0.087493,0.308909,0.657394,1.010399,1.682787,-29.284470,3.125121,-16.606039,-1.966336,-5.672106,-0.037045,-0.846298,-0.134271
0.391000,-0.260902,-0.957128,-0.055791,1.424638,0.100637,-0.483320,0.063699,0.000000,-0.000873,0.000000,-0.002094,-0.002094,-0.002094,-0.415737,-0.000000,0.013926,0.808765,-0.903659,0.871739,-0.121708,-29.424519,3.125121,-16.483028,-2.147371,-5.822340,-0.059267,-0.813804,-0.134271
0.401000,-0.260902,-0.957139,-0.055797,1.424624,0.100608,-0.483345,0.059734,0.000000,-0.000873,0.002094,0.000000,-0.003142,-0.002094,-0.415737,-0.000000,-0.649478,2.021957,0.107054,-0.811098,-0.002023,-28.032237,3.165613,-17.221097,-2.268061,-6.032667,-0.092601,-0.792141,-0.123890
0.411000,-0.260902,-0.957139,-0.055804,1.424612,0.100579,-0.483368,0.055774,0.000000,0.000000,-0.003142,-0.001047,-0.002094,-0.000000,-0.416785,-0.000000,0.000000,-4.116429,-0.886389,0.105035,1.025406,-29.931475,3.206105,-17.713144,-2.207716,-6.122808,-0.059267,-0.878793,-0.134271
0.421000,-0.260903,-0.957137,-0.055812,1.424600,0.100550,-0.483392,0.051803,0.000000,0.000873,0.000000,-0.002094,-0.001047,-0.001047,-0.422021,-0.000000,0.751164,0.691335,-0.916411,1.684844,1.772772,-29.983709,3.125121,-17.836155,-2.358578,-6.152854,-0.070379,-0.835467,-0.155034
0.431000,-0.260904,-0.957135,-0.055819,1.424586,0.100520,-0.483415,0.047822,0.000000,0.000000,-0.002094,0.000000,-0.002094,-0.001047,-0.416785,-0.000000,-0.000000,-1.487502,2.342747,0.123998,0.781945,-20.404165,3.003646,-17.672140,-2.147371,-5.912480,0.018510,-0.824635,-0.155034
0.441000,-0.260905,-0.957135,-0.055827,1.424572,0.100488,-0.483438,0.043843,0.000000,0.000000,0.001047,-0.001047,-0.003142,-0.002094,-0.406313,-0.000000,-0.000000,1.195895,0.108995,-0.123486,0.565596,-8.742953,3.084630,-17.508124,-2.147371,-5.972574,-0.048156,-0.824635,-0.113509
0.451000,-0.260905,-0.957135,-0.055838,1.424556,0.100459,-0.483461,0.039873,0.000000,0.000000,-0.001047,0.000000,-0.002094,-0.001047,-0.400029,-0.000000,-0.000000,1.373794,0.888717,0.915785,1.668334,-3.887676,3.044138,-17.385113,-2.117198,-6.062714,-0.059267,-0.824635,-0.134271
0.461000,-0.260905,-0.957136,-0.055847,1.424541,0.100431,-0.483483,0.035887,0.000000,0.000000,-0.004189,-0.002094,-0.001047,-0.001047,-0.397935,-0.000000,-0.000000,-3.571463,-1.789522,1.682827,1.010463,5.077945,3.084630,-17.385113,-2.207716,-5.852387,-0.025934,-0.813804,-0.155034
0.471000,-0.260905,-0.957138,-0.055855,1.424525,0.100405,-0.483505,0.031903,0.000000,0.000000,0.000000,-0.002094,-0.001047,-0.000000,-0.385369,-0.000000,-0.000000,0.214574,-0.810782,0.798423,1.240922,26.026758,3.003646,-17.139089,-2.117198,-5.942527,-0.070379,-0.857130,-0.103128
0.481000,-0.260905,-0.957142,-0.055866,1.424510,0.100378,-0.483528,0.027912,0.000000,0.000000,0.000000,-0.001047,-0.002094,-0.002094,-0.380133,0.012244,0.089175,2.140531,0.871695,0.000311,-0.015019,31.065247,2.882170,-17.344109,-2.358578,-5.822340,-0.092601,-0.835467,-0.113509
0.491000,-0.260905,-0.957147,-0.055874,1.424497,0.100349,-0.483551,0.023927,0.000000,0.000000,-0.001047,0.000000,-0.004189,-0.001047,-0.376991,-0.000231,0.649482,-0.071164,0.016787,-1.699776,1.678759,31.080865,3.084630,-17.508124,-2.207716,-5.942527,-0.037045,-0.867961,-0.123890
0.501000,-0.260905,-0.957149,-0.055880,1.424485,0.100318,-0.483574,0.019932,0.000000,0.000000,0.000000,0.000000,-0.003142,-0.002094,-0.379086,-0.000000,0.000000,0.218066,0.232747,-0.120246,0.094562,33.696879,3.084630,-17.959167,-2.328406,-6.032667,-0.014823,-0.867961,-0.123890
0.511000,-0.260905,-0.957149,-0.055887,1.424471,0.100287,-0.483598,0.015931,0.000000,0.000000,0.000000,-0.002094,-0.003142,-0.002094,-0.373850,0.661722,0.000000,0.214575,-1.573804,-0.107325,-0.119682,31.059258,3.165613,-17.795151,-2.147371,-6.092761,-0.048156,-0.824635,-0.123890
0.521000,-0.260906,-0.957149,-0.055897,1.424458,0.100257,-0.483624,0.011933,0.000000,0.000000,-0.002094,0.000000,-0.003142,-0.003142,-0.386416,-0.001649,0.000000,-0.350944,1.684763,-1.010424,-0.796725,10.739302,3.003646,-17.426117,-2.056854,-6.092761,-0.092601,-0.835467,-0.134271
0.531000,-0.260906,-0.957154,-0.055903,1.424443,0.100230,-0.483648,0.007943,0.000000,0.000000,-0.001047,-0.001047,-0.002094,-0.002094,-0.395841,-0.000000,0.000000,-0.118767,-0.777600,0.092318,-0.107004,-4.578876,3.003646,-17.426117,-2.237888,-6.062714,-0.059267,-0.824635,-0.134271
0.541000,-0.260906,-0.957161,-0.055913,1.424427,0.100204,-0.483671,0.003942,0.000000,-0.000873,0.000000,0.000000,-0.002094,-0.001047,-0.401077,-0.000000,-0.091124,2.181403,1.817203,-0.764919,-0.760336,-11.558911,3.084630,-17.180093,-2.147371,-6.002620,-0.081490,-0.857130,-0.134271
0.551000,-0.260906,-0.957170,-0.055921,1.424412,0.100179,-0.483695,-0.000059,0.000000,-0.000873,-0.001047,-0.001047,-0.001047,-0.002094,-0.411549,-0.000000,-0.013957,-1.494182,0.012709,0.810820,-0.000283,-21.578079,3.206105,-17.098086,-2.388751,-5.972574,-0.025934,-0.878793,-0.165415
0.561000,-0.260906,-0.957178,-0.055931,1.424397,0.100153,-0.483718,-0.004060,0.000000,-0.000873,-0.001047,-0.001047,-0.001047,-0.003142,-0.422021,-0.000000,-0.101686,-0.802941,-0.001773,0.901670,-1.146576,-32.931715,3.084630,-16.934070,-2.237888,-5.822340,-0.003712,-0.813804,-0.134271
0.571000,-0.260906,-0.957186,-0.055940,1.424382,0.100126,-0.483741,-0.008055,0.000000,-0.000873,0.000000,0.000000,-0.004189,-0.002094,-0.426209,-0.000000,-0.740565,1.588127,1.575502,-2.583914,-1.650776,-34.141897,3.206105,-17.221097,-2.207716,-6.092761,-0.059267,-0.878793,-0.155034
0.581000,-0.260906,-0.957190,-0.055948,1.424368,0.100100,-0.483762,-0.012058,0.000000,0.000000,0.002094,-0.002094,-0.002094,-0.002094,-0.418879,-0.000000,0.000000,3.288230,-1.010431,0.107015,0.089708,-23.800751,3.206105,-17.508124,-2.177543,-5.942527,-0.070379,-0.792141,-0.144652
0.591000,-0.260907,-0.957192,-0.055956,1.424356,0.100073,-0.483783,-0.016061,0.000000,0.000000,0.000000,-0.001047,-0.001047,-0.002094,-0.405265,-0.000000,0.000000,0.781910,-0.121702,1.010659,0.747616,-4.268145,2.922662,-17.508124,-2.358578,-6.092761,-0.048156,-0.857130,-0.175796
0.601000,-0.260907,-0.957191,-0.055963,1.424343,0.100046,-0.483802,-0.020061,0.000000,0.000000,-0.001047,-0.001047,-0.001047,-0.002094,-0.402124,-0.000000,0.000000,-1.357761,0.090332,0.905431,0.014650,1.442817,3.246597,-17.549128,-2.237888,-6.062714,-0.070379,-0.878793,-0.134271
0.611000,-0.260908,-0.957190,-0.055971,1.424331,0.100018,-0.483822,-0.024053,0.000000,0.000000,-0.001047,0.000000,-0.001047,-0.001047,-0.391652,-0.000000,0.000000,0.668318,0.214580,1.774867,-0.779651,20.012824,3.165613,-17.508124,-2.117198,-6.002620,0.007399,-0.878793,-0.144652
0.621000,-0.260909,-0.957191,-0.055978,1.424318,0.099994,-0.483839,-0.027650,0.000000,0.000000,0.000000,-0.001047,-0.003142,-0.003142,-0.423068,-0.000000,0.000000,0.808835,0.012394,-0.813152,-1.025678,-33.119706,3.125121,-17.344109,-2.207716,-5.942527,-0.048156,-0.813804,-0.175796
0.631000,-0.260909,-0.957193,-0.055986,1.424304,0.099968,-0.483859,-0.031651,0.000000,0.000000,-0.002094,-0.001047,-0.002094,-0.002094,-0.422021,-0.000000,0.000004,-1.802787,-0.014932,-0.764643,0.195220,-30.132709,3.084630,-17.385113,-2.117198,-5.942527,-0.125934,-0.792141,-0.165415
0.641000,-0.260909,-0.957196,-0.055995,1.424290,0.099944,-0.483877,-0.035234,0.000000,0.000000,-0.002094,0.000000,-0.002094,-0.002094,-0.389557,-0.000000,0.000000,-1.711941,1.665796,-0.685043,-0.214062,2.667117,3.084630,-17.221097,-2.087026,-6.032667,-0.059267,-0.813804,-0.134271
0.651000,-0.260909,-0.957200,-0.056003,1.424276,0.099918,-0.483896,-0.039226,0.000000,-0.000873,0.001047,-0.001047,-0.001047,-0.001047,-0.396888,-0.000000,-0.752846,1.699308,-0.014970,0.888370,-0.901346,-8.033646,2.963154,-17.426117,-2.117198,-6.122808,-0.081490,-0.792141,-0.134271
0.661000,-0.260909,-0.957204,-0.056012,1.424262,0.099892,-0.483915,-0.043224,0.000000,0.000000,0.000000,0.000000,-0.002094,-0.000000,-0.402124,-0.089175,0.089175,0.794148,0.138734,-0.978657,1.912012,-15.314393,2.882170,-17.590132,-2.177543,-6.122808,-0.103712,-0.846298,-0.113509
0.671000,-0.260909,-0.957207,-0.056021,1.424247,0.099864,-0.483934,-0.047224,0.000000,0.000000,0.000000,-0.001047,-0.004189,-0.001047,-0.411549,-0.000001,0.000004,0.792643,0.779374,-1.806825,0.995720,-24.994559,3.084630,-17.549128,-2.207716,-6.152854,-0.159267,-0.824635,-0.123890
0.681000,-0.260909,-0.957210,-0.056029,1.424234,0.099839,-0.483951,-0.051212,0.000000,0.000000,-0.001047,0.000000,-0.001047,-0.000000,-0.416785,-0.000000,0.000000,-0.016753,0.030227,0.245744,1.775420,-31.400398,3.125121,-17.590132,-2.087026,-6.092761,-0.048156,-0.846298,-0.144652
0.691000,-0.260910,-0.957212,-0.056038,1.424220,0.099815,-0.483969,-0.055193,0.000000,0.000000,-0.001047,0.000000,0.000000,-0.002094,-0.419926,-0.000000,0.000000,-0.090334,0.993433,1.884728,-0.140984,-30.831031,3.003646,-17.754147,-2.298233,-6.182901,-0.070379,-0.857130,-0.155034
0.701000,-0.260910,-0.957214,-0.056046,1.424206,0.099790,-0.483986,-0.059175,0.000000,0.000000,0.000000,-0.001047,-0.002094,-0.001047,-0.420973,-0.000000,0.000000,0.014980,0.672124,0.655344,1.544342,-26.289591,3.084630,-17.508124,-2.026681,-6.032667,-0.003712,-0.867961,-0.155034
0.711000,-0.260910,-0.957219,-0.056055,1.424190,0.099765,-0.484004,-0.063152,0.000000,0.000000,-0.002094,-0.002094,-0.001047,-0.000000,-0.413643,-0.000000,0.000032,-1.027178,-0.901641,1.010180,0.035448,-19.747724,3.003646,-17.139089,-2.207716,-6.062714,-0.081490,-0.889624,-0.144652
0.721000,-0.260910,-0.957227,-0.056064,1.424175,0.099738,-0.484022,-0.067120,0.000000,0.000000,-0.002094,-0.001047,-0.002094,-0.002094,-0.407360,-0.000000,0.740335,-1.697525,-0.794066,0.016401,-0.905703,-11.205624,3.084630,-17.221097,-2.177543,-5.882433,-0.014823,-0.846298,-0.165415
0.731000,-0.260911,-0.957235,-0.056073,1.424159,0.099710,-0.484040,-0.071082,0.000000,-0.000873,0.000000,0.000000,-0.002094,-0.002094,-0.400029,-0.000000,-0.013961,0.886705,0.997755,0.674695,-0.917830,2.782609,3.287089,-17.344109,-2.117198,-5.972574,-0.081490,-0.824635,-0.155034
0.741000,-0.260911,-0.957242,-0.056081,1.424144,0.099683,-0.484057,-0.075050,0.000000,0.000000,0.000000,-0.001047,-0.002094,-0.001047,-0.395841,-0.000000,0.101456,0.781402,-0.762625,0.109309,0.888396,7.866491,3.084630,-17.344109,-2.177543,-6.092761,-0.081490,-0.824635,-0.165415
0.751000,-0.260912,-0.957246,-0.056090,1.424130,0.099655,-0.484073,-0.079015,0.000000,0.000000,0.000000,-0.001047,-0.001047,-0.000000,-0.389557,-0.000000,0.000263,1.578028,0.792048,0.247734,1.010122,12.548696,3.125121,-17.344109,-2.117198,-5.972574,-0.070379,-0.770478,-0.155034
0.761000,-0.260912,-0.957249,-0.056098,1.424116,0.099629,-0.484090,-0.082968,0.000000,0.000000,-0.001047,-0.001047,-0.002094,-0.001047,-0.384322,-0.000000,0.000000,-0.781673,-0.903375,0.214026,0.701468,23.104506,2.963154,-17.385113,-2.237888,-6.002620,-0.103712,-0.759646,-0.196558
0.771000,-0.260913,-0.957251,-0.056106,1.424103,0.099605,-0.484106,-0.086918,0.000000,0.000000,-0.001047,-0.002094,-0.002094,-0.001047,-0.382227,-0.000000,0.000000,-0.794072,-0.997712,0.746220,0.123678,25.967709,3.165613,-17.508124,-2.147371,-6.032667,-0.081490,-0.846298,-0.175796
0.781000,-0.260914,-0.957252,-0.056115,1.424090,0.099582,-0.484121,-0.090863,0.000000,0.000000,0.000000,-0.001047,-0.003142,-0.000000,-0.373850,-0.000000,0.000000,0.014698,-0.674423,-0.933116,1.777362,33.414735,3.003646,-17.672140,-2.177543,-5.972574,-0.003712,-0.824635,-0.155034
0.791000,-0.260914,-0.957252,-0.056123,1.424075,0.099558,-0.484137,-0.094803,0.000000,0.000000,0.000000,-0.001047,-0.002094,-0.001047,-0.371755,-0.000000,0.000000,0.779374,0.015002,-0.596785,0.014654,30.321232,2.963154,-17.672140,-2.237888,-6.062714,-0.014823,-0.857130,-0.144652
0.801000,-0.260914,-0.957254,-0.056133,1.424061,0.099532,-0.484152,-0.098743,0.000000,0.000000,-0.001047,-0.001047,-0.002094,-0.000000,-0.376991,-0.000000,0.000000,-0.670629,0.873431,0.655696,1.010153,27.762328,3.084630,-17.303105,-2.177543,-6.122808,-0.014823,-0.878793,-0.155034
0.811000,-0.260914,-0.957258,-0.056141,1.424046,0.099506,-0.484167,-0.102671,0.000000,0.000000,0.001047,-0.001047,-0.002094,-0.001047,-0.374897,-0.000000,0.661722,1.682788,-0.777552,-0.689079,-0.107250,30.029947,3.044138,-17.467120,-2.237888,-6.002620,-0.037045,-0.846298,-0.144652
0.821000,-0.260914,-0.957263,-0.056151,1.424031,0.099480,-0.484181,-0.106603,0.000000,0.000000,-0.001047,-0.002094,-0.003142,-0.001047,-0.373850,-0.000000,0.000000,-0.119718,-0.997717,-0.122306,-0.781391,33.063493,3.003646,-17.508124,-2.268061,-6.002620,-0.070379,-0.770478,-0.175796
0.831000,-0.260914,-0.957267,-0.056160,1.424017,0.099458,-0.484196,-0.110526,0.000000,0.000000,-0.002094,0.000000,-0.001047,-0.000000,-0.373850,-0.000000,0.649709,-0.245826,1.775138,1.012165,2.554235,30.752794,3.084630,-17.385113,-2.147371,-6.152854,-0.081490,-0.824635,-0.165415
0.841000,-0.260915,-0.957269,-0.056168,1.424005,0.099436,-0.484208,-0.114047,0.000000,0.000000,0.000000,-0.002094,-0.003142,-0.000000,-0.411549,-0.000000,0.000004,0.888406,-0.889000,-1.684811,1.667818,-34.971021,3.044138,-17.508124,-2.237888,-5.852387,-0.159267,-0.878793,-0.175796
0.851000,-0.260915,-0.957272,-0.056175,1.423991,0.099413,-0.484222,-0.117945,0.000000,0.000000,0.000000,-0.002094,-0.001047,-0.002094,-0.410501,-0.000000,0.000000,0.014421,-1.684242,0.794381,-1.008407,-30.909721,3.165613,-17.467120,-2.358578,-5.972574,-0.003712,-0.835467,-0.144652
0.861000,-0.260916,-0.957276,-0.056183,1.423977,0.099389,-0.484235,-0.121841,0.000000,0.000000,-0.001047,-0.001047,-0.003142,-0.001047,-0.410501,-0.000000,0.000001,-0.689074,0.794305,-0.920125,-0.779657,-31.642712,3.125121,-17.467120,-2.117198,-6.092761,-0.059267,-0.792141,-0.134271
0.871000,-0.260916,-0.957280,-0.056193,1.423963,0.099364,-0.484248,-0.125730,0.000000,0.000000,-0.002094,0.000000,-0.001047,-0.001047,-0.404218,-0.000000,0.000000,-1.133906,0.779972,2.354847,-0.781701,-26.684418,3.125121,-17.590132,-1.966336,-5.972574,-0.037045,-0.824635,-0.134271
0.881000,-0.260917,-0.957284,-0.056201,1.423949,0.099339,-0.484260,-0.129607,0.000000,0.000000,0.000000,-0.001047,-0.001047,-0.000000,-0.391652,-0.000000,0.001681,1.773054,-0.670263,1.010153,0.004356,-17.348735,3.206105,-17.549128,-2.237888,-6.062714,-0.025934,-0.835467,-0.144652
0.891000,-0.260917,-0.957289,-0.056210,1.423936,0.099315,-0.484271,-0.133091,0.000000,0.000000,0.000000,-0.001047,-0.002094,-0.000000,-0.365472,-0.000000,0.089175,1.695153,0.871414,-0.002060,0.138729,31.911859,3.125121,-17.426117,-2.237888,-6.032667,-0.037045,-0.867961,-0.144652
0.901000,-0.260918,-0.957296,-0.056218,1.423922,0.099290,-0.484283,-0.136964,0.000000,0.000000,-0.001047,0.000000,-0.002094,-0.000000,-0.375944,-0.000000,0.000005,-0.014729,0.811055,-0.016705,1.668090,22.852994,3.003646,-17.221097,-2.177543,-5.972574,-0.037045,-0.792141,-0.134271
0.911000,-0.260918,-0.957303,-0.056227,1.423908,0.099266,-0.484295,-0.140833,0.000000,-0.000873,-0.003142,-0.001047,-0.001047,-0.000000,-0.383274,0.012244,-0.103137,-1.930826,-0.672092,0.796367,0.781707,12.764265,2.963154,-17.303105,-1.996509,-6.122808,-0.070379,-0.857130,-0.186177
0.921000,-0.260919,-0.957308,-0.056236,1.423894,0.099241,-0.484308,-0.144686,0.000000,-0.000873,0.000000,0.000000,-0.002094,-0.001047,-0.389557,0.000000,-0.751164,0.888439,0.231013,-0.000311,-0.659731,-2.674082,2.963154,-17.344109,-2.207716,-6.092761,-0.070379,-0.857130,-0.155034
0.931000,-0.260919,-0.957311,-0.056244,1.423881,0.099218,-0.484321,-0.148520,0.000000,0.000000,-0.002094,-0.001047,-0.002094,-0.002094,-0.402124,0.000000,0.000004,-1.806814,0.092322,-0.016748,-1.668133,-23.095884,3.246597,-17.426117,-2.147371,-6.212948,0.018510,-0.824635,-0.186177
0.941000,-0.260919,-0.957313,-0.056255,1.423869,0.099196,-0.484333,-0.152349,0.000000,0.000000,-0.001047,0.000000,-0.002094,-0.000000,-0.406313,0.000000,0.000000,0.657623,0.046139,-0.123764,0.794620,-34.288556,3.044138,-17.344109,-2.087026,-6.122808,-0.037045,-0.770478,-0.134271
0.951000,-0.260920,-0.957314,-0.056264,1.423854,0.099174,-0.484345,-0.156171,0.000000,0.000000,0.000000,-0.001047,-0.002094,-0.001047,-0.397935,0.012244,0.000004,0.107329,0.014693,-0.111045,-0.903018,-27.968671,3.125121,-17.590132,-2.328406,-6.002620,-0.070379,-0.835467,-0.155034
0.961000,-0.260920,-0.957316,-0.056273,1.423840,0.099152,-0.484356,-0.159984,0.000000,0.000000,-0.002094,0.000000,-0.001047,-0.001047,-0.383274,0.000000,0.000231,-1.806504,0.111647,0.687377,-0.109065,-12.718292,3.084630,-17.426117,-2.328406,-5.972574,-0.025934,-0.889624,-0.155034
0.971000,-0.260920,-0.957318,-0.056280,1.423827,0.099132,-0.484366,-0.163420,0.000000,0.000000,0.000000,-0.002094,-0.002094,-0.001047,-0.376991,0.000000,0.000001,1.573717,-1.682827,-0.107016,-0.888407,9.891676,3.003646,-17.385113,-2.298233,-6.032667,0.007399,-0.878793,-0.165415
0.981000,-0.260921,-0.957321,-0.056288,1.423813,0.099111,-0.484376,-0.167218,0.000000,0.000000,-0.002094,-0.001047,-0.002094,-0.001047,-0.396888,0.649478,0.000000,-1.789293,0.004045,-0.903094,-0.903409,-20.754271,3.003646,-17.385113,-2.328406,-6.122808,0.018510,-0.867961,-0.155034
0.991000,-0.260921,-0.957325,-0.056297,1.423799,0.099092,-0.484385,-0.171010,0.000000,0.000000,0.002094,-0.001047,-0.001047,-0.000000,-0.406313,0.000000,0.000000,2.588226,-0.094650,0.017026,0.107332,-34.609347,3.044138,-17.344109,-2.268061,-6.122808,-0.092601,-0.824635,-0.155034
1.001000,-0.260921,-0.957330,-0.056306,1.423785,0.099071,-0.484394,-0.174782,0.000000,0.000000,0.000000,0.000000,-0.002094,-0.000000,-0.386416,0.000000,0.012244,0.808765,0.017032,-0.000277,0.002061,-20.437872,3.165613,-17.467120,-2.147371,-6.062714,-0.014823,-0.857130,-0.134271
1.011000,-0.260922,-0.957334,-0.056314,1.423771,0.099049,-0.484403,-0.178538,0.000000,0.000000,0.000000,-0.001047,-0.002094,-0.000000,-0.363378,0.000032,0.012244,0.888201,0.869358,-0.125537,0.014699,10.042296,2.963154,-17.303105,-2.358578,-6.032667,-0.014823,-0.835467,-0.165415
1.021000,-0.260923,-0.957337,-0.056323,1.423757,0.099026,-0.484412,-0.182294,0.000000,0.000000,0.000000,-0.003142,-0.002094,-0.002094,-0.351858,0.000000,0.649478,1.665795,-1.928571,-0.014693,-1.806270,33.387088,2.963154,-17.590132,-2.358578,-6.212948,-0.059267,-0.824635,-0.144652
1.031000,-0.260923,-0.957340,-0.056331,1.423745,0.099006,-0.484418,-0.185663,0.000000,0.000000,0.000000,-0.001047,-0.001047,-0.001047,-0.394793,0.000000,0.000000,2.337883,0.109267,1.575810,-0.903137,-32.158266,3.206105,-17.549128,-2.237888,-6.062714,-0.048156,-0.792141,-0.123890
1.041000,-0.260924,-0.957345,-0.056340,1.423732,0.098984,-0.484426,-0.189385,0.000000,0.000000,0.000000,-0.001047,-0.001047,-0.000000,-0.364425,0.000000,0.000000,1.559577,-0.795807,0.014694,0.107011,-2.422481,2.963154,-17.467120,-2.207716,-6.092761,-0.059267,-0.802972,-0.144652
1.051000,-0.260924,-0.957350,-0.056349,1.423718,0.098963,-0.484433,-0.193104,0.000000,-0.000873,-0.001047,-0.001047,-0.001047,-0.000000,-0.350811,0.000000,-0.740602,-0.902301,-0.674147,0.796638,0.794626,25.319208,3.084630,-17.180093,-2.207716,-6.002620,-0.003712,-0.922119,-0.165415
1.061000,-0.260925,-0.957355,-0.056357,1.423704,0.098941,-0.484440,-0.196818,0.000000,0.000000,0.000000,-0.001047,-0.002094,-0.001047,-0.364425,0.000000,0.000000,-0.106456,-0.796090,-0.016755,-0.901397,17.612549,3.125121,-17.385113,-2.147371,-6.002620,-0.048156,-0.878793,-0.186177
1.071000,-0.260925,-0.957360,-0.056367,1.423691,0.098920,-0.484447,-0.200519,0.000000,-0.000873,-0.003142,-0.001047,-0.001047,-0.000000,-0.390605,0.000000,-0.752846,-2.708188,0.092045,0.199843,1.562820,-22.739283,3.044138,-17.262101,-2.087026,-6.092761,0.018510,-0.878793,-0.123890
1.081000,-0.260926,-0.957366,-0.056375,1.423677,0.098900,-0.484454,-0.204197,0.000000,0.000000,-0.001047,-0.001047,-0.002094,-0.002094,-0.373850,0.000000,0.001713,0.663407,-0.106733,-0.216320,-2.479188,-17.501660,3.125121,-17.262101,-2.087026,-6.122808,-0.014823,-0.824635,-0.144652
1.091000,-0.260926,-0.957371,-0.056384,1.423663,0.098880,-0.484460,-0.207865,0.000000,0.000000,0.000000,-0.002094,-0.001047,-0.000000,-0.347670,0.000000,0.000000,0.136472,-0.993758,0.228990,0.000316,17.658912,3.044138,-17.221097,-2.298233,-6.062714,-0.059267,-0.813804,-0.144652
1.101000,-0.260926,-0.957375,-0.056392,1.423649,0.098859,-0.484467,-0.211526,0.000000,-0.000873,-0.001047,0.000000,-0.002094,-0.000000,-0.356047,0.000000,-0.663671,-0.901354,2.354875,-0.233062,0.781391,17.291053,3.165613,-17.344109,-2.449095,-6.152854,-0.048156,-0.802972,-0.186177
1.111000,-0.260927,-0.957378,-0.056403,1.423636,0.098840,-0.484473,-0.215171,0.000000,-0.000873,0.000000,-0.001047,-0.002094,-0.002094,-0.388510,0.000000,-0.752614,0.015009,-0.777633,-1.682820,-1.806829,-34.647004,2.922662,-17.508124,-2.177543,-6.182901,-0.037045,-0.781309,-0.144652
1.121000,-0.260927,-0.957379,-0.056410,1.423625,0.098824,-0.484478,-0.218074,0.000000,0.000000,0.000000,-0.001047,-0.001047,-0.001047,-0.382227,0.000000,0.000001,0.214297,-0.002055,-0.092311,-0.888758,-30.567510,3.165613,-17.385113,-2.328406,-6.062714,-0.025934,-0.792141,-0.155034
1.131000,-0.260928,-0.957382,-0.056418,1.423612,0.098804,-0.484484,-0.221692,0.000000,-0.000873,-0.001047,0.000000,-0.001047,-0.001047,-0.348717,0.000000,-0.752846,-0.792331,0.016716,0.001773,-0.794349,8.050496,3.084630,-17.385113,-2.117198,-6.122808,-0.025934,-0.846298,-0.134271
1.141000,-0.260929,-0.957386,-0.056427,1.423598,0.098785,-0.484489,-0.225311,0.000000,0.000000,-0.001047,-0.001047,-0.001047,-0.000000,-0.350811,0.000000,0.089175,-0.901354,0.764649,0.138419,0.993393,19.880733,3.165613,-17.262101,-2.237888,-6.032667,0.007399,-0.781309,-0.175796
1.151000,-0.260929,-0.957389,-0.056437,1.423583,0.098766,-0.484495,-0.228907,0.000000,0.000000,0.000000,-0.001047,-0.001047,-0.000000,-0.384322,0.000000,0.000000,0.794067,0.766659,-0.764643,0.901354,-35.788085,3.125121,-17.262101,-2.358578,-6.182901,-0.025934,-0.835467,-0.113509
1.161000,-0.260930,-0.957392,-0.056447,1.423570,0.098746,-0.484499,-0.232486,0.000000,0.000000,0.000000,0.000000,-0.001047,-0.001047,-0.341386,-0.000231,0.000000,0.779385,0.891017,0.890179,-0.794377,16.796427,3.084630,-17.467120,-2.388751,-6.182901,0.007399,-0.781309,-0.134271
1.171000,-0.260930,-0.957396,-0.056456,1.423556,0.098725,-0.484504,-0.236067,0.000000,0.000000,0.000000,0.000000,-0.001047,-0.001047,-0.350811,-0.000000,0.000001,0.000048,0.111638,1.665480,-0.899657,14.059153,3.125121,-17.303105,-2.328406,-5.882433,-0.037045,-0.813804,-0.134271
1.181000,-0.260930,-0.957400,-0.056463,1.423543,0.098707,-0.484508,-0.239252,0.000000,0.000000,-0.001047,-0.001047,-0.002094,-0.002094,-0.330914,-0.000000,0.001681,-0.901359,-0.107286,-0.094650,-0.920169,25.232675,3.206105,-17.385113,-2.328406,-6.122808,0.007399,-0.867961,-0.165415
1.191000,-0.260931,-0.957403,-0.056472,1.423531,0.098690,-0.484510,-0.242429,0.000000,0.000000,-0.001047,-0.001047,-0.002094,-0.000000,-0.347670,-0.000000,0.001681,-0.899298,-0.105308,-1.005826,0.000000,-9.283718,3.044138,-17.549128,-2.177543,-6.092761,-0.014823,-0.781309,-0.144652
1.201000,-0.260931,-0.957407,-0.056481,1.423517,0.098671,-0.484514,-0.245957,0.000000,0.000000,0.000000,-0.001047,-0.001047,-0.000000,-0.336150,-0.000000,0.000000,0.015252,0.104994,0.657948,-0.000038,27.191556,2.963154,-17.549128,-2.328406,-6.032667,-0.014823,-0.857130,-0.175796
1.211000,-0.260932,-0.957411,-0.056490,1.423506,0.098655,-0.484517,-0.249104,0.000000,0.000000,-0.001047,0.000000,-0.001047,-0.000000,-0.329867,-0.000000,0.012244,-0.121469,0.006090,-0.775621,0.014731,20.098045,3.165613,-17.672140,-2.298233,-6.182901,-0.103712,-0.748815,-0.186177
1.221000,-0.260932,-0.957416,-0.056499,1.423493,0.098635,-0.484520,-0.252613,0.000000,0.000000,0.000000,0.000000,-0.001047,-0.000000,-0.366519,-0.000000,0.649478,0.993639,1.010430,0.107012,0.764681,-16.280286,2.882170,-17.508124,-2.147371,-6.152854,-0.014823,-0.835467,-0.155034
1.231000,-0.260933,-0.957421,-0.056508,1.423479,0.098616,-0.484522,-0.256072,0.000000,0.000000,-0.001047,-0.001047,-0.003142,0.001047,-0.335103,-0.000000,0.649510,-0.766454,0.659405,-2.491867,0.995455,7.959305,3.327581,-17.385113,-2.177543,-6.122808,-0.081490,-0.792141,-0.175796
1.241000,-0.260934,-0.957427,-0.056517,1.423465,0.098598,-0.484526,-0.259547,0.000000,0.000000,0.000000,-0.001047,-0.002094,-0.001047,-0.351858,-0.000000,0.090888,0.016716,0.783136,-0.796361,-0.124041,-2.020080,2.963154,-17.303105,-2.177543,-6.002620,-0.070379,-0.867961,-0.175796
1.251000,-0.260934,-0.957432,-0.056525,1.423453,0.098582,-0.484528,-0.262647,0.000000,0.000000,0.001047,-0.001047,-0.001047,-0.000000,-0.327773,-0.000000,0.013929,1.684807,0.779379,0.655931,0.214020,29.008011,3.084630,-17.426117,-2.117198,-6.032667,-0.003712,-0.802972,-0.165415
1.261000,-0.260935,-0.957437,-0.056534,1.423440,0.098565,-0.484529,-0.265737,0.000000,0.000000,0.001047,-0.001047,-0.001047,-0.000000,-0.322537,-0.000000,0.101419,1.682794,0.808443,0.016753,0.794310,24.692043,3.003646,-17.262101,-1.996509,-6.182901,-0.003712,-0.770478,-0.134271
1.271000,-0.260935,-0.957441,-0.056543,1.423428,0.098548,-0.484531,-0.268809,0.000873,0.000000,0.000000,-0.002094,-0.002094,-0.000000,-0.334056,0.752846,0.000004,0.113344,-0.233073,-0.916330,0.014731,-0.103172,3.206105,-17.385113,-2.298233,-5.972574,-0.081490,-0.835467,-0.165415
1.281000,-0.260936,-0.957446,-0.056553,1.423416,0.098530,-0.484532,-0.272220,0.000000,0.000000,0.000000,-0.001047,-0.001047,-0.000000,-0.356047,-0.000000,0.012244,0.916051,-0.901114,0.901039,-0.014692,-15.346176,2.720202,-17.426117,-2.147371,-6.182901,0.007399,-0.824635,-0.155034
1.291000,-0.260936,-0.957449,-0.056562,1.423403,0.098510,-0.484533,-0.275593,0.000000,0.000000,0.000000,-0.001047,-0.002094,-0.000000,-0.320442,-0.000000,0.012245,0.109310,-0.012991,-1.695463,-0.777041,20.262997,3.084630,-17.344109,-2.087026,-5.972574,-0.092601,-0.857130,-0.186177
1.301000,-0.260937,-0.957452,-0.056572,1.423391,0.098493,-0.484535,-0.278969,0.000000,0.000000,0.000000,0.000000,-0.001047,-0.000000,-0.361283,-0.000000,0.000231,0.004312,0.121784,-0.764681,0.014693,-33.508802,3.044138,-17.508124,-2.358578,-6.212948,0.040733,-0.813804,-0.155034
1.311000,-0.260938,-0.957455,-0.056580,1.423378,0.098475,-0.484535,-0.282318,0.000000,0.000000,0.000000,-0.002094,-0.002094,-0.000000,-0.315206,-0.000000,0.089175,0.109304,-0.905432,-0.901164,0.002023,34.450486,3.084630,-17.303105,-2.147371,-6.002620,-0.070379,-0.813804,-0.155034
1.321000,-0.260939,-0.957459,-0.056589,1.423365,0.098459,-0.484537,-0.285649,0.000000,0.000000,0.000000,-0.001047,-0.001047,-0.002094,-0.335103,0.000000,0.000231,1.578034,0.029428,0.792365,-1.119735,-13.778448,2.922662,-17.590132,-2.237888,-6.212948,0.007399,-0.846298,-0.134271
1.331000,-0.260939,-0.957462,-0.056599,1.423352,0.098442,-0.484537,-0.288977,0.000000,0.000000,0.000000,0.000000,-0.001047,-0.001047,-0.338245,0.000000,0.000000,0.890418,0.796128,0.000272,-0.890744,-1.253563,3.084630,-17.508124,-2.237888,-6.032667,-0.037045,-0.802972,-0.186177
1.341000,-0.260940,-0.957466,-0.056608,1.423338,0.098425,-0.484537,-0.292264,0.000000,0.000000,-0.002094,-0.001047,-0.001047,-0.000000,-0.304734,0.000000,0.000000,-0.920131,-0.672673,-0.012952,-0.000038,28.120650,3.084630,-17.303105,-2.087026,-6.092761,-0.025934,-0.824635,-0.144652
1.351000,-0.260941,-0.957470,-0.056618,1.423326,0.098409,-0.484537,-0.295554,0.000000,-0.000873,-0.002094,-0.001047,-0.002094,-0.000000,-0.338245,0.000000,-0.752846,-0.796405,-0.903056,-0.873992,0.012675,-24.410923,3.084630,-17.508124,-2.117198,-5.972574,-0.003712,-0.748815,-0.134271
1.361000,-0.260941,-0.957474,-0.056626,1.423313,0.098393,-0.484537,-0.298829,0.000000,0.000000,0.000000,-0.002094,-0.001047,-0.001047,-0.329867,0.000000,0.089175,0.016998,-0.138495,0.107249,-0.995732,2.800481,3.287089,-17.262101,-2.237888,-6.062714,-0.014823,-0.802972,-0.175796
1.371000,-0.260941,-0.957478,-0.056636,1.423300,0.098377,-0.484536,-0.302056,0.000000,0.000000,-0.001047,0.000000,-0.002094,0.001047,-0.297404,0.000000,0.000000,-0.903060,0.886661,-0.810820,0.901397,30.965791,3.003646,-17.508124,-2.207716,-6.182901,-0.014823,-0.759646,-0.155034
1.381000,-0.260942,-0.957483,-0.056644,1.423288,0.098361,-0.484536,-0.305271,0.000000,0.000000,-0.001047,-0.001047,0.000000,-0.000000,-0.318348,0.000000,0.000000,-0.779657,-0.901076,0.918184,0.670661,-11.138037,3.125121,-17.385113,-2.117198,-6.152854,-0.048156,-0.802972,-0.144652
1.391000,-0.260943,-0.957488,-0.056652,1.423276,0.098345,-0.484536,-0.308152,0.000000,-0.000873,0.000000,0.000000,-0.001047,-0.000000,-0.311018,0.000000,-0.740597,0.121709,1.681048,0.777390,-0.109027,-6.795031,3.044138,-17.508124,-2.268061,-6.122808,-0.025934,-0.802972,-0.134271
1.401000,-0.260944,-0.957493,-0.056660,1.423263,0.098327,-0.484535,-0.311350,-0.000873,0.000000,0.000000,-0.001047,-0.001047,-0.000000,-0.337198,-0.752846,0.000231,-0.075607,-0.790342,0.012990,0.779330,-30.368406,3.287089,-17.467120,-2.117198,-6.212948,-0.025934,-0.792141,-0.175796
1.411000,-0.260944,-0.957497,-0.056668,1.423250,0.098312,-0.484534,-0.314194,0.000000,0.000000,0.000000,-0.003142,-0.001047,0.002094,-0.324631,0.000000,0.001685,-0.102937,-1.899419,-0.001740,1.792137,-19.158688,2.841678,-17.508124,-2.328406,-6.062714,-0.059267,-0.792141,-0.175796
1.421000,-0.260945,-0.957503,-0.056677,1.423239,0.098297,-0.484534,-0.317026,0.000000,0.000000,-0.001047,-0.001047,0.000000,-0.000000,-0.316254,0.000000,0.649709,-1.561042,-0.670624,0.905432,-0.109033,-12.683761,2.963154,-17.385113,-2.147371,-6.242995,0.007399,-0.792141,-0.144652
1.431000,-0.260945,-0.957508,-0.056687,1.423226,0.098281,-0.484533,-0.320159,0.000000,0.000000,0.000000,-0.001047,0.000000,-0.000000,-0.331962,0.000000,0.000032,0.000010,-0.777676,0.890739,-0.107010,-24.084106,3.246597,-17.590132,-2.328406,-6.032667,-0.037045,-0.748815,-0.165415
1.441000,-0.260946,-0.957513,-0.056695,1.423213,0.098265,-0.484532,-0.323277,0.000000,0.000000,-0.001047,-0.001047,0.000000,-0.000000,-0.324631,0.000000,0.000231,-1.558752,-0.888124,1.027136,-0.000277,-8.765257,3.003646,-17.303105,-2.328406,-6.182901,-0.014823,-0.748815,-0.175796
1.451000,-0.260947,-0.957517,-0.056703,1.423200,0.098250,-0.484530,-0.326371,0.000000,0.000000,0.000000,-0.001047,-0.001047,-0.000000,-0.305782,0.000000,0.000004,0.002061,-0.012958,-0.779379,-0.000037,17.184365,3.327581,-17.344109,-2.207716,-6.122808,-0.092601,-0.748815,-0.175796
1.461000,-0.260948,-0.957522,-0.056714,1.423187,0.098235,-0.484528,-0.329439,0.000000,0.000000,0.000000,-0.001047,0.000000,-0.000000,-0.283791,0.000000,0.000000,0.886938,-0.107287,1.010425,0.779373,31.863751,3.084630,-17.549128,-2.328406,-6.092761,-0.048156,-0.737983,-0.134271
1.471000,-0.260948,-0.957525,-0.056724,1.423174,0.098219,-0.484526,-0.332484,0.000000,0.000000,-0.001047,-0.001047,0.000000,-0.000000,-0.283791,0.000000,0.001681,-0.109343,-0.888721,0.109348,0.000005,21.995606,2.922662,-17.754147,-2.358578,-6.182901,-0.025934,-0.759646,-0.155034
1.481000,-0.260949,-0.957529,-0.056730,1.423163,0.098205,-0.484524,-0.335215,0.000000,0.000000,0.000000,0.000000,-0.001047,-0.000000,-0.293215,0.000000,0.649478,0.107010,0.901087,-0.104988,0.000000,25.351296,3.165613,-17.467120,-2.449095,-6.092761,-0.025934,-0.716320,-0.175796
1.491000,-0.260950,-0.957532,-0.056741,1.423149,0.098190,-0.484520,-0.338219,0.000000,0.000000,-0.001047,-0.002094,-0.001047,-0.000000,-0.285885,0.000000,0.000000,1.543739,-1.775388,-0.109027,-0.901354,26.606716,2.922662,-17.344109,-2.268061,-6.212948,-0.037045,-0.748815,-0.155034
1.501000,-0.260950,-0.957536,-0.056748,1.423137,0.098175,-0.484517,-0.341208,0.000000,-0.000873,0.000000,0.000000,0.000000,-0.000000,-0.279602,0.000000,-0.663671,0.000554,0.216043,0.798385,-0.000000,31.463642,3.044138,-17.385113,-2.268061,-6.092761,0.007399,-0.748815,-0.155034
1.511000,-0.260950,-0.957540,-0.056758,1.423125,0.098160,-0.484512,-0.344176,0.000000,0.000000,0.000000,0.000000,-0.001047,-0.000000,-0.277507,0.000000,0.000004,0.014737,0.781467,0.000271,-0.029385,30.918897,3.084630,-17.385113,-2.268061,-6.242995,-0.025934,-0.716320,-0.144652
1.521000,-0.260951,-0.957544,-0.056768,1.423114,0.098147,-0.484508,-0.346840,0.000000,0.000000,-0.001047,-0.001047,-0.001047,-0.000000,-0.309970,0.649478,0.000001,0.197309,-0.014932,0.674099,-0.124035,-7.211338,2.963154,-17.467120,-2.237888,-6.002620,-0.070379,-0.759646,-0.196558
1.531000,-0.260952,-0.957548,-0.056776,1.423102,0.098134,-0.484502,-0.349765,0.000000,0.000000,0.000000,-0.001047,0.000000,-0.000000,-0.306829,0.000000,0.000000,0.004327,-0.002018,0.809113,0.762663,-12.057499,2.963154,-17.344109,-2.298233,-6.182901,0.007399,-0.716320,-0.186177
1.541000,-0.260952,-0.957553,-0.056786,1.423090,0.098119,-0.484497,-0.352676,0.000000,-0.000873,-0.001047,0.000000,-0.002094,-0.000000,-0.311018,0.000231,-0.752841,-0.109343,0.796399,-0.903104,-0.793827,-19.711428,3.044138,-17.426117,-2.087026,-6.242995,-0.037045,-0.759646,-0.175796
1.551000,-0.260953,-0.957558,-0.056794,1.423077,0.098105,-0.484492,-0.355561,0.000000,-0.000873,0.000000,-0.001047,-0.002094,-0.000000,-0.313112,0.000000,-0.752846,0.006063,-0.001703,-0.887019,-0.779412,-25.142924,3.246597,-17.590132,-2.056854,-6.062714,-0.048156,-0.727152,-0.175796
1.561000,-0.260954,-0.957563,-0.056804,1.423063,0.098091,-0.484485,-0.358424,0.000000,0.000000,0.001047,-0.001047,-0.001047,0.001047,-0.298451,-0.649478,0.089179,1.132688,-0.121985,0.119409,0.884371,-22.146568,3.165613,-17.385113,-2.298233,-6.092761,-0.037045,-0.672994,-0.165415
1.571000,-0.260955,-0.957569,-0.056814,1.423050,0.098078,-0.484479,-0.361265,0.000000,0.000000,-0.001047,-0.002094,0.000000,-0.000000,-0.289027,-0.000000,0.000235,-0.899341,-1.773094,0.995737,0.002017,-18.454268,3.044138,-17.303105,-2.026681,-6.122808,-0.059267,-0.662162,-0.144652
1.581000,-0.260955,-0.957574,-0.056823,1.423039,0.098064,-0.484472,-0.364077,0.000000,0.000000,0.000000,0.000000,-0.001047,-0.000000,-0.272271,-0.000000,0.000000,0.108517,1.774862,0.000033,-0.014970,-5.632176,2.963154,-17.303105,-2.268061,-6.273042,-0.025934,-0.651331,-0.175796
1.591000,-0.260956,-0.957579,-0.056832,1.423028,0.098053,-0.484465,-0.366602,0.000000,0.000000,0.000000,-0.001047,-0.001047,-0.000000,-0.277507,-0.000000,0.000231,0.137265,-0.092594,0.670345,-0.004045,15.528708,2.801186,-17.303105,-2.328406,-6.032667,0.018510,-0.618836,-0.155034
1.601000,-0.260956,-0.957584,-0.056840,1.423019,0.098043,-0.484458,-0.368799,0.000000,0.000000,-0.001047,0.000000,0.000000,0.001047,-0.255516,-0.000000,0.089175,-0.785703,0.016749,0.015248,0.901397,22.137624,2.922662,-17.344109,-2.268061,-6.092761,-0.003712,-0.597173,-0.134271
1.611000,-0.260957,-0.957588,-0.056848,1.423009,0.098032,-0.484451,-0.371004,0.000000,0.000000,0.000000,0.000000,-0.001047,0.001047,-0.272271,0.012244,0.000235,0.903100,0.000081,0.657360,-0.655615,-16.344265,3.125121,-17.426117,-2.298233,-6.122808,-0.048156,-0.608005,-0.144652
1.621000,-0.260958,-0.957592,-0.056858,1.422997,0.098018,-0.484441,-0.373745,0.000000,0.000000,-0.002094,0.000000,-0.002094,-0.000000,-0.254469,0.000000,0.000000,-0.903214,0.903100,-1.669842,-0.121986,14.473405,3.206105,-17.672140,-2.207716,-6.152854,0.007399,-0.543016,-0.144652
1.631000,-0.260959,-0.957596,-0.056867,1.422985,0.098004,-0.484430,-0.376465,0.000000,0.000000,-0.001047,-0.001047,-0.002094,-0.000000,-0.260752,0.000000,0.000000,-0.888705,-0.107292,-0.993671,-0.888760,24.669570,3.125121,-17.426117,-2.117198,-5.942527,-0.014823,-0.597173,-0.155034
1.641000,-0.260959,-0.957600,-0.056876,1.422973,0.097990,-0.484417,-0.379145,0.000000,0.000000,-0.001047,0.000000,-0.001047,0.002094,-0.286932,0.000032,0.000000,-0.885835,1.010430,-0.002333,1.027140,-13.576302,3.206105,-17.549128,-2.207716,-6.152854,-0.025934,-0.597173,-0.186177
1.651000,-0.260960,-0.957604,-0.056886,1.422962,0.097976,-0.484405,-0.381794,0.000000,-0.000873,0.000000,0.000000,-0.001047,-0.000000,-0.269130,0.000000,-0.752809,0.793589,0.888717,-0.092593,-0.903175,-15.861209,3.327581,-17.549128,-2.358578,-6.152854,-0.081490,-0.543016,-0.155034
1.661000,-0.260961,-0.957608,-0.056895,1.422950,0.097963,-0.484390,-0.384440,0.000000,0.000000,-0.001047,0.000000,-0.002094,0.001047,-0.242950,0.000000,0.000231,-0.991377,0.783415,-1.785796,0.686784,18.725800,3.165613,-17.508124,-2.117198,-6.122808,-0.048156,-0.553847,-0.134271
1.671000,-0.260961,-0.957611,-0.056903,1.422939,0.097953,-0.484376,-0.386798,0.000000,0.000000,-0.001047,0.000000,-0.001047,0.001047,-0.273319,0.012244,0.000000,-0.140637,0.783767,-0.796089,-0.672124,-21.229366,3.206105,-17.467120,-2.026681,-6.032667,-0.025934,-0.499690,-0.155034
1.681000,-0.260961,-0.957615,-0.056913,1.422928,0.097942,-0.484362,-0.389395,0.000000,0.000000,-0.001047,0.000000,0.000000,0.001047,-0.240855,0.000000,0.000000,-0.094615,0.781707,0.229034,-0.001740,12.265001,3.003646,-17.385113,-2.268061,-6.242995,-0.014823,-0.423869,-0.113509
1.691000,-0.260963,-0.957619,-0.056921,1.422916,0.097930,-0.484350,-0.391982,0.000000,-0.000873,0.000000,-0.001047,0.000000,-0.000000,-0.263894,0.000000,-0.752841,0.886676,0.012714,0.995975,-0.917830,2.006188,2.801186,-17.467120,-2.207716,-6.152854,-0.037045,-0.488858,-0.165415
1.701000,-0.260963,-0.957623,-0.056930,1.422905,0.097920,-0.484341,-0.394256,0.000000,0.000000,-0.001047,0.000000,-0.001047,0.001047,-0.231431,0.000000,0.649482,-0.793827,1.894752,-0.002300,0.888434,22.543438,3.044138,-17.426117,-2.268061,-6.032667,0.051844,-0.456364,-0.134271
1.711000,-0.260964,-0.957628,-0.056938,1.422893,0.097909,-0.484333,-0.396782,0.000000,0.000000,0.000000,-0.002094,-0.001047,-0.000000,-0.268083,0.000000,0.649479,0.122018,-1.010463,-0.107047,-0.779727,-12.277106,2.841678,-17.508124,-2.237888,-6.152854,-0.037045,-0.467195,-0.175796
1.721000,-0.260965,-0.957633,-0.056947,1.422880,0.097898,-0.484325,-0.399269,0.000000,0.000000,-0.002094,-0.001047,-0.001047,-0.000000,-0.234572,0.000000,0.000001,-1.912937,1.541717,-0.777594,-0.888956,2.114261,3.125121,-17.549128,-2.117198,-6.032667,-0.025934,-0.434701,-0.175796
1.731000,-0.260966,-0.957638,-0.056957,1.422869,0.097887,-0.484317,-0.401764,0.000000,0.000000,-0.002094,-0.001047,-0.001047,-0.000000,-0.261799,0.000000,0.000032,-1.806817,-0.123726,-0.899336,-0.002376,-1.996584,3.044138,-17.426117,-2.207716,-6.122808,0.040733,-0.488858,-0.175796
1.741000,-0.260967,-0.957642,-0.056964,1.422858,0.097879,-0.484308,-0.403959,-0.000873,0.000000,0.000000,-0.001047,-0.001047,-0.000000,-0.230383,-0.752846,0.001681,0.888483,0.107009,-0.902817,-1.560802,25.207268,3.003646,-17.385113,-2.087026,-6.212948,-0.014823,-0.478027,-0.175796
1.751000,-0.260968,-0.957648,-0.056975,1.422846,0.097868,-0.484298,-0.406372,0.000000,0.000000,-0.001047,0.000000,0.000000,0.002094,-0.250280,0.089175,0.000231,-0.886666,0.122025,0.229071,1.804530,-17.948945,3.125121,-17.508124,-2.328406,-6.062714,0.007399,-0.391375,-0.175796
1.761000,-0.260969,-0.957653,-0.056983,1.422834,0.097858,-0.484289,-0.408792,0.000000,0.000000,0.000000,-0.001047,-0.001047,-0.000000,-0.231431,0.000000,0.101419,-0.091763,-0.888683,-0.794066,-0.903137,20.741323,3.044138,-17.508124,-2.237888,-5.882433,-0.014823,-0.423869,-0.186177
1.771000,-0.260970,-0.957658,-0.056992,1.422822,0.097848,-0.484277,-0.411152,0.000000,0.000000,0.000000,-0.001047,-0.001047,0.001047,-0.229336,-0.000000,0.649478,0.136406,0.794028,-0.872012,0.901076,-5.565221,3.003646,-17.426117,-2.418923,-5.942527,-0.092601,-0.445532,-0.123890
1.781000,-0.260970,-0.957664,-0.057002,1.422810,0.097838,-0.484264,-0.413514,0.000000,-0.000873,-0.001047,-0.001047,0.000000,-0.000000,-0.251327,-0.000000,-0.751164,-0.108707,-0.888406,0.779966,-0.004318,-5.890782,3.044138,-17.385113,-2.207716,-6.212948,-0.025934,-0.391375,-0.186177
1.791000,-0.260971,-0.957669,-0.057010,1.422798,0.097829,-0.484251,-0.415831,0.000000,0.000000,0.000000,-0.001047,0.000000,-0.000000,-0.209440,-0.000000,0.000267,0.781955,-0.781630,1.682473,-0.136482,22.354429,3.084630,-17.303105,-2.087026,-6.152854,-0.081490,-0.413038,-0.092747
1.801000,-0.260972,-0.957674,-0.057020,1.422787,0.097820,-0.484236,-0.418125,0.000000,0.000000,0.000000,0.000000,0.000000,0.001047,-0.234572,0.000001,0.000032,0.002018,1.008369,0.000277,0.886389,-17.155548,3.044138,-17.549128,-2.237888,-6.333135,-0.037045,-0.337217,-0.196558
1.811000,-0.260972,-0.957678,-0.057029,1.422777,0.097813,-0.484222,-0.420180,0.000000,-0.000873,-0.002094,-0.001047,0.000000,0.001047,-0.238761,0.000000,-0.740570,-0.995700,-0.796128,1.008092,0.674344,-19.554988,3.044138,-17.549128,-2.479268,-6.212948,0.040733,-0.391375,-0.227702
1.821000,-0.260973,-0.957682,-0.057037,1.422766,0.097804,-0.484206,-0.422440,0.000000,0.000000,-0.001047,0.000000,-0.002094,0.001047,-0.229336,0.000001,0.661722,-0.123759,0.886428,-1.792135,0.107254,5.945133,3.206105,-17.508124,-2.147371,-6.122808,-0.003712,-0.326386,-0.113509
1.831000,-0.260974,-0.957686,-0.057047,1.422755,0.097795,-0.484190,-0.424646,0.000000,0.000000,0.000000,0.000000,-0.001047,0.002094,-0.203156,0.000000,0.000000,0.932484,0.794382,-0.012681,0.798141,18.395372,3.125121,-17.508124,-2.237888,-6.122808,-0.037045,-0.315554,-0.134271
1.841000,-0.260974,-0.957690,-0.057055,1.422744,0.097788,-0.484175,-0.426623,0.000000,0.000000,0.000000,-0.001047,-0.002094,0.001047,-0.200015,0.000000,0.661722,0.123726,-0.002262,-2.585882,0.014735,19.444555,3.327581,-17.590132,-2.177543,-6.062714,-0.037045,-0.272228,-0.155034
1.851000,-0.260975,-0.957695,-0.057064,1.422733,0.097779,-0.484160,-0.428775,0.000000,0.000000,-0.001047,-0.001047,-0.001047,0.001047,-0.207345,0.000000,0.089175,-0.123725,0.104954,-0.107053,-0.000038,-3.904552,3.246597,-17.426117,-2.298233,-6.242995,-0.059267,-0.293891,-0.144652
1.861000,-0.260976,-0.957699,-0.057072,1.422722,0.097771,-0.484145,-0.430913,0.000000,0.000000,-0.001047,0.000000,0.000000,-0.000000,-0.219911,0.000000,0.001681,-0.109310,0.888406,0.228751,-0.890734,-18.340613,3.125121,-17.508124,-2.177543,-6.212948,-0.014823,-0.239734,-0.155034
1.871000,-0.260977,-0.957703,-0.057081,1.422711,0.097763,-0.484130,-0.433044,0.000000,0.000000,-0.001047,0.000000,0.000000,0.001047,-0.228289,0.000000,0.000000,-0.107293,0.122030,0.017020,0.016433,-14.980232,3.125121,-17.385113,-2.177543,-6.333135,-0.003712,-0.293891,-0.186177
1.881000,-0.260978,-0.957708,-0.057090,1.422699,0.097754,-0.484114,-0.435129,0.000000,0.000000,0.000000,-0.002094,0.000000,0.002094,-0.218864,0.000000,0.001681,0.901358,-1.668378,0.794077,0.995776,-0.364015,3.084630,-17.426117,-2.237888,-6.122808,-0.037045,-0.272228,-0.144652
1.891000,-0.260979,-0.957713,-0.057099,1.422689,0.097746,-0.484098,-0.437191,0.000000,0.000000,0.000000,0.000000,0.000000,0.001047,-0.204204,0.000000,0.090856,0.779379,0.014731,0.109071,0.106696,8.651355,3.125121,-17.467120,-2.177543,-6.062714,-0.014823,-0.272228,-0.113509
1.901000,-0.260979,-0.957718,-0.057108,1.422678,0.097738,-0.484082,-0.439227,0.000000,0.000000,0.000000,0.000000,0.000000,0.001047,-0.195826,0.649478,0.000032,0.781392,0.903648,0.901082,-0.699421,19.194681,3.165613,-17.385113,-2.298233,-6.212948,-0.081490,-0.315554,-0.165415
1.911000,-0.260980,-0.957724,-0.057118,1.422666,0.097731,-0.484066,-0.441217,0.000000,0.000000,-0.002094,0.000000,0.000000,-0.000000,-0.186401,0.000000,0.089179,-1.025161,0.014976,0.029668,-0.124281,16.680743,3.125121,-17.508124,-2.117198,-6.062714,-0.059267,-0.272228,-0.144652
1.921000,-0.260981,-0.957729,-0.057127,1.422656,0.097724,-0.484047,-0.443196,0.000000,0.000000,0.000000,0.000000,0.000000,0.002094,-0.182212,0.000000,0.000263,0.109310,0.000077,0.014731,0.794100,14.996560,2.922662,-17.426117,-2.268061,-6.242995,-0.059267,-0.261397,-0.144652
1.931000,-0.260982,-0.957734,-0.057137,1.422645,0.097717,-0.484030,-0.445146,0.000000,0.000000,-0.001047,0.000000,0.000000,0.002094,-0.187448,0.000000,0.649478,-0.888684,0.781429,0.016988,0.884959,11.281431,2.922662,-17.385113,-2.358578,-6.062714,-0.048156,-0.315554,-0.165415
1.941000,-0.260983,-0.957740,-0.057147,1.422635,0.097710,-0.484012,-0.447068,0.000000,-0.000873,-0.001047,0.000000,0.000000,0.001047,-0.181165,0.000000,-0.740569,-0.886427,0.016711,0.000043,-0.871729,15.289808,3.044138,-17.426117,-1.936164,-6.092761,-0.025934,-0.304723,-0.144652
1.951000,-0.260984,-0.957745,-0.057157,1.422624,0.097703,-0.483992,-0.448971,0.000000,0.000000,-0.001047,0.000000,0.000000,0.002094,-0.185354,0.000000,0.000004,0.871723,0.125776,0.777394,0.107293,11.628374,2.963154,-17.426117,-2.237888,-6.303088,-0.025934,-0.261397,-0.134271
1.961000,-0.260985,-0.957750,-0.057166,1.422613,0.099152,-0.483972,-0.450832,0.000000,0.000000,-0.002094,-0.001047,0.258658,0.002094,-0.193732,0.000000,0.001682,-0.918423,0.655332,-26.933330,0.779662,0.640055,3.246597,-17.467120,-2.298233,-6.303088,-0.025934,-0.261397,-0.279608
1.971000,-0.260986,-0.957754,-0.057175,1.422602,0.100117,-0.483952,-0.452662,0.000000,0.000000,-0.001047,-0.001047,-0.028274,0.001047,-0.193732,0.000000,0.000000,-0.212279,-0.886384,-18.020094,-0.872202,-6.666793,3.165613,-17.508124,-2.087026,-6.062714,0.074066,-0.304723,-0.155034
1.981000,-0.260987,-0.957759,-0.057184,1.422591,0.099151,-0.483934,-0.454471,0.000000,-0.000873,0.000000,0.000000,-0.165457,0.001047,-0.188496,0.000000,-0.103336,0.000038,0.794072,-14.854315,-0.888368,-9.283425,3.206105,-17.303105,-2.268061,-6.092761,0.040733,-0.261397,-0.165415
1.991000,-0.260988,-0.957764,-0.057193,1.422580,0.097197,-0.483915,-0.456233,0.000000,-0.000873,0.000000,-0.001047,-0.227242,0.002094,-0.173835,0.000000,-0.103335,0.243726,0.777666,-18.866187,1.682266,-8.529073,3.084630,-17.344109,-2.087026,-6.242995,-0.148156,-0.218071,-0.196558
2.001000,-0.260989,-0.957769,-0.057203,1.422570,0.094767,-0.483897,-0.457998,0.000000,0.000000,-0.001047,-0.001047,-0.254469,0.002094,-0.162316,0.649478,0.012276,-1.559067,0.090261,14.037808,0.121981,9.599904,2.963154,-17.467120,-2.237888,-6.152854,0.040733,-0.272228,-0.165415
2.011000,-0.260989,-0.957774,-0.057212,1.422560,0.092133,-0.483878,-0.459720,0.000000,0.000000,0.000000,0.000000,-0.286932,0.002094,-0.171740,0.000027,0.649478,-0.426934,0.779694,-22.070678,1.775421,6.971886,3.044138,-17.426117,-2.237888,-6.273042,-0.025934,-0.272228,-0.134271
2.021000,-0.260990,-0.957777,-0.057222,1.422551,0.089655,-0.483861,-0.461242,0.000000,0.000000,-0.002094,-0.002094,-0.256563,0.001047,-0.171740,0.000004,0.000231,-1.698993,-1.592532,22.625360,-0.092594,-8.554701,3.084630,-17.303105,-2.056854,-6.212948,-0.081490,-0.196408,-0.186177
2.031000,-0.260991,-0.957782,-0.057230,1.422541,0.086823,-0.483841,-0.462900,0.000000,0.000000,0.001047,-0.001047,-0.275413,0.002094,-0.152891,0.000000,0.000000,1.804821,-0.886699,21.683263,0.214097,7.157229,3.084630,-17.508124,-2.268061,-6.032667,0.007399,-0.228902,-0.144652
2.041000,-0.260992,-0.957787,-0.057241,1.422530,0.083958,-0.483821,-0.464565,-0.000873,0.000000,0.000000,-0.001047,-0.293215,-0.000000,-0.167552,-0.752846,0.000001,3.224538,-0.869711,8.328132,-1.044154,2.544793,3.084630,-17.426117,-2.268061,-6.122808,-0.048156,-0.239734,-0.134271
2.051000,-0.260993,-0.957792,-0.057249,1.422521,0.081078,-0.483801,-0.466143,0.000000,-0.000873,-0.002094,0.000000,-0.303687,-0.000000,-0.166504,0.000000,-0.752814,-1.787546,1.680450,-2.437231,-1.804774,-11.108226,3.084630,-17.590132,-2.509440,-6.182901,0.007399,-0.239734,-0.186177
2.061000,-0.260994,-0.957796,-0.057258,1.422512,0.078477,-0.483783,-0.467593,0.000000,0.000000,0.002094,0.000000,-0.301593,0.001047,-0.157080,0.000000,0.000000,1.928646,0.107298,-21.888075,0.563641,6.708649,3.125121,-17.590132,-2.147371,-6.062714,-0.048156,-0.239734,-0.103128
2.071000,-0.260995,-0.957801,-0.057267,1.422500,0.075549,-0.483763,-0.469114,-0.000873,0.000000,0.000000,-0.002094,-0.299498,0.002094,-0.159174,-0.752846,0.000032,0.930815,-1.787781,-22.011442,0.125711,-9.702805,3.003646,-17.385113,-2.328406,-6.092761,-0.081490,-0.261397,-0.155034
2.081000,-0.260996,-0.957806,-0.057277,1.422492,0.072887,-0.483744,-0.470517,0.000000,-0.000873,-0.001047,-0.001047,-0.278555,0.001047,-0.151844,0.000000,-0.752846,0.764924,-0.793833,16.391178,-0.809035,9.704187,3.044138,-17.344109,-2.117198,-6.182901,-0.059267,-0.228902,-0.144652
2.091000,-0.260997,-0.957812,-0.057283,1.422481,0.069928,-0.483723,-0.471988,0.000000,0.000000,0.000000,0.000000,-0.283791,0.001047,-0.147655,0.000000,0.000000,0.227251,0.214575,15.070697,-0.809080,-6.174136,3.003646,-17.303105,-2.147371,-6.152854,-0.037045,-0.272228,-0.123890
2.101000,-0.260998,-0.957817,-0.057294,1.422471,0.066957,-0.483701,-0.473482,0.000000,0.000000,-0.001047,0.000000,-0.289027,0.001047,-0.146608,0.000000,0.001681,0.657627,0.029950,12.179211,-0.689714,8.367469,3.044138,-17.344109,-2.087026,-6.092761,-0.070379,-0.207239,-0.175796
2.111000,-0.260998,-0.957823,-0.057304,1.422461,0.063991,-0.483677,-0.474896,0.000000,0.000000,0.000000,0.000000,-0.289027,0.003142,-0.141372,0.000000,0.089211,1.455334,0.886976,4.029351,2.462483,-8.252609,3.044138,-17.385113,-2.388751,-6.032667,-0.014823,-0.228902,-0.144652
2.121000,-0.260999,-0.957829,-0.057313,1.422451,0.061013,-0.483654,-0.476319,0.000000,0.000000,-0.002094,-0.001047,-0.290074,0.003142,-0.144513,0.000032,0.651390,-0.460527,-0.779130,2.377222,1.794344,1.350217,3.165613,-17.262101,-2.177543,-6.122808,-0.037045,-0.228902,-0.123890
2.131000,-0.261000,-0.957834,-0.057321,1.422441,0.058031,-0.483632,-0.477688,0.000000,0.000000,0.000000,0.000000,-0.289027,0.002094,-0.125664,0.000000,0.000004,0.321041,0.779656,-3.786785,0.674414,2.578472,2.963154,-17.262101,-2.087026,-6.182901,-0.081490,-0.250565,-0.134271
2.141000,-0.261000,-0.957838,-0.057330,1.422431,0.055039,-0.483611,-0.479039,0.000000,0.000000,-0.002094,-0.001047,-0.291121,-0.000000,-0.141372,0.000000,0.089406,-1.808592,-0.903089,-5.676533,-0.246026,-4.267983,3.084630,-17.139089,-2.147371,-6.122808,-0.014823,-0.272228,-0.134271
2.151000,-0.261002,-0.957843,-0.057340,1.422422,0.052051,-0.483588,-0.480373,0.000000,-0.000873,0.000000,0.000000,-0.299498,0.003142,-0.124617,0.000000,-0.751164,2.124178,1.560764,-12.926481,2.478595,9.260823,3.003646,-17.467120,-2.026681,-6.273042,-0.014823,-0.261397,-0.134271
2.161000,-0.261003,-0.957848,-0.057348,1.422412,0.049065,-0.483565,-0.481642,0.000000,0.000000,0.001047,-0.001047,-0.304734,0.001047,-0.119381,0.000231,0.000000,1.108604,-0.903371,-14.627155,-0.794137,3.081822,2.922662,-17.672140,-2.268061,-6.092761,-0.037045,-0.153082,-0.134271
2.171000,-0.261004,-0.957853,-0.057358,1.422403,0.046079,-0.483542,-0.482902,0.000000,0.000000,-0.003142,-0.002094,-0.311018,0.002094,-0.128805,0.000000,0.000000,-1.995533,-1.911822,-19.145399,0.660014,-1.601672,3.125121,-17.754147,-2.147371,-6.212948,-0.092601,-0.250565,-0.144652
2.181000,-0.261005,-0.957857,-0.057366,1.422394,0.043087,-0.483521,-0.484130,0.000000,0.000000,-0.002094,-0.001047,-0.315206,-0.000000,-0.126711,0.000032,0.000000,-3.260024,-0.859298,-23.045995,-1.008723,-0.540418,3.125121,-17.467120,-2.207716,-6.122808,-0.048156,-0.185576,-0.123890
2.191000,-0.261007,-0.957862,-0.057376,1.422384,0.040080,-0.483499,-0.485337,0.000000,0.000000,-0.002094,-0.001047,-0.317301,0.002094,-0.112050,0.089175,0.000000,-1.806757,-0.901392,-22.582110,0.810853,7.949368,3.044138,-17.426117,-2.449095,-6.212948,-0.048156,-0.218071,-0.155034
2.201000,-0.261008,-0.957867,-0.057385,1.422374,0.037060,-0.483476,-0.486488,0.000000,-0.000873,0.002094,-0.001047,-0.319395,0.003142,-0.103673,0.000000,-0.103137,3.517224,-0.901076,-24.285949,1.682832,3.057772,3.165613,-17.467120,-2.268061,-6.152854,-0.070379,-0.218071,-0.134271
2.211000,-0.261009,-0.957872,-0.057394,1.422365,0.034044,-0.483455,-0.487600,-0.000873,0.000000,-0.002094,-0.001047,-0.311018,0.001047,-0.109956,-0.752846,0.089438,-1.025390,-0.888635,-11.519141,-0.886661,-2.146969,3.165613,-17.180093,-2.237888,-6.182901,-0.092601,-0.196408,-0.155034
2.221000,-0.261009,-0.957877,-0.057402,1.422357,0.031346,-0.483434,-0.488603,0.000000,0.000000,0.000000,0.000000,-0.308923,0.001047,-0.109956,0.000000,0.000001,1.680526,0.136951,-16.820467,-0.002334,-3.034967,3.084630,-17.344109,-2.328406,-6.062714,-0.014823,-0.120587,-0.155034
2.231000,-0.261010,-0.957882,-0.057409,1.422348,0.028646,-0.483412,-0.489579,0.000000,0.000000,0.000000,-0.001047,-0.287979,0.001047,-0.101578,0.000000,0.649478,0.915888,-0.886705,9.434149,-2.447735,0.063436,3.003646,-17.344109,-2.388751,-6.122808,-0.081490,-0.142250,-0.134271
2.241000,-0.261011,-0.957887,-0.057418,1.422339,0.025649,-0.483387,-0.490611,0.000000,0.000000,0.000000,-0.001047,-0.289027,0.002094,-0.103673,0.000000,0.000001,0.809304,-0.888157,4.646003,0.014731,-2.301289,3.125121,-17.467120,-2.147371,-6.273042,-0.081490,-0.218071,-0.144652
2.251000,-0.261011,-0.957893,-0.057427,1.422330,0.022647,-0.483361,-0.491643,0.000000,0.000000,0.000000,0.000000,-0.293215,0.002094,-0.100531,0.000000,0.000036,1.561019,1.588171,-4.701476,0.779096,-0.234228,2.963154,-17.303105,-2.418923,-6.092761,-0.114823,-0.218071,-0.155034
2.261000,-0.261012,-0.957898,-0.057437,1.422321,0.019647,-0.483335,-0.492632,0.000000,0.000000,0.000000,-0.001047,-0.297404,0.002094,-0.098437,0.000000,0.001713,-0.363759,-0.109071,-12.241676,-0.779417,-1.949289,3.084630,-17.508124,-2.328406,-6.092761,-0.081490,-0.228902,-0.113509
2.271000,-0.261013,-0.957903,-0.057447,1.422313,0.016644,-0.483307,-0.493559,0.000000,0.000000,-0.001047,0.000000,-0.301593,0.003142,-0.094248,0.000000,0.000231,0.093503,0.014731,-15.912324,0.890733,-3.329010,3.287089,-17.426117,-2.177543,-6.273042,-0.092601,-0.185576,-0.175796
2.281000,-0.261015,-0.957909,-0.057457,1.422304,0.013639,-0.483280,-0.494494,0.000000,0.000000,-0.002094,0.000000,-0.312065,0.001047,-0.092153,0.012244,0.649478,-3.258012,0.123725,-21.505438,-0.827808,-1.376470,3.125121,-17.549128,-2.207716,-6.122808,-0.070379,-0.239734,-0.113509
2.291000,-0.261016,-0.957914,-0.057465,1.422295,0.010641,-0.483253,-0.495404,0.000000,0.000000,0.000000,0.000000,-0.316254,0.001047,-0.089012,0.649478,0.089406,1.573755,0.002055,-20.089290,-1.010387,-3.498298,3.044138,-17.344109,-2.237888,-6.092761,-0.125934,-0.228902,-0.123890
2.301000,-0.261017,-0.957919,-0.057475,1.422286,0.007636,-0.483225,-0.496258,0.000000,0.000000,-0.001047,0.000000,-0.323584,0.002094,-0.079587,0.000000,0.001713,0.768400,0.779412,-24.381709,0.793783,-1.724906,3.044138,-17.385113,-2.207716,-6.122808,-0.114823,-0.228902,-0.144652
2.311000,-0.261018,-0.957925,-0.057484,1.422277,0.004630,-0.483198,-0.497080,0.000000,0.000000,0.000000,0.000000,-0.321490,-0.000000,-0.078540,0.000000,0.012248,0.890146,0.002019,-19.843869,-2.695507,2.070194,3.165613,-17.467120,-2.177543,-6.182901,-0.103712,-0.218071,-0.144652
2.321000,-0.261019,-0.957929,-0.057491,1.422269,0.001938,-0.483172,-0.497813,0.000000,0.000000,0.000000,-0.001047,-0.301593,0.002094,-0.082729,0.000000,0.012276,1.588176,-0.902578,-13.595740,-0.013192,-0.002188,3.044138,-17.385113,-2.026681,-6.182901,-0.114823,-0.218071,-0.113509
2.331000,-0.261020,-0.957935,-0.057501,1.422260,-0.001069,-0.483143,-0.498591,0.000000,0.000000,-0.001047,-0.001047,-0.304734,0.002094,-0.077493,0.000000,0.012276,-0.781707,-0.903377,-15.756204,-0.092600,-0.479734,2.922662,-17.508124,-2.268061,-6.393229,-0.137045,-0.218071,-0.092747
2.341000,-0.261021,-0.957940,-0.057510,1.422253,-0.004079,-0.483113,-0.499315,0.000000,-0.000873,0.000000,0.000000,-0.307876,0.003142,-0.068068,0.000000,-0.752615,0.886422,0.107048,-15.621570,0.901636,-2.335348,3.003646,-17.385113,-2.358578,-6.242995,-0.092601,-0.228902,-0.113509
2.351000,-0.261022,-0.957944,-0.057518,1.422244,-0.007085,-0.483084,-0.500014,0.000000,0.000000,-0.001047,-0.001047,-0.320442,0.002094,-0.064926,0.000000,0.000000,-1.668057,-0.901044,-19.763689,-0.796122,2.193954,3.044138,-17.426117,-1.966336,-6.303088,-0.003712,-0.163913,-0.144652
2.361000,-0.261023,-0.957949,-0.057528,1.422235,-0.010078,-0.483054,-0.500694,0.000000,0.000000,0.000000,-0.001047,-0.319395,0.003142,-0.069115,0.000000,0.000001,0.779684,-1.575778,-19.123899,0.903382,0.134278,3.206105,-17.467120,-2.268061,-6.273042,-0.037045,-0.185576,-0.113509
2.371000,-0.261024,-0.957954,-0.057537,1.422228,-0.013058,-0.483024,-0.501343,0.000000,0.000000,0.000000,-0.001047,-0.315206,0.002094,-0.062832,0.000000,0.649709,0.006069,-0.886699,-13.074911,-2.472738,-0.107234,3.125121,-17.467120,-2.479268,-6.002620,-0.092601,-0.207239,-0.144652
2.381000,-0.261025,-0.957959,-0.057545,1.422219,-0.016049,-0.482995,-0.501976,0.000000,0.000000,0.000000,0.000000,-0.316254,0.003142,-0.055501,0.000000,0.013957,0.000554,0.000039,-14.853833,0.903132,2.992834,3.044138,-17.426117,-2.237888,-6.002620,-0.070379,-0.163913,-0.134271
2.391000,-0.261027,-0.957964,-0.057554,1.422211,-0.019041,-0.482964,-0.502539,0.000000,0.000000,0.000000,0.000000,-0.309970,0.005236,-0.056549,0.000000,0.000032,0.672402,0.107569,-5.927777,3.382602,-1.680537,3.003646,-17.426117,-2.298233,-6.032667,-0.148156,-0.196408,-0.144652
2.401000,-0.261028,-0.957969,-0.057563,1.422202,-0.022038,-0.482936,-0.503075,0.000000,-0.000873,0.000000,0.000000,-0.295310,0.002094,-0.052360,0.649478,-0.752610,0.781745,0.016721,7.188224,0.687051,-0.884038,3.003646,-17.385113,-2.177543,-6.212948,-0.037045,-0.174745,-0.113509
2.411000,-0.261028,-0.957973,-0.057571,1.422194,-0.024745,-0.482909,-0.503553,0.000000,0.000000,-0.001047,0.000000,-0.312065,0.002094,-0.051313,0.000000,0.000032,-0.779342,0.107288,-19.513044,0.672293,1.792120,3.206105,-17.426117,-2.388751,-6.062714,-0.092601,-0.163913,-0.134271
2.421000,-0.261029,-0.957979,-0.057581,1.422185,-0.027750,-0.482881,-0.504042,0.000000,0.000000,-0.001047,0.000000,-0.315206,0.001047,-0.046077,0.000000,0.000000,-0.884676,0.123726,-16.010670,-1.037800,0.903823,2.922662,-17.590132,-2.177543,-6.092761,-0.070379,-0.163913,-0.134271
2.431000,-0.261030,-0.957985,-0.057590,1.422177,-0.030741,-0.482854,-0.504513,0.000000,0.000000,-0.001047,0.000000,-0.317301,0.001047,-0.045029,0.000000,0.740335,-0.899375,0.123726,-14.568031,-1.789809,0.815490,3.003646,-17.426117,-2.237888,-5.942527,-0.081490,-0.196408,-0.123890
2.441000,-0.261031,-0.957991,-0.057599,1.422168,-0.033726,-0.482826,-0.504949,0.000000,0.000000,0.000000,-0.001047,-0.316254,0.002094,-0.039794,0.000000,0.001718,2.342155,-0.107326,-14.021268,1.546061,-0.082957,3.165613,-17.303105,-2.207716,-6.212948,-0.125934,-0.098924,-0.144652
2.451000,-0.261032,-0.957997,-0.057609,1.422160,-0.036710,-0.482797,-0.505333,0.000000,0.000000,-0.002094,-0.001047,-0.312065,0.002094,-0.036652,0.000000,0.000032,-0.996014,-0.124041,-6.130907,0.762663,-0.884039,2.922662,-17.467120,-2.268061,-5.852387,-0.081490,-0.185576,-0.123890
2.461000,-0.261033,-0.958003,-0.057618,1.422152,-0.039700,-0.482768,-0.505678,0.000000,0.000000,0.000000,0.000000,-0.301593,0.002094,-0.032463,0.000000,0.089175,1.772805,0.796085,2.254534,-0.565668,1.008218,3.084630,-17.467120,-2.237888,-6.212948,-0.125934,-0.142250,-0.123890
2.471000,-0.261034,-0.958008,-0.057627,1.422144,-0.042678,-0.482739,-0.506001,0.000000,0.000000,0.000000,0.000000,-0.295310,0.003142,-0.031416,0.000000,0.000000,0.810787,0.901119,8.246324,0.094661,0.670352,3.084630,-17.344109,-2.328406,-6.152854,-0.070379,-0.185576,-0.103128
2.481000,-0.261036,-0.958013,-0.057635,1.422136,-0.045655,-0.482712,-0.506302,0.000000,-0.000873,0.000000,0.000000,-0.294263,0.001047,-0.028274,0.012244,-0.752845,0.781684,0.779656,15.892951,-1.697481,-0.774974,3.044138,-17.385113,-2.298233,-6.242995,-0.114823,-0.228902,-0.103128
2.491000,-0.261037,-0.958018,-0.057643,1.422127,-0.048627,-0.482681,-0.506579,0.000000,0.000000,0.000000,-0.001047,-0.295310,0.002094,-0.025133,0.001713,0.001681,0.685631,-0.903377,18.380258,-1.481123,0.126418,3.084630,-17.508124,-2.237888,-6.152854,-0.037045,-0.120587,-0.123890
2.501000,-0.261038,-0.958023,-0.057653,1.422120,-0.051592,-0.482648,-0.506822,0.000000,0.000000,-0.001047,0.000000,-0.292168,0.002094,-0.019897,0.000000,0.649478,-1.575740,0.794071,20.845765,-0.997472,1.716980,3.003646,-17.385113,-2.268061,-6.212948,-0.070379,-0.153082,-0.123890
2.511000,-0.261040,-0.958028,-0.057660,1.422112,-0.054564,-0.482614,-0.507020,0.000000,0.000000,0.001047,-0.002094,-0.291121,0.002094,-0.016755,0.000000,0.001685,1.911821,-1.682832,19.875225,-0.138224,1.593126,3.084630,-17.303105,-2.177543,-6.092761,-0.103712,-0.185576,-0.113509
2.521000,-0.261041,-0.958033,-0.057669,1.422105,-0.057244,-0.482583,-0.507168,0.000000,0.000000,-0.001047,-0.001047,-0.308923,0.003142,-0.014661,0.000000,0.738653,-0.888683,-0.888439,-11.911464,0.001746,0.125826,3.044138,-17.385113,-2.268061,-6.092761,-0.081490,-0.153082,-0.103128
2.531000,-0.261042,-0.958039,-0.057679,1.422098,-0.060228,-0.482551,-0.507307,0.000000,0.000000,-0.003142,-0.001047,-0.306829,0.003142,-0.012566,-0.649478,0.001717,-2.662124,-0.903138,-5.940333,-0.682467,0.090622,3.044138,-17.508124,-2.207716,-6.212948,-0.070379,-0.174745,-0.092747
2.541000,-0.261043,-0.958044,-0.057686,1.422090,-0.063205,-0.482521,-0.507426,0.000000,0.000000,0.000000,0.000000,-0.305782,0.002094,-0.009425,-0.000000,0.000004,1.775034,0.796084,-3.111997,-0.107043,0.905477,3.246597,-17.549128,-2.328406,-6.182901,-0.103712,-0.153082,-0.103128
2.551000,-0.261044,-0.958049,-0.057695,1.422083,-0.065860,-0.482492,-0.507501,0.000000,0.000000,-0.001047,-0.001047,-0.307876,0.003142,-0.006283,0.089175,0.651164,0.644681,-0.901120,-18.738508,0.109310,0.901686,3.125121,-17.344109,-2.298233,-6.092761,-0.114823,-0.142250,-0.113509
2.561000,-0.261045,-0.958054,-0.057703,1.422076,-0.068519,-0.482464,-0.507546,0.000000,-0.000873,-0.002094,-0.001047,-0.280649,0.003142,-0.002094,0.001681,-0.752615,-0.232863,-0.888679,15.223267,0.796395,1.684895,2.922662,-17.385113,-2.328406,-6.212948,-0.092601,-0.218071,-0.103128
2.571000,-0.261046,-0.958059,-0.057710,1.422070,-0.071194,-0.482436,-0.507566,0.000000,0.000000,0.000000,0.000000,-0.285885,0.003142,0.000000,0.000000,0.000037,-0.559497,0.812794,19.344158,0.886422,0.126098,3.165613,-17.426117,-2.207716,-6.303088,-0.092601,-0.185576,-0.092747
2.581000,-0.261047,-0.958064,-0.057719,1.422063,-0.074148,-0.482406,-0.507566,0.000000,0.000000,0.000000,0.001047,-0.283791,0.002094,0.000000,0.000001,0.089406,-0.452492,0.932801,20.110268,0.684480,-0.121665,3.125121,-17.344109,-2.207716,-6.122808,-0.059267,-0.142250,-0.103128
2.591000,-0.261047,-0.958069,-0.057728,1.422056,-0.076797,-0.482379,-0.507557,0.000000,0.000000,0.000000,0.000000,-0.313112,0.003142,0.001047,0.000000,0.000231,0.218052,0.886422,-19.275809,0.125944,0.781707,2.963154,-17.508124,-2.087026,-6.273042,-0.137045,-0.185576,-0.030460
2.601000,-0.261048,-0.958075,-0.057736,1.422048,-0.079737,-0.482350,-0.507521,0.000000,-0.000873,-0.001047,0.000000,-0.314159,0.002094,0.004189,0.000000,-0.752583,-0.580291,0.000001,-20.523595,0.777317,-0.867298,2.801186,-17.426117,-2.298233,-6.212948,-0.114823,-0.163913,-0.040841
2.611000,-0.261049,-0.958080,-0.057744,1.422041,-0.082679,-0.482319,-0.507440,0.000000,-0.000873,0.000000,0.000000,-0.315206,0.004189,0.010472,0.000000,-0.752846,0.672933,0.014693,-23.948434,0.995738,0.922824,2.963154,-17.549128,-2.177543,-6.212948,-0.103712,-0.098924,-0.009697
2.621000,-0.261050,-0.958085,-0.057751,1.422034,-0.085321,-0.482291,-0.507320,0.000000,0.000000,0.000000,0.000000,-0.286932,0.003142,0.014661,0.000000,0.000231,0.794312,0.029940,-6.759594,0.783724,0.015381,3.287089,-17.508124,-2.237888,-6.212948,-0.114823,-0.207239,0.011065
2.631000,-0.261052,-0.958090,-0.057759,1.422028,-0.088275,-0.482259,-0.507136,0.000000,0.000000,0.000000,0.000000,-0.284838,0.004189,0.019897,0.000000,0.000000,1.586432,0.120278,-2.031000,0.889043,0.004445,3.044138,-17.426117,-2.147371,-6.242995,-0.148156,-0.142250,0.021446
2.641000,-0.261053,-0.958095,-0.057766,1.422021,-0.090943,-0.482230,-0.506947,0.000000,0.000000,0.000000,0.000000,-0.276460,0.001047,0.021991,0.000000,0.101650,2.353639,0.107048,23.576696,-1.699504,0.122106,3.165613,-17.467120,-2.268061,-6.303088,-0.137045,-0.142250,0.000684
2.651000,-0.261054,-0.958102,-0.057775,1.422014,-0.093884,-0.482196,-0.506717,-0.000873,-0.000873,-0.003142,0.000000,-0.280649,0.003142,0.024086,-0.752846,-0.751164,-2.506844,0.779385,24.970323,0.000033,1.010154,3.084630,-17.467120,-2.117198,-6.152854,-0.081490,-0.196408,0.000684
2.661000,-0.261056,-0.958107,-0.057783,1.422007,-0.096809,-0.482163,-0.506458,0.000000,-0.000873,0.002094,0.000000,-0.279602,0.002094,0.028274,0.000000,-0.661958,3.166212,0.000000,28.076924,-0.775420,1.015657,3.084630,-17.344109,-2.358578,-6.393229,-0.048156,-0.120587,0.042208
2.671000,-0.261057,-0.958113,-0.057792,1.422000,-0.099733,-0.482131,-0.506156,0.000000,0.000000,-0.002094,-0.003142,-0.281696,0.004189,0.032463,0.000000,0.090860,-2.370373,-2.601141,22.625349,0.919848,0.933171,3.084630,-17.344109,-2.237888,-6.122808,-0.137045,-0.153082,0.011065
2.681000,-0.261058,-0.958118,-0.057801,1.421994,-0.102657,-0.482098,-0.505821,0.000000,0.000000,0.000000,-0.001047,-0.281696,0.003142,0.034558,0.000000,0.000000,0.823969,-0.899374,22.163801,-0.670303,-1.556402,3.206105,-17.467120,-2.298233,-6.212948,-0.070379,-0.196408,0.052590
2.691000,-0.261059,-0.958123,-0.057809,1.421988,-0.105574,-0.482064,-0.505465,0.000000,0.000000,0.000000,0.000000,-0.278555,0.003142,0.035605,0.000000,0.000000,0.430068,0.107298,21.665037,0.103214,0.798379,3.084630,-17.385113,-2.268061,-6.242995,-0.025934,-0.120587,0.073352
2.701000,-0.261061,-0.958129,-0.057820,1.421982,-0.108486,-0.482030,-0.505096,0.000000,0.000000,-0.002094,0.000000,-0.290074,0.003142,0.037699,0.000000,0.101681,-1.797182,0.002294,11.872874,-0.104477,-0.883729,3.044138,-17.426117,-2.237888,-6.032667,-0.081490,-0.109756,0.062971
2.711000,-0.261062,-0.958133,-0.057827,1.421976,-0.111084,-0.481998,-0.504729,0.000000,0.000000,-0.002094,-0.001047,-0.305782,0.002094,0.040841,0.000000,0.001681,-3.158447,-0.903415,-21.156082,-2.463940,-0.091996,3.044138,-17.426117,-2.207716,-6.303088,-0.103712,-0.163913,0.031827
2.721000,-0.261063,-0.958138,-0.057837,1.421970,-0.113979,-0.481960,-0.504290,0.000000,0.000000,0.000000,0.000000,-0.303687,0.004189,0.046077,0.000000,0.649514,1.573549,0.107015,-22.777970,1.573831,0.815515,3.044138,-17.262101,-2.328406,-6.152854,-0.148156,-0.098924,0.062971
2.731000,-0.261064,-0.958144,-0.057845,1.421964,-0.116881,-0.481922,-0.503793,0.000000,-0.000873,0.000000,0.000000,-0.299498,0.003142,0.051313,0.000000,-0.740602,0.811260,0.672364,-23.690488,-0.001426,-0.090193,3.003646,-17.344109,-2.207716,-6.122808,-0.081490,-0.163913,0.052590
2.741000,-0.261065,-0.958150,-0.057855,1.421957,-0.119784,-0.481883,-0.503282,0.000000,0.000000,0.000000,0.000000,-0.289027,0.005236,0.052360,0.000000,0.000001,0.109033,0.781396,-14.220978,2.674762,1.134188,3.044138,-17.467120,-2.418923,-6.152854,-0.081490,-0.185576,0.114877
2.751000,-0.261066,-0.958155,-0.057862,1.421952,-0.122405,-0.481848,-0.502788,0.000000,0.000000,0.000000,0.000000,-0.268083,0.003142,0.055501,0.000032,0.651160,2.450007,0.014693,23.029466,0.596756,-1.786730,3.327581,-17.303105,-2.237888,-6.152854,-0.125934,-0.185576,0.052590
2.761000,-0.261067,-0.958161,-0.057870,1.421946,-0.125012,-0.481814,-0.502280,0.000000,0.000000,0.000000,0.000000,-0.301593,0.004189,0.054454,0.000000,0.738657,0.109065,0.000001,-5.720044,1.695431,-0.798152,2.882170,-17.344109,-2.268061,-6.152854,-0.192601,-0.109756,0.094114
2.771000,-0.261068,-0.958167,-0.057879,1.421940,-0.127894,-0.481779,-0.501693,0.000000,-0.000873,-0.003142,-0.001047,-0.307876,0.002094,0.056549,0.000000,-0.740371,-2.588260,-0.901321,-17.199762,-0.125819,-2.724847,3.125121,-17.344109,-2.117198,-6.212948,-0.114823,-0.120587,0.083733
2.781000,-0.261069,-0.958172,-0.057886,1.421934,-0.130470,-0.481747,-0.501149,0.000000,0.000000,0.000000,0.000000,-0.283791,0.004189,0.064926,0.000000,0.000000,0.781434,-0.779373,-10.109438,1.697762,1.158518,3.287089,-17.385113,-2.177543,-6.212948,-0.159267,-0.174745,0.114877
2.791000,-0.261071,-0.958177,-0.057894,1.421929,-0.133079,-0.481716,-0.500546,0.000000,-0.000873,0.001047,-0.001047,-0.277507,0.002094,0.065973,0.000000,-0.103368,3.247658,-0.888716,23.634231,-2.352853,0.880016,3.125121,-17.426117,-2.207716,-6.062714,-0.148156,-0.174745,0.104495
2.801000,-0.261072,-0.958183,-0.057903,1.421923,-0.135942,-0.481680,-0.499844,0.000000,0.000000,-0.002094,0.000000,-0.281696,0.004189,0.072257,0.000000,0.012244,-2.556258,0.000044,17.364923,0.903214,-0.227422,3.044138,-17.508124,-2.237888,-6.303088,-0.192601,-0.163913,0.083733
2.811000,-0.261073,-0.958188,-0.057910,1.421917,-0.138489,-0.481648,-0.499201,0.000000,0.000000,-0.001047,-0.002094,-0.295310,0.003142,0.072257,0.000000,0.089175,-0.201383,-1.792099,-19.058871,-0.793952,-1.446459,3.165613,-17.467120,-2.056854,-6.152854,-0.114823,-0.185576,0.094114
2.821000,-0.261074,-0.958192,-0.057918,1.421912,-0.141057,-0.481613,-0.498546,0.000000,0.000000,0.000000,0.000000,-0.264941,0.004189,0.070162,0.000000,0.649478,0.794283,1.573445,19.392431,0.903420,-0.006816,2.963154,-17.426117,-2.328406,-6.122808,-0.114823,-0.142250,0.114877
2.831000,-0.261075,-0.958197,-0.057926,1.421907,-0.143639,-0.481581,-0.497865,0.000000,0.000000,-0.001047,0.000000,-0.297404,0.003142,0.079587,0.000000,0.000000,-0.685082,0.014693,-9.090985,-0.015171,-0.968383,3.165613,-17.508124,-2.268061,-6.212948,-0.114823,-0.142250,0.104495
2.841000,-0.261077,-0.958202,-0.057933,1.421902,-0.146186,-0.481546,-0.497151,0.000000,0.000000,0.001047,0.000000,-0.283791,0.003142,0.084823,0.000000,0.001685,0.918146,0.121703,-5.665078,0.000516,2.977739,3.003646,-17.344109,-2.117198,-6.092761,-0.192601,-0.088093,0.094114
2.851000,-0.261078,-0.958207,-0.057942,1.421895,-0.149037,-0.481508,-0.496303,0.000000,0.000000,0.000000,0.000000,-0.276460,0.003142,0.087965,0.000000,0.649478,0.781467,0.001979,5.845860,-0.109309,2.960450,3.084630,-17.549128,-2.358578,-5.972574,-0.214823,-0.120587,0.073352
2.861000,-0.261079,-0.958212,-0.057951,1.421890,-0.151880,-0.481473,-0.495446,0.000000,0.000000,-0.001047,-0.001047,-0.268083,0.003142,0.082729,0.000000,0.013925,-0.888683,-0.901392,15.939108,0.781423,0.930775,3.206105,-17.426117,-2.207716,-6.122808,-0.225934,-0.131419,0.083733
2.871000,-0.261080,-0.958218,-0.057959,1.421885,-0.154725,-0.481439,-0.494569,0.000000,0.000000,0.001047,0.000000,-0.267035,0.003142,0.087965,0.000000,0.000032,1.898836,-0.777318,22.119846,0.781353,1.082583,3.125121,-17.303105,-2.388751,-6.182901,-0.170379,-0.088093,0.094114
2.881000,-0.261081,-0.958223,-0.057968,1.421879,-0.157279,-0.481408,-0.493728,0.000000,0.000000,-0.002094,-0.002094,-0.297404,0.003142,0.091106,0.000000,0.651191,-1.697839,-1.027456,-19.792959,0.766704,0.129924,3.044138,-17.262101,-2.328406,-6.212948,-0.203712,-0.131419,0.094114
2.891000,-0.261082,-0.958228,-0.057976,1.421874,-0.160093,-0.481375,-0.492754,0.000000,0.000000,0.000000,0.000000,-0.290074,0.003142,0.093201,0.000000,0.013930,0.121980,0.107010,-16.738414,0.794110,-2.720304,2.963154,-17.426117,-2.177543,-6.122808,-0.181490,-0.163913,0.052590
2.901000,-0.261083,-0.958233,-0.057985,1.421869,-0.162898,-0.481341,-0.491794,0.000000,0.000000,0.000000,-0.001047,-0.274366,0.003142,0.094248,0.000000,0.000001,0.107087,-0.796128,-5.088328,0.229305,-2.177938,2.922662,-17.344109,-2.147371,-6.152854,-0.125934,-0.142250,0.083733
2.911000,-0.261084,-0.958239,-0.057993,1.421864,-0.165706,-0.481306,-0.490791,0.000000,-0.000873,0.000000,0.000000,-0.261799,0.003142,0.099484,0.000000,-0.663439,0.779417,0.000037,12.258013,0.809074,-3.106886,3.125121,-17.713144,-2.237888,-6.152854,-0.125934,-0.120587,0.083733
2.921000,-0.261086,-0.958245,-0.058001,1.421859,-0.168512,-0.481269,-0.489733,0.000000,0.000000,-0.001047,0.000000,-0.261799,0.002094,0.103673,0.012244,0.089179,-0.779657,0.886383,23.100046,-0.903377,-1.493487,3.044138,-17.303105,-2.207716,-6.152854,-0.125934,-0.120587,0.094114
2.931000,-0.261087,-0.958251,-0.058009,1.421854,-0.171311,-0.481230,-0.488668,0.000000,-0.000873,0.000000,-0.001047,-0.277507,0.003142,0.103673,0.000000,-0.752846,-0.010653,-0.901398,14.285886,0.794066,0.781140,3.044138,-17.508124,-2.237888,-6.182901,-0.114823,-0.088093,0.073352
2.941000,-0.261089,-0.958257,-0.058017,1.421850,-0.174089,-0.481190,-0.487568,0.000000,-0.000873,-0.001047,0.000000,-0.296357,0.004189,0.108909,0.089175,-0.752813,-0.794109,-0.107015,-12.075684,0.685321,1.879935,2.963154,-17.426117,-2.207716,-6.062714,-0.081490,-0.044766,0.125258
2.951000,-0.261091,-0.958262,-0.058025,1.421844,-0.176849,-0.481151,-0.486417,0.000000,0.000000,-0.002094,0.000000,-0.290074,0.003142,0.116239,0.000000,0.000231,-1.698068,0.779373,-18.576858,-0.124002,2.067562,2.922662,-17.385113,-2.358578,-6.152854,-0.125934,-0.098924,0.073352
2.961000,-0.261092,-0.958268,-0.058033,1.421839,-0.179622,-0.481112,-0.485260,0.000000,0.000000,-0.001047,0.000000,-0.276460,0.003142,0.124617,0.000000,0.649510,-0.796366,0.000277,-14.717965,-0.674734,4.839586,3.084630,-17.467120,-2.177543,-6.182901,-0.114823,-0.142250,0.104495
2.971000,-0.261093,-0.958273,-0.058040,1.421834,-0.182142,-0.481078,-0.484189,0.000000,0.000000,0.000000,0.000000,-0.264941,0.003142,0.130900,0.000000,0.012248,0.121985,0.016759,19.029871,-0.777639,7.762537,3.003646,-17.467120,-2.449095,-6.182901,-0.203712,-0.153082,0.094114
2.981000,-0.261094,-0.958279,-0.058048,1.421830,-0.184630,-0.481042,-0.483072,0.000000,0.000000,0.000000,-0.001047,-0.284838,0.004189,0.124617,0.000231,0.089180,1.008086,-0.888722,-13.558421,1.669792,-5.448974,3.206105,-17.426117,-2.298233,-6.152854,-0.125934,-0.088093,0.083733
2.991000,-0.261095,-0.958285,-0.058055,1.421825,-0.187375,-0.481002,-0.481832,0.000000,0.000000,0.000000,0.000000,-0.273319,0.004189,0.121475,0.000000,0.000231,0.000005,0.000000,-3.923289,1.678395,0.051066,3.084630,-17.467120,-2.418923,-6.242995,-0.170379,-0.109756,0.104495
3.001000,-0.261096,-0.958290,-0.058063,1.421822,-0.189859,-0.480968,-0.480683,0.000000,0.000000,-0.001047,0.000000,-0.281696,0.002094,0.125664,0.000000,0.013925,-0.903100,1.558747,-0.163052,-0.891096,1.873877,3.044138,-17.426117,-2.177543,-6.152854,-0.170379,-0.142250,0.114877
3.011000,-0.261097,-0.958296,-0.058071,1.421817,-0.192605,-0.480923,-0.479372,0.000000,0.000000,0.000000,0.000000,-0.286932,0.030369,0.138230,0.000000,0.013925,0.886422,0.000000,-16.070128,21.932053,6.197374,3.003646,-17.385113,-2.388751,-6.152854,-0.170379,-0.109756,0.104495
3.021000,-0.261098,-0.958302,-0.058079,1.421809,-0.195332,-0.478204,-0.478024,0.000000,0.000000,0.000000,-0.002094,-0.277507,0.219911,0.130900,0.000000,0.740334,0.029386,-1.775426,-13.913738,-5.266538,-7.879568,3.125121,-17.426117,-2.268061,-5.852387,-0.114823,-0.109756,0.135639
3.031000,-0.261100,-0.958308,-0.058087,1.421805,-0.197784,-0.477173,-0.476794,0.000000,0.000000,0.000000,-0.001047,-0.270177,0.036652,0.129852,0.000000,0.012506,0.017026,-0.874578,10.588969,-14.832354,-0.674075,3.165613,-17.713144,-2.207716,-6.032667,-0.237045,-0.142250,0.031827
3.041000,-0.261101,-0.958313,-0.058095,1.421801,-0.200493,-0.477254,-0.475399,0.000000,0.000000,-0.001047,-0.001047,-0.284838,-0.036652,0.153938,0.000000,0.000032,-0.779934,-0.796405,-19.107754,-5.216918,8.169301,2.963154,-17.795151,-2.207716,-6.182901,-0.125934,-0.391375,0.083733
3.051000,-0.261103,-0.958316,-0.058103,1.421798,-0.203197,-0.477866,-0.473959,-0.000873,0.000000,-0.001047,0.000000,-0.270177,-0.081681,0.136136,-0.752841,0.661722,-0.123759,0.779374,-12.961354,-3.193109,-5.940915,2.963154,-17.672140,-2.358578,-6.122808,-0.192601,-0.835467,0.094114
3.061000,-0.261104,-0.958321,-0.058110,1.421795,-0.205902,-0.478785,-0.472528,0.000000,0.000000,0.000000,0.000000,-0.254469,-0.106814,0.151844,0.000000,0.649478,0.779651,0.107010,14.630509,-2.593263,9.462207,3.044138,-17.508124,-2.177543,-6.182901,-0.170379,-0.770478,0.104495
3.071000,-0.261105,-0.958326,-0.058117,1.421790,-0.208318,-0.479748,-0.471171,0.000000,0.000000,0.000000,-0.002094,-0.289027,-0.117286,0.149749,0.000000,0.738920,0.121985,-1.013002,-21.586624,-5.182583,-9.307359,3.165613,-17.467120,-2.056854,-6.062714,-0.237045,-0.781309,0.083733
3.081000,-0.261106,-0.958333,-0.058126,1.421787,-0.211005,-0.480894,-0.469678,0.000000,-0.000873,0.000000,0.000000,-0.267035,-0.119381,0.152891,0.000231,-0.750934,0.995688,0.212003,-13.383674,-0.491350,8.336422,2.963154,-17.262101,-2.087026,-6.212948,-0.214823,-0.867961,0.125258
3.091000,-0.261107,-0.958338,-0.058134,1.421784,-0.213709,-0.482041,-0.468115,0.000000,0.000000,-0.001047,0.000000,-0.250280,-0.115192,0.150796,0.000000,0.000001,-0.109271,0.107011,14.980242,5.155624,-6.901218,3.125121,-17.467120,-2.177543,-6.242995,-0.203712,-0.835467,0.083733
3.101000,-0.261109,-0.958344,-0.058141,1.421779,-0.216409,-0.483190,-0.466556,0.000000,0.000000,0.000000,0.000000,-0.270177,-0.111003,0.168599,0.000000,0.000000,1.573479,0.794104,7.648063,1.018236,12.421623,3.084630,-17.180093,-2.117198,-6.152854,-0.181490,-0.835467,0.104495
3.111000,-0.261110,-0.958351,-0.058149,1.421774,-0.219058,-0.484318,-0.464955,0.000000,0.000000,0.000000,0.000000,-0.279602,-0.108909,0.157080,0.000000,0.752610,0.014974,0.777356,-14.934960,-2.547552,2.518079,3.206105,-17.385113,-2.298233,-6.062714,-0.192601,-0.813804,0.114877
3.121000,-0.261111,-0.958359,-0.058157,1.421769,-0.221704,-0.485437,-0.463314,0.000000,0.000000,0.000000,0.000000,-0.253422,-0.109956,0.164410,0.000000,0.649741,0.121708,0.000320,3.858131,-0.486985,-7.437756,3.125121,-17.385113,-2.237888,-6.212948,-0.203712,-0.943782,0.094114
3.131000,-0.261113,-0.958365,-0.058164,1.421766,-0.224368,-0.486556,-0.461664,-0.000873,0.000000,0.000000,0.000000,-0.251327,-0.116239,0.179071,-0.752845,0.000000,1.085755,0.000000,21.675115,-6.372006,10.845011,3.084630,-17.549128,-2.328406,-6.182901,-0.148156,-0.932950,0.114877
3.141000,-0.261115,-0.958369,-0.058171,1.421763,-0.226741,-0.487536,-0.460143,0.000000,0.000000,0.000000,0.000000,-0.265988,-0.111003,0.154985,0.000000,0.000004,0.136439,0.107287,-12.421661,-7.029033,-8.567356,3.044138,-17.426117,-2.177543,-6.242995,-0.192601,-0.846298,0.104495
3.151000,-0.261116,-0.958374,-0.058180,1.421760,-0.229370,-0.488622,-0.458424,0.000000,0.000000,-0.002094,0.000000,-0.246091,-0.109956,0.178024,0.000000,0.000000,-0.931104,0.107015,23.093649,-2.302628,-8.241155,3.084630,-17.467120,-2.388751,-6.062714,-0.192601,-0.867961,0.094114
3.161000,-0.261118,-0.958380,-0.058188,1.421755,-0.231988,-0.489691,-0.456691,0.000000,-0.000873,-0.001047,-0.001047,-0.271224,-0.109956,0.189543,0.000000,-0.752846,0.868166,-0.122019,-7.030913,-0.209776,14.574018,2.963154,-17.467120,-2.237888,-6.092761,-0.181490,-0.889624,0.083733
3.171000,-0.261119,-0.958385,-0.058196,1.421752,-0.234594,-0.490714,-0.454914,0.000000,0.000000,-0.001047,-0.001047,-0.257611,-0.104720,0.182212,0.000000,0.738654,1.664049,-0.901044,-11.858301,-0.849640,9.206866,2.963154,-17.508124,-2.298233,-6.122808,-0.192601,-0.846298,0.125258
3.181000,-0.261120,-0.958390,-0.058203,1.421750,-0.236954,-0.491625,-0.453294,0.000000,0.000000,-0.001047,0.000000,-0.275413,-0.104720,0.168599,-0.649478,0.651163,0.655615,-0.104993,-3.365969,4.481057,-10.158221,3.044138,-17.508124,-2.117198,-6.212948,-0.148156,-0.802972,0.114877
3.191000,-0.261121,-0.958395,-0.058211,1.421746,-0.239524,-0.492627,-0.451461,0.000000,0.000000,0.001047,0.000000,-0.260752,-0.107861,0.180118,-0.000000,0.090860,0.892759,0.000315,-12.416045,-2.143403,-11.310795,2.882170,-17.385113,-2.207716,-6.152854,-0.137045,-0.867961,0.073352
3.201000,-0.261122,-0.958401,-0.058219,1.421743,-0.241876,-0.493493,-0.449800,0.000000,0.000000,-0.003142,0.000000,-0.262847,-0.100531,0.201062,-0.000000,0.649478,-1.146593,0.014693,-0.228693,-5.025762,13.865480,2.922662,-17.344109,-2.056854,-6.182901,-0.114823,-0.824635,0.135639
3.211000,-0.261123,-0.958407,-0.058227,1.421740,-0.244203,-0.494340,-0.448115,0.000000,0.000000,-0.002094,0.000000,-0.246091,-0.094248,0.184307,-0.000000,0.738653,-1.027373,0.886661,9.884713,-2.922389,6.221743,3.165613,-17.467120,-2.056854,-6.182901,-0.159267,-0.943782,0.114877
3.221000,-0.261125,-0.958413,-0.058233,1.421736,-0.246782,-0.495283,-0.446213,0.000000,0.000000,0.001047,0.000000,-0.268083,-0.093201,0.182212,-0.000000,0.012244,1.010436,0.107010,0.367509,-0.266573,1.357881,3.165613,-17.467120,-2.117198,-6.092761,-0.103712,-0.802972,0.166782
3.231000,-0.261126,-0.958418,-0.058242,1.421733,-0.249333,-0.496199,-0.444275,0.000000,0.000000,-0.002094,-0.001047,-0.255516,-0.086917,0.186401,-0.000000,0.012244,0.636045,-0.796405,-12.059599,1.024506,0.456605,3.044138,-17.467120,-2.177543,-6.212948,-0.159267,-0.846298,0.083733
3.241000,-0.261127,-0.958424,-0.058249,1.421730,-0.251902,-0.497055,-0.442304,0.000000,0.000000,-0.001047,0.000000,-0.238761,-0.082729,0.188496,-0.000000,0.000001,-0.901349,0.002300,21.493262,-1.570632,-0.815977,3.084630,-17.426117,-2.237888,-6.092761,-0.070379,-0.857130,0.104495
3.251000,-0.261128,-0.958429,-0.058256,1.421727,-0.254181,-0.497839,-0.440517,0.000000,0.000000,0.000000,0.000000,-0.254469,-0.083776,0.188496,-0.000000,0.089175,1.806508,0.000000,-10.896103,-1.919632,-10.561756,2.963154,-17.549128,-2.237888,-6.182901,-0.159267,-0.835467,0.104495
3.261000,-0.261129,-0.958435,-0.058264,1.421724,-0.256723,-0.498689,-0.438505,0.000000,0.000000,-0.001047,0.000000,-0.246091,-0.083776,0.187448,-0.000000,0.000000,-1.010387,0.000000,17.379491,4.601405,-9.534363,3.165613,-17.549128,-1.996509,-6.242995,-0.181490,-0.846298,0.104495
3.271000,-0.261131,-0.958440,-0.058270,1.421722,-0.258993,-0.499413,-0.436662,0.000000,0.000000,0.000000,-0.001047,-0.238761,-0.081681,0.196873,-0.000000,0.001681,0.124600,-0.888722,0.790833,-0.374676,-16.295357,2.963154,-17.549128,-2.177543,-6.242995,-0.181490,-0.802972,0.052590
3.281000,-0.261132,-0.958446,-0.058279,1.421719,-0.261515,-0.500177,-0.434607,0.000000,0.000000,0.000000,-0.002094,-0.255516,-0.072257,0.193732,-0.000000,0.000032,-0.109027,-2.586165,6.062998,0.658856,-10.223066,3.125121,-17.385113,-2.328406,-6.152854,-0.181490,-0.857130,0.073352
3.291000,-0.261134,-0.958452,-0.058287,1.421716,-0.263986,-0.500954,-0.432513,0.000000,0.000000,-0.002094,0.000000,-0.249233,-0.074351,0.197920,-0.000000,0.740334,-1.792325,0.794029,-13.146707,0.236364,-1.618777,3.125121,-17.549128,-2.177543,-6.122808,-0.159267,-0.889624,0.114877
3.301000,-0.261135,-0.958458,-0.058295,1.421713,-0.266495,-0.501706,-0.430398,0.000000,-0.000873,-0.001047,-0.001047,-0.238761,-0.072257,0.217817,-0.000000,-0.663670,-0.905395,-0.903414,16.267487,1.962534,13.751073,3.165613,-17.344109,-2.177543,-6.303088,-0.281490,-0.867961,0.125258
3.311000,-0.261137,-0.958463,-0.058302,1.421711,-0.268980,-0.502436,-0.428249,0.000000,0.000000,-0.001047,-0.001047,-0.251327,-0.067021,0.228289,-0.000000,0.001916,-0.460034,-1.682788,-10.448503,5.416442,16.545135,3.003646,-17.467120,-2.298233,-6.092761,-0.214823,-0.824635,0.125258
3.321000,-0.261138,-0.958468,-0.058310,1.421709,-0.271460,-0.503097,-0.426060,0.000000,0.000000,-0.001047,0.000000,-0.239808,-0.067021,0.227242,-0.000000,0.000032,0.991696,0.000277,20.075069,-0.143414,-4.397660,3.165613,-17.508124,-2.358578,-6.152854,-0.181490,-0.835467,0.094114
3.331000,-0.261140,-0.958474,-0.058317,1.421706,-0.273917,-0.503756,-0.423861,0.000000,0.000000,-0.001047,0.000000,-0.255516,-0.063879,0.209440,-0.000000,0.649510,-0.918133,0.779373,-18.829654,-1.768294,-19.340547,2.922662,-17.344109,-2.298233,-6.152854,-0.214823,-0.846298,0.083733
3.341000,-0.261141,-0.958479,-0.058325,1.421704,-0.276398,-0.504411,-0.421649,0.000000,0.000000,-0.002094,0.000000,-0.230383,-0.065973,0.213628,-0.000000,0.000231,-0.857091,-0.014693,19.575760,0.102925,4.131321,3.084630,-17.467120,-2.207716,-6.092761,-0.203712,-0.824635,0.125258
3.351000,-0.261143,-0.958485,-0.058332,1.421701,-0.278850,-0.505028,-0.419382,0.000000,0.000000,-0.001047,0.000000,-0.254469,-0.060737,0.245044,-0.000000,0.000000,-1.678150,0.107011,-12.955473,-0.124005,19.368965,3.003646,-17.385113,-2.207716,-5.972574,-0.259267,-0.835467,0.146020
3.361000,-0.261144,-0.958490,-0.058339,1.421699,-0.281040,-0.505590,-0.417321,0.000000,0.000000,-0.001047,0.000000,-0.258658,-0.055501,0.250280,-0.000000,0.000032,-0.795481,0.000000,-11.292782,2.979755,14.740535,2.963154,-17.713144,-2.087026,-6.062714,-0.192601,-0.846298,0.146020
3.371000,-0.261145,-0.958496,-0.058346,1.421696,-0.283462,-0.506128,-0.415019,0.000000,0.000000,0.000000,0.000000,-0.224100,-0.053407,0.217817,-0.000000,0.001681,-0.886253,0.000038,6.772668,-2.462426,-18.749876,3.003646,-17.426117,-2.328406,-5.972574,-0.181490,-0.857130,0.042208
3.381000,-0.261146,-0.958502,-0.058354,1.421695,-0.285887,-0.506682,-0.412700,0.000000,0.000000,-0.003142,0.000000,-0.257611,-0.053407,0.233525,-0.000000,0.651159,-0.922784,0.014693,-12.167998,-0.852078,11.652911,2.922662,-17.426117,-2.328406,-6.092761,-0.181490,-0.813804,0.114877
3.391000,-0.261148,-0.958507,-0.058361,1.421693,-0.288279,-0.507197,-0.410316,0.000000,0.000000,-0.001047,0.001047,-0.219911,-0.052360,0.239808,0.649478,0.000000,0.684725,1.682788,20.033403,1.310389,-9.396220,3.084630,-17.549128,-1.966336,-6.152854,-0.259267,-0.835467,0.146020
3.401000,-0.261149,-0.958513,-0.058368,1.421690,-0.290672,-0.507707,-0.407946,0.000000,0.000000,-0.001047,0.000000,-0.249233,-0.049218,0.227242,0.089207,0.000000,0.089989,0.107010,-18.732247,-0.686919,-7.850586,2.760694,-17.467120,-2.056854,-6.242995,-0.192601,-0.846298,0.052590
3.411000,-0.261150,-0.958518,-0.058376,1.421688,-0.293064,-0.508191,-0.405533,0.000000,0.000000,-0.001047,0.000000,-0.227242,-0.047124,0.264941,0.000000,0.001681,1.433319,0.000038,22.967458,0.763300,21.517249,3.125121,-17.426117,-2.298233,-6.062714,-0.225934,-0.802972,0.135639
3.421000,-0.261152,-0.958524,-0.058382,1.421687,-0.295403,-0.508648,-0.403107,0.000000,-0.000873,0.000000,0.000000,-0.236667,-0.041888,0.227242,0.000000,-0.751133,-0.775334,0.014970,-12.764661,0.017957,-13.804662,2.963154,-17.467120,-2.117198,-6.152854,-0.192601,-0.889624,0.073352
3.431000,-0.261153,-0.958529,-0.058390,1.421685,-0.297780,-0.509060,-0.400641,0.000000,0.000000,-0.001047,0.000000,-0.242950,-0.041888,0.262847,0.000032,0.651422,0.115368,0.000000,-2.719055,-2.661532,19.134239,3.165613,-17.508124,-2.298233,-6.092761,-0.237045,-0.813804,0.146020
3.441000,-0.261155,-0.958535,-0.058397,1.421683,-0.300126,-0.509443,-0.398153,0.000000,0.000000,-0.002094,0.000000,-0.222006,-0.035605,0.231431,0.000000,0.000004,-1.806541,0.779373,11.443602,-0.076981,-15.388454,2.963154,-17.344109,-2.358578,-6.182901,-0.137045,-0.835467,0.094114
3.451000,-0.261157,-0.958541,-0.058403,1.421682,-0.302450,-0.509809,-0.395645,0.000000,0.000000,0.000000,-0.001047,-0.247139,-0.036652,0.273319,0.000000,0.649510,0.247409,-0.903415,-18.958630,0.672671,17.194287,3.003646,-17.385113,-2.207716,-6.122808,-0.203712,-0.770478,0.146020
3.461000,-0.261159,-0.958547,-0.058411,1.421681,-0.304794,-0.510186,-0.393122,0.000000,0.000000,0.000000,0.000000,-0.222006,-0.036652,0.241903,0.000000,0.649510,0.000629,-0.012675,15.447089,-0.764880,-2.758095,2.963154,-17.508124,-2.207716,-6.152854,-0.259267,-0.792141,0.114877
3.471000,-0.261160,-0.958553,-0.058418,1.421679,-0.307115,-0.510504,-0.390546,0.000000,0.000000,0.000000,0.000000,-0.222006,-0.028274,0.252375,0.000000,0.000032,0.109038,0.000005,0.093215,0.801175,-15.979866,3.165613,-17.221097,-2.147371,-6.212948,-0.214823,-0.792141,0.114877
3.481000,-0.261162,-0.958558,-0.058425,1.421678,-0.309174,-0.510771,-0.388237,0.000000,-0.000873,0.000000,0.000000,-0.233525,-0.028274,0.243997,0.000000,-0.752846,0.019042,0.104993,-13.534565,0.888483,-5.703185,3.003646,-17.262101,-2.298233,-6.152854,-0.159267,-0.802972,0.094114
3.491000,-0.261163,-0.958563,-0.058432,1.421676,-0.311260,-0.511041,-0.385878,0.000000,0.000000,0.000000,-0.001047,-0.237714,-0.030369,0.284838,0.000000,0.000036,0.004312,-0.903138,-13.411011,0.453944,22.305757,2.922662,-17.344109,-2.237888,-6.122808,-0.170379,-0.813804,0.125258
3.501000,-0.261165,-0.958568,-0.058438,1.421674,-0.313561,-0.511325,-0.383269,0.000000,-0.000873,0.001047,-0.001047,-0.231431,-0.025133,0.254469,0.000000,-0.752846,1.025155,-0.122024,7.900203,0.137119,3.326842,2.841678,-17.508124,-2.388751,-6.032667,-0.181490,-0.792141,0.125258
3.511000,-0.261166,-0.958574,-0.058446,1.421674,-0.315809,-0.511559,-0.380602,0.000000,0.000000,0.000000,0.000000,-0.215723,-0.020944,0.255516,0.000000,0.661722,0.000044,0.000000,6.590857,0.124120,-19.332265,3.003646,-17.385113,-2.207716,-6.122808,-0.181490,-0.813804,0.094114
3.521000,-0.261167,-0.958580,-0.058453,1.421672,-0.318080,-0.511755,-0.377926,0.000000,0.000000,-0.001047,0.000000,-0.229336,-0.017802,0.282743,0.012248,0.661754,-0.122024,0.002017,-11.585038,1.115418,7.907828,3.084630,-17.426117,-1.996509,-6.273042,-0.137045,-0.770478,0.177164
3.531000,-0.261169,-0.958586,-0.058460,1.421671,-0.320334,-0.511931,-0.375241,0.000000,0.000000,-0.002094,0.000000,-0.237714,-0.015708,0.282743,0.000000,0.001681,-1.790118,0.000000,-3.230061,1.683065,25.826000,2.963154,-17.426117,-2.328406,-6.062714,-0.214823,-0.857130,0.156401
3.541000,-0.261170,-0.958591,-0.058466,1.421670,-0.322557,-0.512092,-0.372522,0.000000,0.000000,0.000000,-0.001047,-0.206298,-0.012566,0.258658,0.000001,0.090857,0.014693,-0.903415,20.873899,1.826193,-1.547596,3.084630,-17.467120,-2.117198,-6.212948,-0.148156,-0.781309,0.094114
3.551000,-0.261171,-0.958596,-0.058473,1.421669,-0.324564,-0.512219,-0.370040,0.000000,0.000000,0.000000,0.000000,-0.205251,-0.011519,0.287979,0.000000,0.000000,1.576049,0.014693,17.234400,0.153716,3.292380,3.044138,-17.590132,-2.177543,-6.212948,-0.237045,-0.813804,0.094114
